; Generated by Makera Material Test Generator v0.9
; Generic NC/G-code output. Verify your controller's laser S-value scale before use.
; S max = 1000; 100% power maps to S1000
G21 ; millimeters
G90 ; absolute coordinates
M5
G0 X46.5714 Y92.5
M3 S250
G1 X46.5714 Y95.5 F2500
M5
G0 X46.5714 Y95.5
M3 S250
G1 X48.2857 Y95.5 F2500
M5
G0 X48.2857 Y95.5
M3 S250
G1 X48.7143 Y95.0714 F2500
M5
G0 X48.7143 Y95.0714
M3 S250
G1 X48.7143 Y94.4286 F2500
M5
G0 X48.7143 Y94.4286
M3 S250
G1 X48.2857 Y94 F2500
M5
G0 X48.2857 Y94
M3 S250
G1 X46.5714 Y94 F2500
M5
G0 X49.1429 Y95.5
M3 S250
G1 X51.2857 Y95.5 F2500
M5
G0 X51.2857 Y95.5
M3 S250
G1 X51.2857 Y92.5 F2500
M5
G0 X51.2857 Y92.5
M3 S250
G1 X49.1429 Y92.5 F2500
M5
G0 X49.1429 Y92.5
M3 S250
G1 X49.1429 Y95.5 F2500
M5
G0 X51.7143 Y95.5
M3 S250
G1 X52.0571 Y92.5 F2500
M5
G0 X52.0571 Y92.5
M3 S250
G1 X52.7857 Y93.7857 F2500
M5
G0 X52.7857 Y93.7857
M3 S250
G1 X53.5143 Y92.5 F2500
M5
G0 X53.5143 Y92.5
M3 S250
G1 X53.8571 Y95.5 F2500
M5
G0 X56.4286 Y95.5
M3 S250
G1 X54.2857 Y95.5 F2500
M5
G0 X54.2857 Y95.5
M3 S250
G1 X54.2857 Y92.5 F2500
M5
G0 X54.2857 Y92.5
M3 S250
G1 X56.4286 Y92.5 F2500
M5
G0 X54.2857 Y94
M3 S250
G1 X56 Y94 F2500
M5
G0 X56.8571 Y92.5
M3 S250
G1 X56.8571 Y95.5 F2500
M5
G0 X56.8571 Y95.5
M3 S250
G1 X58.5714 Y95.5 F2500
M5
G0 X58.5714 Y95.5
M3 S250
G1 X59 Y95.0714 F2500
M5
G0 X59 Y95.0714
M3 S250
G1 X59 Y94.4286 F2500
M5
G0 X59 Y94.4286
M3 S250
G1 X58.5714 Y94 F2500
M5
G0 X58.5714 Y94
M3 S250
G1 X56.8571 Y94 F2500
M5
G0 X57.9286 Y94
M3 S250
G1 X59 Y92.5 F2500
M5
G0 X62.4286 Y95.5
M3 S250
G1 X61.5714 Y95.0714 F2500
M5
G0 X61.5714 Y95.0714
M3 S250
G1 X61.1429 Y94 F2500
M5
G0 X61.1429 Y94
M3 S250
G1 X61.5714 Y92.9286 F2500
M5
G0 X61.5714 Y92.9286
M3 S250
G1 X62.4286 Y92.5 F2500
M5
G0 X63.2857 Y92.5
M3 S250
G1 X65.4286 Y95.5 F2500
M5
G0 X63.7143 Y95.5
M3 S250
G1 X64.1429 Y95.5 F2500
M5
G0 X64.1429 Y95.5
M3 S250
G1 X64.1429 Y95.0714 F2500
M5
G0 X64.1429 Y95.0714
M3 S250
G1 X63.7143 Y95.0714 F2500
M5
G0 X63.7143 Y95.0714
M3 S250
G1 X63.7143 Y95.5 F2500
M5
G0 X64.5714 Y92.9286
M3 S250
G1 X65 Y92.9286 F2500
M5
G0 X65 Y92.9286
M3 S250
G1 X65 Y92.5 F2500
M5
G0 X65 Y92.5
M3 S250
G1 X64.5714 Y92.5 F2500
M5
G0 X64.5714 Y92.5
M3 S250
G1 X64.5714 Y92.9286 F2500
M5
G0 X66.2857 Y95.5
M3 S250
G1 X67.1429 Y95.0714 F2500
M5
G0 X67.1429 Y95.0714
M3 S250
G1 X67.5714 Y94 F2500
M5
G0 X67.5714 Y94
M3 S250
G1 X67.1429 Y92.9286 F2500
M5
G0 X67.1429 Y92.9286
M3 S250
G1 X66.2857 Y92.5 F2500
M5
G0 X2.1857 Y58.1571
M3 S250
G1 X2.5 Y58.4714 F2500
M5
G0 X2.5 Y58.4714
M3 S250
G1 X2.5 Y59.4143 F2500
M5
G0 X2.5 Y59.4143
M3 S250
G1 X2.1857 Y59.7286 F2500
M5
G0 X2.1857 Y59.7286
M3 S250
G1 X1.5571 Y59.7286 F2500
M5
G0 X1.5571 Y59.7286
M3 S250
G1 X1.4 Y59.4143 F2500
M5
G0 X1.4 Y59.4143
M3 S250
G1 X1.4 Y58.4714 F2500
M5
G0 X1.4 Y58.4714
M3 S250
G1 X1.2429 Y58.1571 F2500
M5
G0 X1.2429 Y58.1571
M3 S250
G1 X0.6143 Y58.1571 F2500
M5
G0 X0.6143 Y58.1571
M3 S250
G1 X0.3 Y58.4714 F2500
M5
G0 X0.3 Y58.4714
M3 S250
G1 X0.3 Y59.4143 F2500
M5
G0 X0.3 Y59.4143
M3 S250
G1 X0.6143 Y59.7286 F2500
M5
G0 X0.3 Y57.8429
M3 S250
G1 X2.5 Y57.8429 F2500
M5
G0 X2.5 Y57.8429
M3 S250
G1 X2.5 Y56.5857 F2500
M5
G0 X2.5 Y56.5857
M3 S250
G1 X2.1857 Y56.2714 F2500
M5
G0 X2.1857 Y56.2714
M3 S250
G1 X1.7143 Y56.2714 F2500
M5
G0 X1.7143 Y56.2714
M3 S250
G1 X1.4 Y56.5857 F2500
M5
G0 X1.4 Y56.5857
M3 S250
G1 X1.4 Y57.8429 F2500
M5
G0 X2.5 Y54.3857
M3 S250
G1 X2.5 Y55.9571 F2500
M5
G0 X2.5 Y55.9571
M3 S250
G1 X0.3 Y55.9571 F2500
M5
G0 X0.3 Y55.9571
M3 S250
G1 X0.3 Y54.3857 F2500
M5
G0 X1.4 Y55.9571
M3 S250
G1 X1.4 Y54.7 F2500
M5
G0 X2.5 Y52.5
M3 S250
G1 X2.5 Y54.0714 F2500
M5
G0 X2.5 Y54.0714
M3 S250
G1 X0.3 Y54.0714 F2500
M5
G0 X0.3 Y54.0714
M3 S250
G1 X0.3 Y52.5 F2500
M5
G0 X1.4 Y54.0714
M3 S250
G1 X1.4 Y52.8143 F2500
M5
G0 X2.5 Y52.1857
M3 S250
G1 X0.3 Y52.1857 F2500
M5
G0 X2.5 Y52.1857
M3 S250
G1 X2.5 Y51.0857 F2500
M5
G0 X2.5 Y51.0857
M3 S250
G1 X2.0286 Y50.6143 F2500
M5
G0 X2.0286 Y50.6143
M3 S250
G1 X0.7714 Y50.6143 F2500
M5
G0 X0.7714 Y50.6143
M3 S250
G1 X0.3 Y51.0857 F2500
M5
G0 X0.3 Y51.0857
M3 S250
G1 X0.3 Y52.1857 F2500
M5
G0 X2.5 Y48.1
M3 S250
G1 X2.1857 Y48.7286 F2500
M5
G0 X2.1857 Y48.7286
M3 S250
G1 X1.4 Y49.0429 F2500
M5
G0 X1.4 Y49.0429
M3 S250
G1 X0.6143 Y48.7286 F2500
M5
G0 X0.6143 Y48.7286
M3 S250
G1 X0.3 Y48.1 F2500
M5
G0 X0.3 Y47.4714
M3 S250
G1 X2.5 Y47.4714 F2500
M5
G0 X2.5 Y47.4714
M3 S250
G1 X1.4 Y46.6857 F2500
M5
G0 X1.4 Y46.6857
M3 S250
G1 X2.5 Y45.9 F2500
M5
G0 X2.5 Y45.9
M3 S250
G1 X0.3 Y45.9 F2500
M5
G0 X0.3 Y45.5857
M3 S250
G1 X2.5 Y45.5857 F2500
M5
G0 X2.5 Y45.5857
M3 S250
G1 X1.4 Y44.8 F2500
M5
G0 X1.4 Y44.8
M3 S250
G1 X2.5 Y44.0143 F2500
M5
G0 X2.5 Y44.0143
M3 S250
G1 X0.3 Y44.0143 F2500
M5
G0 X2.5 Y42.1286
M3 S250
G1 X0.3 Y43.7 F2500
M5
G0 X0.3 Y41.8143
M3 S250
G1 X2.5 Y41.8143 F2500
M5
G0 X2.5 Y41.8143
M3 S250
G1 X1.4 Y41.0286 F2500
M5
G0 X1.4 Y41.0286
M3 S250
G1 X2.5 Y40.2429 F2500
M5
G0 X2.5 Y40.2429
M3 S250
G1 X0.3 Y40.2429 F2500
M5
G0 X2.5 Y39.9286
M3 S250
G1 X2.5 Y38.3571 F2500
M5
G0 X2.5 Y39.1429
M3 S250
G1 X0.3 Y39.1429 F2500
M5
G0 X0.3 Y39.9286
M3 S250
G1 X0.3 Y38.3571 F2500
M5
G0 X0.3 Y38.0429
M3 S250
G1 X2.5 Y38.0429 F2500
M5
G0 X2.5 Y38.0429
M3 S250
G1 X0.3 Y36.4714 F2500
M5
G0 X0.3 Y36.4714
M3 S250
G1 X2.5 Y36.4714 F2500
M5
G0 X2.5 Y35.8429
M3 S250
G1 X2.1857 Y35.2143 F2500
M5
G0 X2.1857 Y35.2143
M3 S250
G1 X1.4 Y34.9 F2500
M5
G0 X1.4 Y34.9
M3 S250
G1 X0.6143 Y35.2143 F2500
M5
G0 X0.6143 Y35.2143
M3 S250
G1 X0.3 Y35.8429 F2500
M5
G0 X20.2714 Y89.0286
M3 S250
G1 X20.6429 Y89.4 F2500
M5
G0 X20.6429 Y89.4
M3 S250
G1 X21.7571 Y89.4 F2500
M5
G0 X21.7571 Y89.4
M3 S250
G1 X22.1286 Y89.0286 F2500
M5
G0 X22.1286 Y89.0286
M3 S250
G1 X22.1286 Y88.2857 F2500
M5
G0 X22.1286 Y88.2857
M3 S250
G1 X20.2714 Y86.8 F2500
M5
G0 X20.2714 Y86.8
M3 S250
G1 X22.1286 Y86.8 F2500
M5
G0 X22.5 Y89.4
M3 S250
G1 X24.3571 Y89.4 F2500
M5
G0 X24.3571 Y89.4
M3 S250
G1 X24.3571 Y86.8 F2500
M5
G0 X24.3571 Y86.8
M3 S250
G1 X22.5 Y86.8 F2500
M5
G0 X22.5 Y86.8
M3 S250
G1 X22.5 Y89.4 F2500
M5
G0 X30.2714 Y89.0286
M3 S250
G1 X30.6429 Y89.4 F2500
M5
G0 X30.6429 Y89.4
M3 S250
G1 X31.7571 Y89.4 F2500
M5
G0 X31.7571 Y89.4
M3 S250
G1 X32.1286 Y89.0286 F2500
M5
G0 X32.1286 Y89.0286
M3 S250
G1 X32.1286 Y88.2857 F2500
M5
G0 X32.1286 Y88.2857
M3 S250
G1 X30.2714 Y86.8 F2500
M5
G0 X30.2714 Y86.8
M3 S250
G1 X32.1286 Y86.8 F2500
M5
G0 X32.5 Y89.4
M3 S250
G1 X34.3571 Y89.4 F2500
M5
G0 X34.3571 Y89.4
M3 S250
G1 X33.6143 Y88.1 F2500
M5
G0 X33.6143 Y88.1
M3 S250
G1 X34.3571 Y86.8 F2500
M5
G0 X34.3571 Y86.8
M3 S250
G1 X32.5 Y86.8 F2500
M5
G0 X33.2429 Y88.1
M3 S250
G1 X34.3571 Y88.1 F2500
M5
G0 X40.2714 Y89.0286
M3 S250
G1 X40.6429 Y89.4 F2500
M5
G0 X40.6429 Y89.4
M3 S250
G1 X41.7571 Y89.4 F2500
M5
G0 X41.7571 Y89.4
M3 S250
G1 X42.1286 Y89.0286 F2500
M5
G0 X42.1286 Y89.0286
M3 S250
G1 X42.1286 Y88.2857 F2500
M5
G0 X42.1286 Y88.2857
M3 S250
G1 X40.2714 Y86.8 F2500
M5
G0 X40.2714 Y86.8
M3 S250
G1 X42.1286 Y86.8 F2500
M5
G0 X44.3571 Y89.4
M3 S250
G1 X42.8714 Y89.4 F2500
M5
G0 X42.8714 Y89.4
M3 S250
G1 X42.5 Y89.0286 F2500
M5
G0 X42.5 Y89.0286
M3 S250
G1 X42.5 Y87.1714 F2500
M5
G0 X42.5 Y87.1714
M3 S250
G1 X42.8714 Y86.8 F2500
M5
G0 X42.8714 Y86.8
M3 S250
G1 X43.9857 Y86.8 F2500
M5
G0 X43.9857 Y86.8
M3 S250
G1 X44.3571 Y87.1714 F2500
M5
G0 X44.3571 Y87.1714
M3 S250
G1 X44.3571 Y87.7286 F2500
M5
G0 X44.3571 Y87.7286
M3 S250
G1 X43.9857 Y88.1 F2500
M5
G0 X43.9857 Y88.1
M3 S250
G1 X42.5 Y88.1 F2500
M5
G0 X50.2714 Y89.0286
M3 S250
G1 X50.6429 Y89.4 F2500
M5
G0 X50.6429 Y89.4
M3 S250
G1 X51.7571 Y89.4 F2500
M5
G0 X51.7571 Y89.4
M3 S250
G1 X52.1286 Y89.0286 F2500
M5
G0 X52.1286 Y89.0286
M3 S250
G1 X52.1286 Y88.2857 F2500
M5
G0 X52.1286 Y88.2857
M3 S250
G1 X50.2714 Y86.8 F2500
M5
G0 X50.2714 Y86.8
M3 S250
G1 X52.1286 Y86.8 F2500
M5
G0 X54.3571 Y88.1
M3 S250
G1 X52.8714 Y88.1 F2500
M5
G0 X52.8714 Y88.1
M3 S250
G1 X52.5 Y88.4714 F2500
M5
G0 X52.5 Y88.4714
M3 S250
G1 X52.5 Y89.0286 F2500
M5
G0 X52.5 Y89.0286
M3 S250
G1 X52.8714 Y89.4 F2500
M5
G0 X52.8714 Y89.4
M3 S250
G1 X53.9857 Y89.4 F2500
M5
G0 X53.9857 Y89.4
M3 S250
G1 X54.3571 Y89.0286 F2500
M5
G0 X54.3571 Y89.0286
M3 S250
G1 X54.3571 Y87.1714 F2500
M5
G0 X54.3571 Y87.1714
M3 S250
G1 X53.9857 Y86.8 F2500
M5
G0 X53.9857 Y86.8
M3 S250
G1 X52.5 Y86.8 F2500
M5
G0 X60.2714 Y89.4
M3 S250
G1 X62.1286 Y89.4 F2500
M5
G0 X62.1286 Y89.4
M3 S250
G1 X61.3857 Y88.1 F2500
M5
G0 X61.3857 Y88.1
M3 S250
G1 X62.1286 Y86.8 F2500
M5
G0 X62.1286 Y86.8
M3 S250
G1 X60.2714 Y86.8 F2500
M5
G0 X61.0143 Y88.1
M3 S250
G1 X62.1286 Y88.1 F2500
M5
G0 X63.4286 Y89.4
M3 S250
G1 X63.4286 Y86.8 F2500
M5
G0 X62.9457 Y86.8
M3 S250
G1 X63.9114 Y86.8 F2500
M5
G0 X70.2714 Y89.4
M3 S250
G1 X72.1286 Y89.4 F2500
M5
G0 X72.1286 Y89.4
M3 S250
G1 X71.3857 Y88.1 F2500
M5
G0 X71.3857 Y88.1
M3 S250
G1 X72.1286 Y86.8 F2500
M5
G0 X72.1286 Y86.8
M3 S250
G1 X70.2714 Y86.8 F2500
M5
G0 X71.0143 Y88.1
M3 S250
G1 X72.1286 Y88.1 F2500
M5
G0 X74.3571 Y89.4
M3 S250
G1 X74.3571 Y86.8 F2500
M5
G0 X72.5 Y89.4
M3 S250
G1 X72.5 Y88.1 F2500
M5
G0 X72.5 Y88.1
M3 S250
G1 X74.3571 Y88.1 F2500
M5
G0 X80.2714 Y89.4
M3 S250
G1 X82.1286 Y89.4 F2500
M5
G0 X82.1286 Y89.4
M3 S250
G1 X81.3857 Y88.1 F2500
M5
G0 X81.3857 Y88.1
M3 S250
G1 X82.1286 Y86.8 F2500
M5
G0 X82.1286 Y86.8
M3 S250
G1 X80.2714 Y86.8 F2500
M5
G0 X81.0143 Y88.1
M3 S250
G1 X82.1286 Y88.1 F2500
M5
G0 X82.5 Y89.4
M3 S250
G1 X84.3571 Y89.4 F2500
M5
G0 X84.3571 Y89.4
M3 S250
G1 X83.2429 Y86.8 F2500
M5
G0 X92.1286 Y89.4
M3 S250
G1 X92.1286 Y86.8 F2500
M5
G0 X90.2714 Y89.4
M3 S250
G1 X90.2714 Y88.1 F2500
M5
G0 X90.2714 Y88.1
M3 S250
G1 X92.1286 Y88.1 F2500
M5
G0 X92.5 Y89.4
M3 S250
G1 X94.3571 Y89.4 F2500
M5
G0 X94.3571 Y89.4
M3 S250
G1 X94.3571 Y86.8 F2500
M5
G0 X94.3571 Y86.8
M3 S250
G1 X92.5 Y86.8 F2500
M5
G0 X92.5 Y86.8
M3 S250
G1 X92.5 Y89.4 F2500
M5
G0 X6.1286 Y12.2
M3 S250
G1 X6.1286 Y9.8 F2500
M5
G0 X5.6829 Y9.8
M3 S250
G1 X6.5743 Y9.8 F2500
M5
G0 X7.6714 Y12.2
M3 S250
G1 X8.7 Y12.2 F2500
M5
G0 X8.7 Y12.2
M3 S250
G1 X9.0429 Y11.8571 F2500
M5
G0 X9.0429 Y11.8571
M3 S250
G1 X9.0429 Y11.3429 F2500
M5
G0 X9.0429 Y11.3429
M3 S250
G1 X8.7 Y11 F2500
M5
G0 X8.7 Y11
M3 S250
G1 X7.6714 Y11 F2500
M5
G0 X7.6714 Y11
M3 S250
G1 X7.3286 Y11.3429 F2500
M5
G0 X7.3286 Y11.3429
M3 S250
G1 X7.3286 Y11.8571 F2500
M5
G0 X7.3286 Y11.8571
M3 S250
G1 X7.6714 Y12.2 F2500
M5
G0 X7.6714 Y11
M3 S250
G1 X8.7 Y11 F2500
M5
G0 X8.7 Y11
M3 S250
G1 X9.0429 Y10.6571 F2500
M5
G0 X9.0429 Y10.6571
M3 S250
G1 X9.0429 Y10.1429 F2500
M5
G0 X9.0429 Y10.1429
M3 S250
G1 X8.7 Y9.8 F2500
M5
G0 X8.7 Y9.8
M3 S250
G1 X7.6714 Y9.8 F2500
M5
G0 X7.6714 Y9.8
M3 S250
G1 X7.3286 Y10.1429 F2500
M5
G0 X7.3286 Y10.1429
M3 S250
G1 X7.3286 Y10.6571 F2500
M5
G0 X7.3286 Y10.6571
M3 S250
G1 X7.6714 Y11 F2500
M5
G0 X9.3857 Y12.2
M3 S250
G1 X11.1 Y12.2 F2500
M5
G0 X11.1 Y12.2
M3 S250
G1 X11.1 Y9.8 F2500
M5
G0 X11.1 Y9.8
M3 S250
G1 X9.3857 Y9.8 F2500
M5
G0 X9.3857 Y9.8
M3 S250
G1 X9.3857 Y12.2 F2500
M5
G0 X11.4429 Y12.2
M3 S250
G1 X13.1571 Y12.2 F2500
M5
G0 X13.1571 Y12.2
M3 S250
G1 X13.1571 Y9.8 F2500
M5
G0 X13.1571 Y9.8
M3 S250
G1 X11.4429 Y9.8 F2500
M5
G0 X11.4429 Y9.8
M3 S250
G1 X11.4429 Y12.2 F2500
M5
G0 X6.1286 Y22.2
M3 S250
G1 X6.1286 Y19.8 F2500
M5
G0 X5.6829 Y19.8
M3 S250
G1 X6.5743 Y19.8 F2500
M5
G0 X9.0429 Y21
M3 S250
G1 X7.6714 Y21 F2500
M5
G0 X7.6714 Y21
M3 S250
G1 X7.3286 Y21.3429 F2500
M5
G0 X7.3286 Y21.3429
M3 S250
G1 X7.3286 Y21.8571 F2500
M5
G0 X7.3286 Y21.8571
M3 S250
G1 X7.6714 Y22.2 F2500
M5
G0 X7.6714 Y22.2
M3 S250
G1 X8.7 Y22.2 F2500
M5
G0 X8.7 Y22.2
M3 S250
G1 X9.0429 Y21.8571 F2500
M5
G0 X9.0429 Y21.8571
M3 S250
G1 X9.0429 Y20.1429 F2500
M5
G0 X9.0429 Y20.1429
M3 S250
G1 X8.7 Y19.8 F2500
M5
G0 X8.7 Y19.8
M3 S250
G1 X7.3286 Y19.8 F2500
M5
G0 X11.1 Y22.2
M3 S250
G1 X11.1 Y19.8 F2500
M5
G0 X9.3857 Y22.2
M3 S250
G1 X9.3857 Y21 F2500
M5
G0 X9.3857 Y21
M3 S250
G1 X11.1 Y21 F2500
M5
G0 X11.4429 Y22.2
M3 S250
G1 X13.1571 Y22.2 F2500
M5
G0 X13.1571 Y22.2
M3 S250
G1 X12.4714 Y21 F2500
M5
G0 X12.4714 Y21
M3 S250
G1 X13.1571 Y19.8 F2500
M5
G0 X13.1571 Y19.8
M3 S250
G1 X11.4429 Y19.8 F2500
M5
G0 X12.1286 Y21
M3 S250
G1 X13.1571 Y21 F2500
M5
G0 X5.2714 Y31.8571
M3 S250
G1 X5.6143 Y32.2 F2500
M5
G0 X5.6143 Y32.2
M3 S250
G1 X6.6429 Y32.2 F2500
M5
G0 X6.6429 Y32.2
M3 S250
G1 X6.9857 Y31.8571 F2500
M5
G0 X6.9857 Y31.8571
M3 S250
G1 X6.9857 Y31.1714 F2500
M5
G0 X6.9857 Y31.1714
M3 S250
G1 X5.2714 Y29.8 F2500
M5
G0 X5.2714 Y29.8
M3 S250
G1 X6.9857 Y29.8 F2500
M5
G0 X7.3286 Y32.2
M3 S250
G1 X9.0429 Y32.2 F2500
M5
G0 X9.0429 Y32.2
M3 S250
G1 X9.0429 Y29.8 F2500
M5
G0 X9.0429 Y29.8
M3 S250
G1 X7.3286 Y29.8 F2500
M5
G0 X7.3286 Y29.8
M3 S250
G1 X7.3286 Y32.2 F2500
M5
G0 X9.7286 Y32.2
M3 S250
G1 X10.7571 Y32.2 F2500
M5
G0 X10.7571 Y32.2
M3 S250
G1 X11.1 Y31.8571 F2500
M5
G0 X11.1 Y31.8571
M3 S250
G1 X11.1 Y31.3429 F2500
M5
G0 X11.1 Y31.3429
M3 S250
G1 X10.7571 Y31 F2500
M5
G0 X10.7571 Y31
M3 S250
G1 X9.7286 Y31 F2500
M5
G0 X9.7286 Y31
M3 S250
G1 X9.3857 Y31.3429 F2500
M5
G0 X9.3857 Y31.3429
M3 S250
G1 X9.3857 Y31.8571 F2500
M5
G0 X9.3857 Y31.8571
M3 S250
G1 X9.7286 Y32.2 F2500
M5
G0 X9.7286 Y31
M3 S250
G1 X10.7571 Y31 F2500
M5
G0 X10.7571 Y31
M3 S250
G1 X11.1 Y30.6571 F2500
M5
G0 X11.1 Y30.6571
M3 S250
G1 X11.1 Y30.1429 F2500
M5
G0 X11.1 Y30.1429
M3 S250
G1 X10.7571 Y29.8 F2500
M5
G0 X10.7571 Y29.8
M3 S250
G1 X9.7286 Y29.8 F2500
M5
G0 X9.7286 Y29.8
M3 S250
G1 X9.3857 Y30.1429 F2500
M5
G0 X9.3857 Y30.1429
M3 S250
G1 X9.3857 Y30.6571 F2500
M5
G0 X9.3857 Y30.6571
M3 S250
G1 X9.7286 Y31 F2500
M5
G0 X13.1571 Y32.2
M3 S250
G1 X11.7857 Y32.2 F2500
M5
G0 X11.7857 Y32.2
M3 S250
G1 X11.4429 Y31.8571 F2500
M5
G0 X11.4429 Y31.8571
M3 S250
G1 X11.4429 Y30.1429 F2500
M5
G0 X11.4429 Y30.1429
M3 S250
G1 X11.7857 Y29.8 F2500
M5
G0 X11.7857 Y29.8
M3 S250
G1 X12.8143 Y29.8 F2500
M5
G0 X12.8143 Y29.8
M3 S250
G1 X13.1571 Y30.1429 F2500
M5
G0 X13.1571 Y30.1429
M3 S250
G1 X13.1571 Y30.6571 F2500
M5
G0 X13.1571 Y30.6571
M3 S250
G1 X12.8143 Y31 F2500
M5
G0 X12.8143 Y31
M3 S250
G1 X11.4429 Y31 F2500
M5
G0 X5.2714 Y41.8571
M3 S250
G1 X5.6143 Y42.2 F2500
M5
G0 X5.6143 Y42.2
M3 S250
G1 X6.6429 Y42.2 F2500
M5
G0 X6.6429 Y42.2
M3 S250
G1 X6.9857 Y41.8571 F2500
M5
G0 X6.9857 Y41.8571
M3 S250
G1 X6.9857 Y41.1714 F2500
M5
G0 X6.9857 Y41.1714
M3 S250
G1 X5.2714 Y39.8 F2500
M5
G0 X5.2714 Y39.8
M3 S250
G1 X6.9857 Y39.8 F2500
M5
G0 X7.3286 Y41.8571
M3 S250
G1 X7.6714 Y42.2 F2500
M5
G0 X7.6714 Y42.2
M3 S250
G1 X8.7 Y42.2 F2500
M5
G0 X8.7 Y42.2
M3 S250
G1 X9.0429 Y41.8571 F2500
M5
G0 X9.0429 Y41.8571
M3 S250
G1 X9.0429 Y41.1714 F2500
M5
G0 X9.0429 Y41.1714
M3 S250
G1 X7.3286 Y39.8 F2500
M5
G0 X7.3286 Y39.8
M3 S250
G1 X9.0429 Y39.8 F2500
M5
G0 X9.3857 Y41.8571
M3 S250
G1 X9.7286 Y42.2 F2500
M5
G0 X9.7286 Y42.2
M3 S250
G1 X10.7571 Y42.2 F2500
M5
G0 X10.7571 Y42.2
M3 S250
G1 X11.1 Y41.8571 F2500
M5
G0 X11.1 Y41.8571
M3 S250
G1 X11.1 Y41.1714 F2500
M5
G0 X11.1 Y41.1714
M3 S250
G1 X9.3857 Y39.8 F2500
M5
G0 X9.3857 Y39.8
M3 S250
G1 X11.1 Y39.8 F2500
M5
G0 X13.1571 Y41
M3 S250
G1 X11.7857 Y41 F2500
M5
G0 X11.7857 Y41
M3 S250
G1 X11.4429 Y41.3429 F2500
M5
G0 X11.4429 Y41.3429
M3 S250
G1 X11.4429 Y41.8571 F2500
M5
G0 X11.4429 Y41.8571
M3 S250
G1 X11.7857 Y42.2 F2500
M5
G0 X11.7857 Y42.2
M3 S250
G1 X12.8143 Y42.2 F2500
M5
G0 X12.8143 Y42.2
M3 S250
G1 X13.1571 Y41.8571 F2500
M5
G0 X13.1571 Y41.8571
M3 S250
G1 X13.1571 Y40.1429 F2500
M5
G0 X13.1571 Y40.1429
M3 S250
G1 X12.8143 Y39.8 F2500
M5
G0 X12.8143 Y39.8
M3 S250
G1 X11.4429 Y39.8 F2500
M5
G0 X5.2714 Y51.8571
M3 S250
G1 X5.6143 Y52.2 F2500
M5
G0 X5.6143 Y52.2
M3 S250
G1 X6.6429 Y52.2 F2500
M5
G0 X6.6429 Y52.2
M3 S250
G1 X6.9857 Y51.8571 F2500
M5
G0 X6.9857 Y51.8571
M3 S250
G1 X6.9857 Y51.1714 F2500
M5
G0 X6.9857 Y51.1714
M3 S250
G1 X5.2714 Y49.8 F2500
M5
G0 X5.2714 Y49.8
M3 S250
G1 X6.9857 Y49.8 F2500
M5
G0 X7.3286 Y52.2
M3 S250
G1 X9.0429 Y52.2 F2500
M5
G0 X9.0429 Y52.2
M3 S250
G1 X8.3571 Y51 F2500
M5
G0 X8.3571 Y51
M3 S250
G1 X9.0429 Y49.8 F2500
M5
G0 X9.0429 Y49.8
M3 S250
G1 X7.3286 Y49.8 F2500
M5
G0 X8.0143 Y51
M3 S250
G1 X9.0429 Y51 F2500
M5
G0 X9.3857 Y52.2
M3 S250
G1 X11.1 Y52.2 F2500
M5
G0 X11.1 Y52.2
M3 S250
G1 X10.0714 Y49.8 F2500
M5
G0 X12.3 Y52.2
M3 S250
G1 X12.3 Y49.8 F2500
M5
G0 X11.8543 Y49.8
M3 S250
G1 X12.7457 Y49.8 F2500
M5
G0 X5.2714 Y61.8571
M3 S250
G1 X5.6143 Y62.2 F2500
M5
G0 X5.6143 Y62.2
M3 S250
G1 X6.6429 Y62.2 F2500
M5
G0 X6.6429 Y62.2
M3 S250
G1 X6.9857 Y61.8571 F2500
M5
G0 X6.9857 Y61.8571
M3 S250
G1 X6.9857 Y61.1714 F2500
M5
G0 X6.9857 Y61.1714
M3 S250
G1 X5.2714 Y59.8 F2500
M5
G0 X5.2714 Y59.8
M3 S250
G1 X6.9857 Y59.8 F2500
M5
G0 X9.0429 Y62.2
M3 S250
G1 X7.3286 Y62.2 F2500
M5
G0 X7.3286 Y62.2
M3 S250
G1 X7.3286 Y61 F2500
M5
G0 X7.3286 Y61
M3 S250
G1 X8.7 Y61 F2500
M5
G0 X8.7 Y61
M3 S250
G1 X9.0429 Y60.6571 F2500
M5
G0 X9.0429 Y60.6571
M3 S250
G1 X9.0429 Y60.1429 F2500
M5
G0 X9.0429 Y60.1429
M3 S250
G1 X8.7 Y59.8 F2500
M5
G0 X8.7 Y59.8
M3 S250
G1 X7.3286 Y59.8 F2500
M5
G0 X10.2429 Y62.2
M3 S250
G1 X10.2429 Y59.8 F2500
M5
G0 X9.7971 Y59.8
M3 S250
G1 X10.6886 Y59.8 F2500
M5
G0 X13.1571 Y62.2
M3 S250
G1 X13.1571 Y59.8 F2500
M5
G0 X11.4429 Y62.2
M3 S250
G1 X11.4429 Y61 F2500
M5
G0 X11.4429 Y61
M3 S250
G1 X13.1571 Y61 F2500
M5
G0 X5.2714 Y71.8571
M3 S250
G1 X5.6143 Y72.2 F2500
M5
G0 X5.6143 Y72.2
M3 S250
G1 X6.6429 Y72.2 F2500
M5
G0 X6.6429 Y72.2
M3 S250
G1 X6.9857 Y71.8571 F2500
M5
G0 X6.9857 Y71.8571
M3 S250
G1 X6.9857 Y71.1714 F2500
M5
G0 X6.9857 Y71.1714
M3 S250
G1 X5.2714 Y69.8 F2500
M5
G0 X5.2714 Y69.8
M3 S250
G1 X6.9857 Y69.8 F2500
M5
G0 X9.0429 Y72.2
M3 S250
G1 X7.6714 Y72.2 F2500
M5
G0 X7.6714 Y72.2
M3 S250
G1 X7.3286 Y71.8571 F2500
M5
G0 X7.3286 Y71.8571
M3 S250
G1 X7.3286 Y70.1429 F2500
M5
G0 X7.3286 Y70.1429
M3 S250
G1 X7.6714 Y69.8 F2500
M5
G0 X7.6714 Y69.8
M3 S250
G1 X8.7 Y69.8 F2500
M5
G0 X8.7 Y69.8
M3 S250
G1 X9.0429 Y70.1429 F2500
M5
G0 X9.0429 Y70.1429
M3 S250
G1 X9.0429 Y70.6571 F2500
M5
G0 X9.0429 Y70.6571
M3 S250
G1 X8.7 Y71 F2500
M5
G0 X8.7 Y71
M3 S250
G1 X7.3286 Y71 F2500
M5
G0 X11.1 Y72.2
M3 S250
G1 X9.3857 Y72.2 F2500
M5
G0 X9.3857 Y72.2
M3 S250
G1 X9.3857 Y71 F2500
M5
G0 X9.3857 Y71
M3 S250
G1 X10.7571 Y71 F2500
M5
G0 X10.7571 Y71
M3 S250
G1 X11.1 Y70.6571 F2500
M5
G0 X11.1 Y70.6571
M3 S250
G1 X11.1 Y70.1429 F2500
M5
G0 X11.1 Y70.1429
M3 S250
G1 X10.7571 Y69.8 F2500
M5
G0 X10.7571 Y69.8
M3 S250
G1 X9.3857 Y69.8 F2500
M5
G0 X11.4429 Y72.2
M3 S250
G1 X13.1571 Y72.2 F2500
M5
G0 X13.1571 Y72.2
M3 S250
G1 X12.1286 Y69.8 F2500
M5
G0 X5.2714 Y81.8571
M3 S250
G1 X5.6143 Y82.2 F2500
M5
G0 X5.6143 Y82.2
M3 S250
G1 X6.6429 Y82.2 F2500
M5
G0 X6.6429 Y82.2
M3 S250
G1 X6.9857 Y81.8571 F2500
M5
G0 X6.9857 Y81.8571
M3 S250
G1 X6.9857 Y81.1714 F2500
M5
G0 X6.9857 Y81.1714
M3 S250
G1 X5.2714 Y79.8 F2500
M5
G0 X5.2714 Y79.8
M3 S250
G1 X6.9857 Y79.8 F2500
M5
G0 X7.6714 Y82.2
M3 S250
G1 X8.7 Y82.2 F2500
M5
G0 X8.7 Y82.2
M3 S250
G1 X9.0429 Y81.8571 F2500
M5
G0 X9.0429 Y81.8571
M3 S250
G1 X9.0429 Y81.3429 F2500
M5
G0 X9.0429 Y81.3429
M3 S250
G1 X8.7 Y81 F2500
M5
G0 X8.7 Y81
M3 S250
G1 X7.6714 Y81 F2500
M5
G0 X7.6714 Y81
M3 S250
G1 X7.3286 Y81.3429 F2500
M5
G0 X7.3286 Y81.3429
M3 S250
G1 X7.3286 Y81.8571 F2500
M5
G0 X7.3286 Y81.8571
M3 S250
G1 X7.6714 Y82.2 F2500
M5
G0 X7.6714 Y81
M3 S250
G1 X8.7 Y81 F2500
M5
G0 X8.7 Y81
M3 S250
G1 X9.0429 Y80.6571 F2500
M5
G0 X9.0429 Y80.6571
M3 S250
G1 X9.0429 Y80.1429 F2500
M5
G0 X9.0429 Y80.1429
M3 S250
G1 X8.7 Y79.8 F2500
M5
G0 X8.7 Y79.8
M3 S250
G1 X7.6714 Y79.8 F2500
M5
G0 X7.6714 Y79.8
M3 S250
G1 X7.3286 Y80.1429 F2500
M5
G0 X7.3286 Y80.1429
M3 S250
G1 X7.3286 Y80.6571 F2500
M5
G0 X7.3286 Y80.6571
M3 S250
G1 X7.6714 Y81 F2500
M5
G0 X9.3857 Y82.2
M3 S250
G1 X11.1 Y82.2 F2500
M5
G0 X11.1 Y82.2
M3 S250
G1 X11.1 Y79.8 F2500
M5
G0 X11.1 Y79.8
M3 S250
G1 X9.3857 Y79.8 F2500
M5
G0 X9.3857 Y79.8
M3 S250
G1 X9.3857 Y82.2 F2500
M5
G0 X11.4429 Y82.2
M3 S250
G1 X13.1571 Y82.2 F2500
M5
G0 X13.1571 Y82.2
M3 S250
G1 X13.1571 Y79.8 F2500
M5
G0 X13.1571 Y79.8
M3 S250
G1 X11.4429 Y79.8 F2500
M5
G0 X11.4429 Y79.8
M3 S250
G1 X11.4429 Y82.2 F2500
M5
; Tile row=1 col=1 speed=1800 power=20
G0 X18.5 Y8
M3 S200
G1 X26.5 Y8 F1800
G1 X26.5 Y16 F1800
G1 X18.5 Y16 F1800
G1 X18.5 Y8 F1800
M5
G0 X18.6 Y8.1
M3 S200
G1 X26.4 Y8.1 F1800
G1 X26.4 Y15.9 F1800
G1 X18.6 Y15.9 F1800
G1 X18.6 Y8.1 F1800
M5
G0 X18.7 Y8.2
M3 S200
G1 X26.3 Y8.2 F1800
G1 X26.3 Y15.8 F1800
G1 X18.7 Y15.8 F1800
G1 X18.7 Y8.2 F1800
M5
G0 X18.8 Y8.3
M3 S200
G1 X26.2 Y8.3 F1800
G1 X26.2 Y15.7 F1800
G1 X18.8 Y15.7 F1800
G1 X18.8 Y8.3 F1800
M5
G0 X18.9 Y8.4
M3 S200
G1 X26.1 Y8.4 F1800
G1 X26.1 Y15.6 F1800
G1 X18.9 Y15.6 F1800
G1 X18.9 Y8.4 F1800
M5
G0 X19 Y8.5
M3 S200
G1 X26 Y8.5 F1800
G1 X26 Y15.5 F1800
G1 X19 Y15.5 F1800
G1 X19 Y8.5 F1800
M5
G0 X19.1 Y8.6
M3 S200
G1 X25.9 Y8.6 F1800
G1 X25.9 Y15.4 F1800
G1 X19.1 Y15.4 F1800
G1 X19.1 Y8.6 F1800
M5
G0 X19.2 Y8.7
M3 S200
G1 X25.8 Y8.7 F1800
G1 X25.8 Y15.3 F1800
G1 X19.2 Y15.3 F1800
G1 X19.2 Y8.7 F1800
M5
G0 X19.3 Y8.8
M3 S200
G1 X25.7 Y8.8 F1800
G1 X25.7 Y15.2 F1800
G1 X19.3 Y15.2 F1800
G1 X19.3 Y8.8 F1800
M5
G0 X19.4 Y8.9
M3 S200
G1 X25.6 Y8.9 F1800
G1 X25.6 Y15.1 F1800
G1 X19.4 Y15.1 F1800
G1 X19.4 Y8.9 F1800
M5
G0 X19.5 Y9
M3 S200
G1 X25.5 Y9 F1800
G1 X25.5 Y15 F1800
G1 X19.5 Y15 F1800
G1 X19.5 Y9 F1800
M5
G0 X19.6 Y9.1
M3 S200
G1 X25.4 Y9.1 F1800
G1 X25.4 Y14.9 F1800
G1 X19.6 Y14.9 F1800
G1 X19.6 Y9.1 F1800
M5
G0 X19.7 Y9.2
M3 S200
G1 X25.3 Y9.2 F1800
G1 X25.3 Y14.8 F1800
G1 X19.7 Y14.8 F1800
G1 X19.7 Y9.2 F1800
M5
G0 X19.8 Y9.3
M3 S200
G1 X25.2 Y9.3 F1800
G1 X25.2 Y14.7 F1800
G1 X19.8 Y14.7 F1800
G1 X19.8 Y9.3 F1800
M5
G0 X19.9 Y9.4
M3 S200
G1 X25.1 Y9.4 F1800
G1 X25.1 Y14.6 F1800
G1 X19.9 Y14.6 F1800
G1 X19.9 Y9.4 F1800
M5
G0 X20 Y9.5
M3 S200
G1 X25 Y9.5 F1800
G1 X25 Y14.5 F1800
G1 X20 Y14.5 F1800
G1 X20 Y9.5 F1800
M5
G0 X20.1 Y9.6
M3 S200
G1 X24.9 Y9.6 F1800
G1 X24.9 Y14.4 F1800
G1 X20.1 Y14.4 F1800
G1 X20.1 Y9.6 F1800
M5
G0 X20.2 Y9.7
M3 S200
G1 X24.8 Y9.7 F1800
G1 X24.8 Y14.3 F1800
G1 X20.2 Y14.3 F1800
G1 X20.2 Y9.7 F1800
M5
G0 X20.3 Y9.8
M3 S200
G1 X24.7 Y9.8 F1800
G1 X24.7 Y14.2 F1800
G1 X20.3 Y14.2 F1800
G1 X20.3 Y9.8 F1800
M5
G0 X20.4 Y9.9
M3 S200
G1 X24.6 Y9.9 F1800
G1 X24.6 Y14.1 F1800
G1 X20.4 Y14.1 F1800
G1 X20.4 Y9.9 F1800
M5
G0 X20.5 Y10
M3 S200
G1 X24.5 Y10 F1800
G1 X24.5 Y14 F1800
G1 X20.5 Y14 F1800
G1 X20.5 Y10 F1800
M5
G0 X20.6 Y10.1
M3 S200
G1 X24.4 Y10.1 F1800
G1 X24.4 Y13.9 F1800
G1 X20.6 Y13.9 F1800
G1 X20.6 Y10.1 F1800
M5
G0 X20.7 Y10.2
M3 S200
G1 X24.3 Y10.2 F1800
G1 X24.3 Y13.8 F1800
G1 X20.7 Y13.8 F1800
G1 X20.7 Y10.2 F1800
M5
G0 X20.8 Y10.3
M3 S200
G1 X24.2 Y10.3 F1800
G1 X24.2 Y13.7 F1800
G1 X20.8 Y13.7 F1800
G1 X20.8 Y10.3 F1800
M5
G0 X20.9 Y10.4
M3 S200
G1 X24.1 Y10.4 F1800
G1 X24.1 Y13.6 F1800
G1 X20.9 Y13.6 F1800
G1 X20.9 Y10.4 F1800
M5
G0 X21 Y10.5
M3 S200
G1 X24 Y10.5 F1800
G1 X24 Y13.5 F1800
G1 X21 Y13.5 F1800
G1 X21 Y10.5 F1800
M5
G0 X21.1 Y10.6
M3 S200
G1 X23.9 Y10.6 F1800
G1 X23.9 Y13.4 F1800
G1 X21.1 Y13.4 F1800
G1 X21.1 Y10.6 F1800
M5
G0 X21.2 Y10.7
M3 S200
G1 X23.8 Y10.7 F1800
G1 X23.8 Y13.3 F1800
G1 X21.2 Y13.3 F1800
G1 X21.2 Y10.7 F1800
M5
G0 X21.3 Y10.8
M3 S200
G1 X23.7 Y10.8 F1800
G1 X23.7 Y13.2 F1800
G1 X21.3 Y13.2 F1800
G1 X21.3 Y10.8 F1800
M5
G0 X21.4 Y10.9
M3 S200
G1 X23.6 Y10.9 F1800
G1 X23.6 Y13.1 F1800
G1 X21.4 Y13.1 F1800
G1 X21.4 Y10.9 F1800
M5
G0 X21.5 Y11
M3 S200
G1 X23.5 Y11 F1800
G1 X23.5 Y13 F1800
G1 X21.5 Y13 F1800
G1 X21.5 Y11 F1800
M5
G0 X21.6 Y11.1
M3 S200
G1 X23.4 Y11.1 F1800
G1 X23.4 Y12.9 F1800
G1 X21.6 Y12.9 F1800
G1 X21.6 Y11.1 F1800
M5
G0 X21.7 Y11.2
M3 S200
G1 X23.3 Y11.2 F1800
G1 X23.3 Y12.8 F1800
G1 X21.7 Y12.8 F1800
G1 X21.7 Y11.2 F1800
M5
G0 X21.8 Y11.3
M3 S200
G1 X23.2 Y11.3 F1800
G1 X23.2 Y12.7 F1800
G1 X21.8 Y12.7 F1800
G1 X21.8 Y11.3 F1800
M5
G0 X21.9 Y11.4
M3 S200
G1 X23.1 Y11.4 F1800
G1 X23.1 Y12.6 F1800
G1 X21.9 Y12.6 F1800
G1 X21.9 Y11.4 F1800
M5
G0 X22 Y11.5
M3 S200
G1 X23 Y11.5 F1800
G1 X23 Y12.5 F1800
G1 X22 Y12.5 F1800
G1 X22 Y11.5 F1800
M5
G0 X22.1 Y11.6
M3 S200
G1 X22.9 Y11.6 F1800
G1 X22.9 Y12.4 F1800
G1 X22.1 Y12.4 F1800
G1 X22.1 Y11.6 F1800
M5
G0 X22.2 Y11.7
M3 S200
G1 X22.8 Y11.7 F1800
G1 X22.8 Y12.3 F1800
G1 X22.2 Y12.3 F1800
G1 X22.2 Y11.7 F1800
M5
G0 X22.3 Y11.8
M3 S200
G1 X22.7 Y11.8 F1800
G1 X22.7 Y12.2 F1800
G1 X22.3 Y12.2 F1800
G1 X22.3 Y11.8 F1800
M5
G0 X22.4 Y11.9
M3 S200
G1 X22.6 Y11.9 F1800
G1 X22.6 Y12.1 F1800
G1 X22.4 Y12.1 F1800
G1 X22.4 Y11.9 F1800
M5
; Tile row=1 col=2 speed=1800 power=23
G0 X28.5 Y8
M3 S230
G1 X36.5 Y8 F1800
G1 X36.5 Y16 F1800
G1 X28.5 Y16 F1800
G1 X28.5 Y8 F1800
M5
G0 X28.6 Y8.1
M3 S230
G1 X36.4 Y8.1 F1800
G1 X36.4 Y15.9 F1800
G1 X28.6 Y15.9 F1800
G1 X28.6 Y8.1 F1800
M5
G0 X28.7 Y8.2
M3 S230
G1 X36.3 Y8.2 F1800
G1 X36.3 Y15.8 F1800
G1 X28.7 Y15.8 F1800
G1 X28.7 Y8.2 F1800
M5
G0 X28.8 Y8.3
M3 S230
G1 X36.2 Y8.3 F1800
G1 X36.2 Y15.7 F1800
G1 X28.8 Y15.7 F1800
G1 X28.8 Y8.3 F1800
M5
G0 X28.9 Y8.4
M3 S230
G1 X36.1 Y8.4 F1800
G1 X36.1 Y15.6 F1800
G1 X28.9 Y15.6 F1800
G1 X28.9 Y8.4 F1800
M5
G0 X29 Y8.5
M3 S230
G1 X36 Y8.5 F1800
G1 X36 Y15.5 F1800
G1 X29 Y15.5 F1800
G1 X29 Y8.5 F1800
M5
G0 X29.1 Y8.6
M3 S230
G1 X35.9 Y8.6 F1800
G1 X35.9 Y15.4 F1800
G1 X29.1 Y15.4 F1800
G1 X29.1 Y8.6 F1800
M5
G0 X29.2 Y8.7
M3 S230
G1 X35.8 Y8.7 F1800
G1 X35.8 Y15.3 F1800
G1 X29.2 Y15.3 F1800
G1 X29.2 Y8.7 F1800
M5
G0 X29.3 Y8.8
M3 S230
G1 X35.7 Y8.8 F1800
G1 X35.7 Y15.2 F1800
G1 X29.3 Y15.2 F1800
G1 X29.3 Y8.8 F1800
M5
G0 X29.4 Y8.9
M3 S230
G1 X35.6 Y8.9 F1800
G1 X35.6 Y15.1 F1800
G1 X29.4 Y15.1 F1800
G1 X29.4 Y8.9 F1800
M5
G0 X29.5 Y9
M3 S230
G1 X35.5 Y9 F1800
G1 X35.5 Y15 F1800
G1 X29.5 Y15 F1800
G1 X29.5 Y9 F1800
M5
G0 X29.6 Y9.1
M3 S230
G1 X35.4 Y9.1 F1800
G1 X35.4 Y14.9 F1800
G1 X29.6 Y14.9 F1800
G1 X29.6 Y9.1 F1800
M5
G0 X29.7 Y9.2
M3 S230
G1 X35.3 Y9.2 F1800
G1 X35.3 Y14.8 F1800
G1 X29.7 Y14.8 F1800
G1 X29.7 Y9.2 F1800
M5
G0 X29.8 Y9.3
M3 S230
G1 X35.2 Y9.3 F1800
G1 X35.2 Y14.7 F1800
G1 X29.8 Y14.7 F1800
G1 X29.8 Y9.3 F1800
M5
G0 X29.9 Y9.4
M3 S230
G1 X35.1 Y9.4 F1800
G1 X35.1 Y14.6 F1800
G1 X29.9 Y14.6 F1800
G1 X29.9 Y9.4 F1800
M5
G0 X30 Y9.5
M3 S230
G1 X35 Y9.5 F1800
G1 X35 Y14.5 F1800
G1 X30 Y14.5 F1800
G1 X30 Y9.5 F1800
M5
G0 X30.1 Y9.6
M3 S230
G1 X34.9 Y9.6 F1800
G1 X34.9 Y14.4 F1800
G1 X30.1 Y14.4 F1800
G1 X30.1 Y9.6 F1800
M5
G0 X30.2 Y9.7
M3 S230
G1 X34.8 Y9.7 F1800
G1 X34.8 Y14.3 F1800
G1 X30.2 Y14.3 F1800
G1 X30.2 Y9.7 F1800
M5
G0 X30.3 Y9.8
M3 S230
G1 X34.7 Y9.8 F1800
G1 X34.7 Y14.2 F1800
G1 X30.3 Y14.2 F1800
G1 X30.3 Y9.8 F1800
M5
G0 X30.4 Y9.9
M3 S230
G1 X34.6 Y9.9 F1800
G1 X34.6 Y14.1 F1800
G1 X30.4 Y14.1 F1800
G1 X30.4 Y9.9 F1800
M5
G0 X30.5 Y10
M3 S230
G1 X34.5 Y10 F1800
G1 X34.5 Y14 F1800
G1 X30.5 Y14 F1800
G1 X30.5 Y10 F1800
M5
G0 X30.6 Y10.1
M3 S230
G1 X34.4 Y10.1 F1800
G1 X34.4 Y13.9 F1800
G1 X30.6 Y13.9 F1800
G1 X30.6 Y10.1 F1800
M5
G0 X30.7 Y10.2
M3 S230
G1 X34.3 Y10.2 F1800
G1 X34.3 Y13.8 F1800
G1 X30.7 Y13.8 F1800
G1 X30.7 Y10.2 F1800
M5
G0 X30.8 Y10.3
M3 S230
G1 X34.2 Y10.3 F1800
G1 X34.2 Y13.7 F1800
G1 X30.8 Y13.7 F1800
G1 X30.8 Y10.3 F1800
M5
G0 X30.9 Y10.4
M3 S230
G1 X34.1 Y10.4 F1800
G1 X34.1 Y13.6 F1800
G1 X30.9 Y13.6 F1800
G1 X30.9 Y10.4 F1800
M5
G0 X31 Y10.5
M3 S230
G1 X34 Y10.5 F1800
G1 X34 Y13.5 F1800
G1 X31 Y13.5 F1800
G1 X31 Y10.5 F1800
M5
G0 X31.1 Y10.6
M3 S230
G1 X33.9 Y10.6 F1800
G1 X33.9 Y13.4 F1800
G1 X31.1 Y13.4 F1800
G1 X31.1 Y10.6 F1800
M5
G0 X31.2 Y10.7
M3 S230
G1 X33.8 Y10.7 F1800
G1 X33.8 Y13.3 F1800
G1 X31.2 Y13.3 F1800
G1 X31.2 Y10.7 F1800
M5
G0 X31.3 Y10.8
M3 S230
G1 X33.7 Y10.8 F1800
G1 X33.7 Y13.2 F1800
G1 X31.3 Y13.2 F1800
G1 X31.3 Y10.8 F1800
M5
G0 X31.4 Y10.9
M3 S230
G1 X33.6 Y10.9 F1800
G1 X33.6 Y13.1 F1800
G1 X31.4 Y13.1 F1800
G1 X31.4 Y10.9 F1800
M5
G0 X31.5 Y11
M3 S230
G1 X33.5 Y11 F1800
G1 X33.5 Y13 F1800
G1 X31.5 Y13 F1800
G1 X31.5 Y11 F1800
M5
G0 X31.6 Y11.1
M3 S230
G1 X33.4 Y11.1 F1800
G1 X33.4 Y12.9 F1800
G1 X31.6 Y12.9 F1800
G1 X31.6 Y11.1 F1800
M5
G0 X31.7 Y11.2
M3 S230
G1 X33.3 Y11.2 F1800
G1 X33.3 Y12.8 F1800
G1 X31.7 Y12.8 F1800
G1 X31.7 Y11.2 F1800
M5
G0 X31.8 Y11.3
M3 S230
G1 X33.2 Y11.3 F1800
G1 X33.2 Y12.7 F1800
G1 X31.8 Y12.7 F1800
G1 X31.8 Y11.3 F1800
M5
G0 X31.9 Y11.4
M3 S230
G1 X33.1 Y11.4 F1800
G1 X33.1 Y12.6 F1800
G1 X31.9 Y12.6 F1800
G1 X31.9 Y11.4 F1800
M5
G0 X32 Y11.5
M3 S230
G1 X33 Y11.5 F1800
G1 X33 Y12.5 F1800
G1 X32 Y12.5 F1800
G1 X32 Y11.5 F1800
M5
G0 X32.1 Y11.6
M3 S230
G1 X32.9 Y11.6 F1800
G1 X32.9 Y12.4 F1800
G1 X32.1 Y12.4 F1800
G1 X32.1 Y11.6 F1800
M5
G0 X32.2 Y11.7
M3 S230
G1 X32.8 Y11.7 F1800
G1 X32.8 Y12.3 F1800
G1 X32.2 Y12.3 F1800
G1 X32.2 Y11.7 F1800
M5
G0 X32.3 Y11.8
M3 S230
G1 X32.7 Y11.8 F1800
G1 X32.7 Y12.2 F1800
G1 X32.3 Y12.2 F1800
G1 X32.3 Y11.8 F1800
M5
G0 X32.4 Y11.9
M3 S230
G1 X32.6 Y11.9 F1800
G1 X32.6 Y12.1 F1800
G1 X32.4 Y12.1 F1800
G1 X32.4 Y11.9 F1800
M5
; Tile row=1 col=3 speed=1800 power=26
G0 X38.5 Y8
M3 S260
G1 X46.5 Y8 F1800
G1 X46.5 Y16 F1800
G1 X38.5 Y16 F1800
G1 X38.5 Y8 F1800
M5
G0 X38.6 Y8.1
M3 S260
G1 X46.4 Y8.1 F1800
G1 X46.4 Y15.9 F1800
G1 X38.6 Y15.9 F1800
G1 X38.6 Y8.1 F1800
M5
G0 X38.7 Y8.2
M3 S260
G1 X46.3 Y8.2 F1800
G1 X46.3 Y15.8 F1800
G1 X38.7 Y15.8 F1800
G1 X38.7 Y8.2 F1800
M5
G0 X38.8 Y8.3
M3 S260
G1 X46.2 Y8.3 F1800
G1 X46.2 Y15.7 F1800
G1 X38.8 Y15.7 F1800
G1 X38.8 Y8.3 F1800
M5
G0 X38.9 Y8.4
M3 S260
G1 X46.1 Y8.4 F1800
G1 X46.1 Y15.6 F1800
G1 X38.9 Y15.6 F1800
G1 X38.9 Y8.4 F1800
M5
G0 X39 Y8.5
M3 S260
G1 X46 Y8.5 F1800
G1 X46 Y15.5 F1800
G1 X39 Y15.5 F1800
G1 X39 Y8.5 F1800
M5
G0 X39.1 Y8.6
M3 S260
G1 X45.9 Y8.6 F1800
G1 X45.9 Y15.4 F1800
G1 X39.1 Y15.4 F1800
G1 X39.1 Y8.6 F1800
M5
G0 X39.2 Y8.7
M3 S260
G1 X45.8 Y8.7 F1800
G1 X45.8 Y15.3 F1800
G1 X39.2 Y15.3 F1800
G1 X39.2 Y8.7 F1800
M5
G0 X39.3 Y8.8
M3 S260
G1 X45.7 Y8.8 F1800
G1 X45.7 Y15.2 F1800
G1 X39.3 Y15.2 F1800
G1 X39.3 Y8.8 F1800
M5
G0 X39.4 Y8.9
M3 S260
G1 X45.6 Y8.9 F1800
G1 X45.6 Y15.1 F1800
G1 X39.4 Y15.1 F1800
G1 X39.4 Y8.9 F1800
M5
G0 X39.5 Y9
M3 S260
G1 X45.5 Y9 F1800
G1 X45.5 Y15 F1800
G1 X39.5 Y15 F1800
G1 X39.5 Y9 F1800
M5
G0 X39.6 Y9.1
M3 S260
G1 X45.4 Y9.1 F1800
G1 X45.4 Y14.9 F1800
G1 X39.6 Y14.9 F1800
G1 X39.6 Y9.1 F1800
M5
G0 X39.7 Y9.2
M3 S260
G1 X45.3 Y9.2 F1800
G1 X45.3 Y14.8 F1800
G1 X39.7 Y14.8 F1800
G1 X39.7 Y9.2 F1800
M5
G0 X39.8 Y9.3
M3 S260
G1 X45.2 Y9.3 F1800
G1 X45.2 Y14.7 F1800
G1 X39.8 Y14.7 F1800
G1 X39.8 Y9.3 F1800
M5
G0 X39.9 Y9.4
M3 S260
G1 X45.1 Y9.4 F1800
G1 X45.1 Y14.6 F1800
G1 X39.9 Y14.6 F1800
G1 X39.9 Y9.4 F1800
M5
G0 X40 Y9.5
M3 S260
G1 X45 Y9.5 F1800
G1 X45 Y14.5 F1800
G1 X40 Y14.5 F1800
G1 X40 Y9.5 F1800
M5
G0 X40.1 Y9.6
M3 S260
G1 X44.9 Y9.6 F1800
G1 X44.9 Y14.4 F1800
G1 X40.1 Y14.4 F1800
G1 X40.1 Y9.6 F1800
M5
G0 X40.2 Y9.7
M3 S260
G1 X44.8 Y9.7 F1800
G1 X44.8 Y14.3 F1800
G1 X40.2 Y14.3 F1800
G1 X40.2 Y9.7 F1800
M5
G0 X40.3 Y9.8
M3 S260
G1 X44.7 Y9.8 F1800
G1 X44.7 Y14.2 F1800
G1 X40.3 Y14.2 F1800
G1 X40.3 Y9.8 F1800
M5
G0 X40.4 Y9.9
M3 S260
G1 X44.6 Y9.9 F1800
G1 X44.6 Y14.1 F1800
G1 X40.4 Y14.1 F1800
G1 X40.4 Y9.9 F1800
M5
G0 X40.5 Y10
M3 S260
G1 X44.5 Y10 F1800
G1 X44.5 Y14 F1800
G1 X40.5 Y14 F1800
G1 X40.5 Y10 F1800
M5
G0 X40.6 Y10.1
M3 S260
G1 X44.4 Y10.1 F1800
G1 X44.4 Y13.9 F1800
G1 X40.6 Y13.9 F1800
G1 X40.6 Y10.1 F1800
M5
G0 X40.7 Y10.2
M3 S260
G1 X44.3 Y10.2 F1800
G1 X44.3 Y13.8 F1800
G1 X40.7 Y13.8 F1800
G1 X40.7 Y10.2 F1800
M5
G0 X40.8 Y10.3
M3 S260
G1 X44.2 Y10.3 F1800
G1 X44.2 Y13.7 F1800
G1 X40.8 Y13.7 F1800
G1 X40.8 Y10.3 F1800
M5
G0 X40.9 Y10.4
M3 S260
G1 X44.1 Y10.4 F1800
G1 X44.1 Y13.6 F1800
G1 X40.9 Y13.6 F1800
G1 X40.9 Y10.4 F1800
M5
G0 X41 Y10.5
M3 S260
G1 X44 Y10.5 F1800
G1 X44 Y13.5 F1800
G1 X41 Y13.5 F1800
G1 X41 Y10.5 F1800
M5
G0 X41.1 Y10.6
M3 S260
G1 X43.9 Y10.6 F1800
G1 X43.9 Y13.4 F1800
G1 X41.1 Y13.4 F1800
G1 X41.1 Y10.6 F1800
M5
G0 X41.2 Y10.7
M3 S260
G1 X43.8 Y10.7 F1800
G1 X43.8 Y13.3 F1800
G1 X41.2 Y13.3 F1800
G1 X41.2 Y10.7 F1800
M5
G0 X41.3 Y10.8
M3 S260
G1 X43.7 Y10.8 F1800
G1 X43.7 Y13.2 F1800
G1 X41.3 Y13.2 F1800
G1 X41.3 Y10.8 F1800
M5
G0 X41.4 Y10.9
M3 S260
G1 X43.6 Y10.9 F1800
G1 X43.6 Y13.1 F1800
G1 X41.4 Y13.1 F1800
G1 X41.4 Y10.9 F1800
M5
G0 X41.5 Y11
M3 S260
G1 X43.5 Y11 F1800
G1 X43.5 Y13 F1800
G1 X41.5 Y13 F1800
G1 X41.5 Y11 F1800
M5
G0 X41.6 Y11.1
M3 S260
G1 X43.4 Y11.1 F1800
G1 X43.4 Y12.9 F1800
G1 X41.6 Y12.9 F1800
G1 X41.6 Y11.1 F1800
M5
G0 X41.7 Y11.2
M3 S260
G1 X43.3 Y11.2 F1800
G1 X43.3 Y12.8 F1800
G1 X41.7 Y12.8 F1800
G1 X41.7 Y11.2 F1800
M5
G0 X41.8 Y11.3
M3 S260
G1 X43.2 Y11.3 F1800
G1 X43.2 Y12.7 F1800
G1 X41.8 Y12.7 F1800
G1 X41.8 Y11.3 F1800
M5
G0 X41.9 Y11.4
M3 S260
G1 X43.1 Y11.4 F1800
G1 X43.1 Y12.6 F1800
G1 X41.9 Y12.6 F1800
G1 X41.9 Y11.4 F1800
M5
G0 X42 Y11.5
M3 S260
G1 X43 Y11.5 F1800
G1 X43 Y12.5 F1800
G1 X42 Y12.5 F1800
G1 X42 Y11.5 F1800
M5
G0 X42.1 Y11.6
M3 S260
G1 X42.9 Y11.6 F1800
G1 X42.9 Y12.4 F1800
G1 X42.1 Y12.4 F1800
G1 X42.1 Y11.6 F1800
M5
G0 X42.2 Y11.7
M3 S260
G1 X42.8 Y11.7 F1800
G1 X42.8 Y12.3 F1800
G1 X42.2 Y12.3 F1800
G1 X42.2 Y11.7 F1800
M5
G0 X42.3 Y11.8
M3 S260
G1 X42.7 Y11.8 F1800
G1 X42.7 Y12.2 F1800
G1 X42.3 Y12.2 F1800
G1 X42.3 Y11.8 F1800
M5
G0 X42.4 Y11.9
M3 S260
G1 X42.6 Y11.9 F1800
G1 X42.6 Y12.1 F1800
G1 X42.4 Y12.1 F1800
G1 X42.4 Y11.9 F1800
M5
; Tile row=1 col=4 speed=1800 power=29
G0 X48.5 Y8
M3 S290
G1 X56.5 Y8 F1800
G1 X56.5 Y16 F1800
G1 X48.5 Y16 F1800
G1 X48.5 Y8 F1800
M5
G0 X48.6 Y8.1
M3 S290
G1 X56.4 Y8.1 F1800
G1 X56.4 Y15.9 F1800
G1 X48.6 Y15.9 F1800
G1 X48.6 Y8.1 F1800
M5
G0 X48.7 Y8.2
M3 S290
G1 X56.3 Y8.2 F1800
G1 X56.3 Y15.8 F1800
G1 X48.7 Y15.8 F1800
G1 X48.7 Y8.2 F1800
M5
G0 X48.8 Y8.3
M3 S290
G1 X56.2 Y8.3 F1800
G1 X56.2 Y15.7 F1800
G1 X48.8 Y15.7 F1800
G1 X48.8 Y8.3 F1800
M5
G0 X48.9 Y8.4
M3 S290
G1 X56.1 Y8.4 F1800
G1 X56.1 Y15.6 F1800
G1 X48.9 Y15.6 F1800
G1 X48.9 Y8.4 F1800
M5
G0 X49 Y8.5
M3 S290
G1 X56 Y8.5 F1800
G1 X56 Y15.5 F1800
G1 X49 Y15.5 F1800
G1 X49 Y8.5 F1800
M5
G0 X49.1 Y8.6
M3 S290
G1 X55.9 Y8.6 F1800
G1 X55.9 Y15.4 F1800
G1 X49.1 Y15.4 F1800
G1 X49.1 Y8.6 F1800
M5
G0 X49.2 Y8.7
M3 S290
G1 X55.8 Y8.7 F1800
G1 X55.8 Y15.3 F1800
G1 X49.2 Y15.3 F1800
G1 X49.2 Y8.7 F1800
M5
G0 X49.3 Y8.8
M3 S290
G1 X55.7 Y8.8 F1800
G1 X55.7 Y15.2 F1800
G1 X49.3 Y15.2 F1800
G1 X49.3 Y8.8 F1800
M5
G0 X49.4 Y8.9
M3 S290
G1 X55.6 Y8.9 F1800
G1 X55.6 Y15.1 F1800
G1 X49.4 Y15.1 F1800
G1 X49.4 Y8.9 F1800
M5
G0 X49.5 Y9
M3 S290
G1 X55.5 Y9 F1800
G1 X55.5 Y15 F1800
G1 X49.5 Y15 F1800
G1 X49.5 Y9 F1800
M5
G0 X49.6 Y9.1
M3 S290
G1 X55.4 Y9.1 F1800
G1 X55.4 Y14.9 F1800
G1 X49.6 Y14.9 F1800
G1 X49.6 Y9.1 F1800
M5
G0 X49.7 Y9.2
M3 S290
G1 X55.3 Y9.2 F1800
G1 X55.3 Y14.8 F1800
G1 X49.7 Y14.8 F1800
G1 X49.7 Y9.2 F1800
M5
G0 X49.8 Y9.3
M3 S290
G1 X55.2 Y9.3 F1800
G1 X55.2 Y14.7 F1800
G1 X49.8 Y14.7 F1800
G1 X49.8 Y9.3 F1800
M5
G0 X49.9 Y9.4
M3 S290
G1 X55.1 Y9.4 F1800
G1 X55.1 Y14.6 F1800
G1 X49.9 Y14.6 F1800
G1 X49.9 Y9.4 F1800
M5
G0 X50 Y9.5
M3 S290
G1 X55 Y9.5 F1800
G1 X55 Y14.5 F1800
G1 X50 Y14.5 F1800
G1 X50 Y9.5 F1800
M5
G0 X50.1 Y9.6
M3 S290
G1 X54.9 Y9.6 F1800
G1 X54.9 Y14.4 F1800
G1 X50.1 Y14.4 F1800
G1 X50.1 Y9.6 F1800
M5
G0 X50.2 Y9.7
M3 S290
G1 X54.8 Y9.7 F1800
G1 X54.8 Y14.3 F1800
G1 X50.2 Y14.3 F1800
G1 X50.2 Y9.7 F1800
M5
G0 X50.3 Y9.8
M3 S290
G1 X54.7 Y9.8 F1800
G1 X54.7 Y14.2 F1800
G1 X50.3 Y14.2 F1800
G1 X50.3 Y9.8 F1800
M5
G0 X50.4 Y9.9
M3 S290
G1 X54.6 Y9.9 F1800
G1 X54.6 Y14.1 F1800
G1 X50.4 Y14.1 F1800
G1 X50.4 Y9.9 F1800
M5
G0 X50.5 Y10
M3 S290
G1 X54.5 Y10 F1800
G1 X54.5 Y14 F1800
G1 X50.5 Y14 F1800
G1 X50.5 Y10 F1800
M5
G0 X50.6 Y10.1
M3 S290
G1 X54.4 Y10.1 F1800
G1 X54.4 Y13.9 F1800
G1 X50.6 Y13.9 F1800
G1 X50.6 Y10.1 F1800
M5
G0 X50.7 Y10.2
M3 S290
G1 X54.3 Y10.2 F1800
G1 X54.3 Y13.8 F1800
G1 X50.7 Y13.8 F1800
G1 X50.7 Y10.2 F1800
M5
G0 X50.8 Y10.3
M3 S290
G1 X54.2 Y10.3 F1800
G1 X54.2 Y13.7 F1800
G1 X50.8 Y13.7 F1800
G1 X50.8 Y10.3 F1800
M5
G0 X50.9 Y10.4
M3 S290
G1 X54.1 Y10.4 F1800
G1 X54.1 Y13.6 F1800
G1 X50.9 Y13.6 F1800
G1 X50.9 Y10.4 F1800
M5
G0 X51 Y10.5
M3 S290
G1 X54 Y10.5 F1800
G1 X54 Y13.5 F1800
G1 X51 Y13.5 F1800
G1 X51 Y10.5 F1800
M5
G0 X51.1 Y10.6
M3 S290
G1 X53.9 Y10.6 F1800
G1 X53.9 Y13.4 F1800
G1 X51.1 Y13.4 F1800
G1 X51.1 Y10.6 F1800
M5
G0 X51.2 Y10.7
M3 S290
G1 X53.8 Y10.7 F1800
G1 X53.8 Y13.3 F1800
G1 X51.2 Y13.3 F1800
G1 X51.2 Y10.7 F1800
M5
G0 X51.3 Y10.8
M3 S290
G1 X53.7 Y10.8 F1800
G1 X53.7 Y13.2 F1800
G1 X51.3 Y13.2 F1800
G1 X51.3 Y10.8 F1800
M5
G0 X51.4 Y10.9
M3 S290
G1 X53.6 Y10.9 F1800
G1 X53.6 Y13.1 F1800
G1 X51.4 Y13.1 F1800
G1 X51.4 Y10.9 F1800
M5
G0 X51.5 Y11
M3 S290
G1 X53.5 Y11 F1800
G1 X53.5 Y13 F1800
G1 X51.5 Y13 F1800
G1 X51.5 Y11 F1800
M5
G0 X51.6 Y11.1
M3 S290
G1 X53.4 Y11.1 F1800
G1 X53.4 Y12.9 F1800
G1 X51.6 Y12.9 F1800
G1 X51.6 Y11.1 F1800
M5
G0 X51.7 Y11.2
M3 S290
G1 X53.3 Y11.2 F1800
G1 X53.3 Y12.8 F1800
G1 X51.7 Y12.8 F1800
G1 X51.7 Y11.2 F1800
M5
G0 X51.8 Y11.3
M3 S290
G1 X53.2 Y11.3 F1800
G1 X53.2 Y12.7 F1800
G1 X51.8 Y12.7 F1800
G1 X51.8 Y11.3 F1800
M5
G0 X51.9 Y11.4
M3 S290
G1 X53.1 Y11.4 F1800
G1 X53.1 Y12.6 F1800
G1 X51.9 Y12.6 F1800
G1 X51.9 Y11.4 F1800
M5
G0 X52 Y11.5
M3 S290
G1 X53 Y11.5 F1800
G1 X53 Y12.5 F1800
G1 X52 Y12.5 F1800
G1 X52 Y11.5 F1800
M5
G0 X52.1 Y11.6
M3 S290
G1 X52.9 Y11.6 F1800
G1 X52.9 Y12.4 F1800
G1 X52.1 Y12.4 F1800
G1 X52.1 Y11.6 F1800
M5
G0 X52.2 Y11.7
M3 S290
G1 X52.8 Y11.7 F1800
G1 X52.8 Y12.3 F1800
G1 X52.2 Y12.3 F1800
G1 X52.2 Y11.7 F1800
M5
G0 X52.3 Y11.8
M3 S290
G1 X52.7 Y11.8 F1800
G1 X52.7 Y12.2 F1800
G1 X52.3 Y12.2 F1800
G1 X52.3 Y11.8 F1800
M5
G0 X52.4 Y11.9
M3 S290
G1 X52.6 Y11.9 F1800
G1 X52.6 Y12.1 F1800
G1 X52.4 Y12.1 F1800
G1 X52.4 Y11.9 F1800
M5
; Tile row=1 col=5 speed=1800 power=31
G0 X58.5 Y8
M3 S310
G1 X66.5 Y8 F1800
G1 X66.5 Y16 F1800
G1 X58.5 Y16 F1800
G1 X58.5 Y8 F1800
M5
G0 X58.6 Y8.1
M3 S310
G1 X66.4 Y8.1 F1800
G1 X66.4 Y15.9 F1800
G1 X58.6 Y15.9 F1800
G1 X58.6 Y8.1 F1800
M5
G0 X58.7 Y8.2
M3 S310
G1 X66.3 Y8.2 F1800
G1 X66.3 Y15.8 F1800
G1 X58.7 Y15.8 F1800
G1 X58.7 Y8.2 F1800
M5
G0 X58.8 Y8.3
M3 S310
G1 X66.2 Y8.3 F1800
G1 X66.2 Y15.7 F1800
G1 X58.8 Y15.7 F1800
G1 X58.8 Y8.3 F1800
M5
G0 X58.9 Y8.4
M3 S310
G1 X66.1 Y8.4 F1800
G1 X66.1 Y15.6 F1800
G1 X58.9 Y15.6 F1800
G1 X58.9 Y8.4 F1800
M5
G0 X59 Y8.5
M3 S310
G1 X66 Y8.5 F1800
G1 X66 Y15.5 F1800
G1 X59 Y15.5 F1800
G1 X59 Y8.5 F1800
M5
G0 X59.1 Y8.6
M3 S310
G1 X65.9 Y8.6 F1800
G1 X65.9 Y15.4 F1800
G1 X59.1 Y15.4 F1800
G1 X59.1 Y8.6 F1800
M5
G0 X59.2 Y8.7
M3 S310
G1 X65.8 Y8.7 F1800
G1 X65.8 Y15.3 F1800
G1 X59.2 Y15.3 F1800
G1 X59.2 Y8.7 F1800
M5
G0 X59.3 Y8.8
M3 S310
G1 X65.7 Y8.8 F1800
G1 X65.7 Y15.2 F1800
G1 X59.3 Y15.2 F1800
G1 X59.3 Y8.8 F1800
M5
G0 X59.4 Y8.9
M3 S310
G1 X65.6 Y8.9 F1800
G1 X65.6 Y15.1 F1800
G1 X59.4 Y15.1 F1800
G1 X59.4 Y8.9 F1800
M5
G0 X59.5 Y9
M3 S310
G1 X65.5 Y9 F1800
G1 X65.5 Y15 F1800
G1 X59.5 Y15 F1800
G1 X59.5 Y9 F1800
M5
G0 X59.6 Y9.1
M3 S310
G1 X65.4 Y9.1 F1800
G1 X65.4 Y14.9 F1800
G1 X59.6 Y14.9 F1800
G1 X59.6 Y9.1 F1800
M5
G0 X59.7 Y9.2
M3 S310
G1 X65.3 Y9.2 F1800
G1 X65.3 Y14.8 F1800
G1 X59.7 Y14.8 F1800
G1 X59.7 Y9.2 F1800
M5
G0 X59.8 Y9.3
M3 S310
G1 X65.2 Y9.3 F1800
G1 X65.2 Y14.7 F1800
G1 X59.8 Y14.7 F1800
G1 X59.8 Y9.3 F1800
M5
G0 X59.9 Y9.4
M3 S310
G1 X65.1 Y9.4 F1800
G1 X65.1 Y14.6 F1800
G1 X59.9 Y14.6 F1800
G1 X59.9 Y9.4 F1800
M5
G0 X60 Y9.5
M3 S310
G1 X65 Y9.5 F1800
G1 X65 Y14.5 F1800
G1 X60 Y14.5 F1800
G1 X60 Y9.5 F1800
M5
G0 X60.1 Y9.6
M3 S310
G1 X64.9 Y9.6 F1800
G1 X64.9 Y14.4 F1800
G1 X60.1 Y14.4 F1800
G1 X60.1 Y9.6 F1800
M5
G0 X60.2 Y9.7
M3 S310
G1 X64.8 Y9.7 F1800
G1 X64.8 Y14.3 F1800
G1 X60.2 Y14.3 F1800
G1 X60.2 Y9.7 F1800
M5
G0 X60.3 Y9.8
M3 S310
G1 X64.7 Y9.8 F1800
G1 X64.7 Y14.2 F1800
G1 X60.3 Y14.2 F1800
G1 X60.3 Y9.8 F1800
M5
G0 X60.4 Y9.9
M3 S310
G1 X64.6 Y9.9 F1800
G1 X64.6 Y14.1 F1800
G1 X60.4 Y14.1 F1800
G1 X60.4 Y9.9 F1800
M5
G0 X60.5 Y10
M3 S310
G1 X64.5 Y10 F1800
G1 X64.5 Y14 F1800
G1 X60.5 Y14 F1800
G1 X60.5 Y10 F1800
M5
G0 X60.6 Y10.1
M3 S310
G1 X64.4 Y10.1 F1800
G1 X64.4 Y13.9 F1800
G1 X60.6 Y13.9 F1800
G1 X60.6 Y10.1 F1800
M5
G0 X60.7 Y10.2
M3 S310
G1 X64.3 Y10.2 F1800
G1 X64.3 Y13.8 F1800
G1 X60.7 Y13.8 F1800
G1 X60.7 Y10.2 F1800
M5
G0 X60.8 Y10.3
M3 S310
G1 X64.2 Y10.3 F1800
G1 X64.2 Y13.7 F1800
G1 X60.8 Y13.7 F1800
G1 X60.8 Y10.3 F1800
M5
G0 X60.9 Y10.4
M3 S310
G1 X64.1 Y10.4 F1800
G1 X64.1 Y13.6 F1800
G1 X60.9 Y13.6 F1800
G1 X60.9 Y10.4 F1800
M5
G0 X61 Y10.5
M3 S310
G1 X64 Y10.5 F1800
G1 X64 Y13.5 F1800
G1 X61 Y13.5 F1800
G1 X61 Y10.5 F1800
M5
G0 X61.1 Y10.6
M3 S310
G1 X63.9 Y10.6 F1800
G1 X63.9 Y13.4 F1800
G1 X61.1 Y13.4 F1800
G1 X61.1 Y10.6 F1800
M5
G0 X61.2 Y10.7
M3 S310
G1 X63.8 Y10.7 F1800
G1 X63.8 Y13.3 F1800
G1 X61.2 Y13.3 F1800
G1 X61.2 Y10.7 F1800
M5
G0 X61.3 Y10.8
M3 S310
G1 X63.7 Y10.8 F1800
G1 X63.7 Y13.2 F1800
G1 X61.3 Y13.2 F1800
G1 X61.3 Y10.8 F1800
M5
G0 X61.4 Y10.9
M3 S310
G1 X63.6 Y10.9 F1800
G1 X63.6 Y13.1 F1800
G1 X61.4 Y13.1 F1800
G1 X61.4 Y10.9 F1800
M5
G0 X61.5 Y11
M3 S310
G1 X63.5 Y11 F1800
G1 X63.5 Y13 F1800
G1 X61.5 Y13 F1800
G1 X61.5 Y11 F1800
M5
G0 X61.6 Y11.1
M3 S310
G1 X63.4 Y11.1 F1800
G1 X63.4 Y12.9 F1800
G1 X61.6 Y12.9 F1800
G1 X61.6 Y11.1 F1800
M5
G0 X61.7 Y11.2
M3 S310
G1 X63.3 Y11.2 F1800
G1 X63.3 Y12.8 F1800
G1 X61.7 Y12.8 F1800
G1 X61.7 Y11.2 F1800
M5
G0 X61.8 Y11.3
M3 S310
G1 X63.2 Y11.3 F1800
G1 X63.2 Y12.7 F1800
G1 X61.8 Y12.7 F1800
G1 X61.8 Y11.3 F1800
M5
G0 X61.9 Y11.4
M3 S310
G1 X63.1 Y11.4 F1800
G1 X63.1 Y12.6 F1800
G1 X61.9 Y12.6 F1800
G1 X61.9 Y11.4 F1800
M5
G0 X62 Y11.5
M3 S310
G1 X63 Y11.5 F1800
G1 X63 Y12.5 F1800
G1 X62 Y12.5 F1800
G1 X62 Y11.5 F1800
M5
G0 X62.1 Y11.6
M3 S310
G1 X62.9 Y11.6 F1800
G1 X62.9 Y12.4 F1800
G1 X62.1 Y12.4 F1800
G1 X62.1 Y11.6 F1800
M5
G0 X62.2 Y11.7
M3 S310
G1 X62.8 Y11.7 F1800
G1 X62.8 Y12.3 F1800
G1 X62.2 Y12.3 F1800
G1 X62.2 Y11.7 F1800
M5
G0 X62.3 Y11.8
M3 S310
G1 X62.7 Y11.8 F1800
G1 X62.7 Y12.2 F1800
G1 X62.3 Y12.2 F1800
G1 X62.3 Y11.8 F1800
M5
G0 X62.4 Y11.9
M3 S310
G1 X62.6 Y11.9 F1800
G1 X62.6 Y12.1 F1800
G1 X62.4 Y12.1 F1800
G1 X62.4 Y11.9 F1800
M5
; Tile row=1 col=6 speed=1800 power=34
G0 X68.5 Y8
M3 S340
G1 X76.5 Y8 F1800
G1 X76.5 Y16 F1800
G1 X68.5 Y16 F1800
G1 X68.5 Y8 F1800
M5
G0 X68.6 Y8.1
M3 S340
G1 X76.4 Y8.1 F1800
G1 X76.4 Y15.9 F1800
G1 X68.6 Y15.9 F1800
G1 X68.6 Y8.1 F1800
M5
G0 X68.7 Y8.2
M3 S340
G1 X76.3 Y8.2 F1800
G1 X76.3 Y15.8 F1800
G1 X68.7 Y15.8 F1800
G1 X68.7 Y8.2 F1800
M5
G0 X68.8 Y8.3
M3 S340
G1 X76.2 Y8.3 F1800
G1 X76.2 Y15.7 F1800
G1 X68.8 Y15.7 F1800
G1 X68.8 Y8.3 F1800
M5
G0 X68.9 Y8.4
M3 S340
G1 X76.1 Y8.4 F1800
G1 X76.1 Y15.6 F1800
G1 X68.9 Y15.6 F1800
G1 X68.9 Y8.4 F1800
M5
G0 X69 Y8.5
M3 S340
G1 X76 Y8.5 F1800
G1 X76 Y15.5 F1800
G1 X69 Y15.5 F1800
G1 X69 Y8.5 F1800
M5
G0 X69.1 Y8.6
M3 S340
G1 X75.9 Y8.6 F1800
G1 X75.9 Y15.4 F1800
G1 X69.1 Y15.4 F1800
G1 X69.1 Y8.6 F1800
M5
G0 X69.2 Y8.7
M3 S340
G1 X75.8 Y8.7 F1800
G1 X75.8 Y15.3 F1800
G1 X69.2 Y15.3 F1800
G1 X69.2 Y8.7 F1800
M5
G0 X69.3 Y8.8
M3 S340
G1 X75.7 Y8.8 F1800
G1 X75.7 Y15.2 F1800
G1 X69.3 Y15.2 F1800
G1 X69.3 Y8.8 F1800
M5
G0 X69.4 Y8.9
M3 S340
G1 X75.6 Y8.9 F1800
G1 X75.6 Y15.1 F1800
G1 X69.4 Y15.1 F1800
G1 X69.4 Y8.9 F1800
M5
G0 X69.5 Y9
M3 S340
G1 X75.5 Y9 F1800
G1 X75.5 Y15 F1800
G1 X69.5 Y15 F1800
G1 X69.5 Y9 F1800
M5
G0 X69.6 Y9.1
M3 S340
G1 X75.4 Y9.1 F1800
G1 X75.4 Y14.9 F1800
G1 X69.6 Y14.9 F1800
G1 X69.6 Y9.1 F1800
M5
G0 X69.7 Y9.2
M3 S340
G1 X75.3 Y9.2 F1800
G1 X75.3 Y14.8 F1800
G1 X69.7 Y14.8 F1800
G1 X69.7 Y9.2 F1800
M5
G0 X69.8 Y9.3
M3 S340
G1 X75.2 Y9.3 F1800
G1 X75.2 Y14.7 F1800
G1 X69.8 Y14.7 F1800
G1 X69.8 Y9.3 F1800
M5
G0 X69.9 Y9.4
M3 S340
G1 X75.1 Y9.4 F1800
G1 X75.1 Y14.6 F1800
G1 X69.9 Y14.6 F1800
G1 X69.9 Y9.4 F1800
M5
G0 X70 Y9.5
M3 S340
G1 X75 Y9.5 F1800
G1 X75 Y14.5 F1800
G1 X70 Y14.5 F1800
G1 X70 Y9.5 F1800
M5
G0 X70.1 Y9.6
M3 S340
G1 X74.9 Y9.6 F1800
G1 X74.9 Y14.4 F1800
G1 X70.1 Y14.4 F1800
G1 X70.1 Y9.6 F1800
M5
G0 X70.2 Y9.7
M3 S340
G1 X74.8 Y9.7 F1800
G1 X74.8 Y14.3 F1800
G1 X70.2 Y14.3 F1800
G1 X70.2 Y9.7 F1800
M5
G0 X70.3 Y9.8
M3 S340
G1 X74.7 Y9.8 F1800
G1 X74.7 Y14.2 F1800
G1 X70.3 Y14.2 F1800
G1 X70.3 Y9.8 F1800
M5
G0 X70.4 Y9.9
M3 S340
G1 X74.6 Y9.9 F1800
G1 X74.6 Y14.1 F1800
G1 X70.4 Y14.1 F1800
G1 X70.4 Y9.9 F1800
M5
G0 X70.5 Y10
M3 S340
G1 X74.5 Y10 F1800
G1 X74.5 Y14 F1800
G1 X70.5 Y14 F1800
G1 X70.5 Y10 F1800
M5
G0 X70.6 Y10.1
M3 S340
G1 X74.4 Y10.1 F1800
G1 X74.4 Y13.9 F1800
G1 X70.6 Y13.9 F1800
G1 X70.6 Y10.1 F1800
M5
G0 X70.7 Y10.2
M3 S340
G1 X74.3 Y10.2 F1800
G1 X74.3 Y13.8 F1800
G1 X70.7 Y13.8 F1800
G1 X70.7 Y10.2 F1800
M5
G0 X70.8 Y10.3
M3 S340
G1 X74.2 Y10.3 F1800
G1 X74.2 Y13.7 F1800
G1 X70.8 Y13.7 F1800
G1 X70.8 Y10.3 F1800
M5
G0 X70.9 Y10.4
M3 S340
G1 X74.1 Y10.4 F1800
G1 X74.1 Y13.6 F1800
G1 X70.9 Y13.6 F1800
G1 X70.9 Y10.4 F1800
M5
G0 X71 Y10.5
M3 S340
G1 X74 Y10.5 F1800
G1 X74 Y13.5 F1800
G1 X71 Y13.5 F1800
G1 X71 Y10.5 F1800
M5
G0 X71.1 Y10.6
M3 S340
G1 X73.9 Y10.6 F1800
G1 X73.9 Y13.4 F1800
G1 X71.1 Y13.4 F1800
G1 X71.1 Y10.6 F1800
M5
G0 X71.2 Y10.7
M3 S340
G1 X73.8 Y10.7 F1800
G1 X73.8 Y13.3 F1800
G1 X71.2 Y13.3 F1800
G1 X71.2 Y10.7 F1800
M5
G0 X71.3 Y10.8
M3 S340
G1 X73.7 Y10.8 F1800
G1 X73.7 Y13.2 F1800
G1 X71.3 Y13.2 F1800
G1 X71.3 Y10.8 F1800
M5
G0 X71.4 Y10.9
M3 S340
G1 X73.6 Y10.9 F1800
G1 X73.6 Y13.1 F1800
G1 X71.4 Y13.1 F1800
G1 X71.4 Y10.9 F1800
M5
G0 X71.5 Y11
M3 S340
G1 X73.5 Y11 F1800
G1 X73.5 Y13 F1800
G1 X71.5 Y13 F1800
G1 X71.5 Y11 F1800
M5
G0 X71.6 Y11.1
M3 S340
G1 X73.4 Y11.1 F1800
G1 X73.4 Y12.9 F1800
G1 X71.6 Y12.9 F1800
G1 X71.6 Y11.1 F1800
M5
G0 X71.7 Y11.2
M3 S340
G1 X73.3 Y11.2 F1800
G1 X73.3 Y12.8 F1800
G1 X71.7 Y12.8 F1800
G1 X71.7 Y11.2 F1800
M5
G0 X71.8 Y11.3
M3 S340
G1 X73.2 Y11.3 F1800
G1 X73.2 Y12.7 F1800
G1 X71.8 Y12.7 F1800
G1 X71.8 Y11.3 F1800
M5
G0 X71.9 Y11.4
M3 S340
G1 X73.1 Y11.4 F1800
G1 X73.1 Y12.6 F1800
G1 X71.9 Y12.6 F1800
G1 X71.9 Y11.4 F1800
M5
G0 X72 Y11.5
M3 S340
G1 X73 Y11.5 F1800
G1 X73 Y12.5 F1800
G1 X72 Y12.5 F1800
G1 X72 Y11.5 F1800
M5
G0 X72.1 Y11.6
M3 S340
G1 X72.9 Y11.6 F1800
G1 X72.9 Y12.4 F1800
G1 X72.1 Y12.4 F1800
G1 X72.1 Y11.6 F1800
M5
G0 X72.2 Y11.7
M3 S340
G1 X72.8 Y11.7 F1800
G1 X72.8 Y12.3 F1800
G1 X72.2 Y12.3 F1800
G1 X72.2 Y11.7 F1800
M5
G0 X72.3 Y11.8
M3 S340
G1 X72.7 Y11.8 F1800
G1 X72.7 Y12.2 F1800
G1 X72.3 Y12.2 F1800
G1 X72.3 Y11.8 F1800
M5
G0 X72.4 Y11.9
M3 S340
G1 X72.6 Y11.9 F1800
G1 X72.6 Y12.1 F1800
G1 X72.4 Y12.1 F1800
G1 X72.4 Y11.9 F1800
M5
; Tile row=1 col=7 speed=1800 power=37
G0 X78.5 Y8
M3 S370
G1 X86.5 Y8 F1800
G1 X86.5 Y16 F1800
G1 X78.5 Y16 F1800
G1 X78.5 Y8 F1800
M5
G0 X78.6 Y8.1
M3 S370
G1 X86.4 Y8.1 F1800
G1 X86.4 Y15.9 F1800
G1 X78.6 Y15.9 F1800
G1 X78.6 Y8.1 F1800
M5
G0 X78.7 Y8.2
M3 S370
G1 X86.3 Y8.2 F1800
G1 X86.3 Y15.8 F1800
G1 X78.7 Y15.8 F1800
G1 X78.7 Y8.2 F1800
M5
G0 X78.8 Y8.3
M3 S370
G1 X86.2 Y8.3 F1800
G1 X86.2 Y15.7 F1800
G1 X78.8 Y15.7 F1800
G1 X78.8 Y8.3 F1800
M5
G0 X78.9 Y8.4
M3 S370
G1 X86.1 Y8.4 F1800
G1 X86.1 Y15.6 F1800
G1 X78.9 Y15.6 F1800
G1 X78.9 Y8.4 F1800
M5
G0 X79 Y8.5
M3 S370
G1 X86 Y8.5 F1800
G1 X86 Y15.5 F1800
G1 X79 Y15.5 F1800
G1 X79 Y8.5 F1800
M5
G0 X79.1 Y8.6
M3 S370
G1 X85.9 Y8.6 F1800
G1 X85.9 Y15.4 F1800
G1 X79.1 Y15.4 F1800
G1 X79.1 Y8.6 F1800
M5
G0 X79.2 Y8.7
M3 S370
G1 X85.8 Y8.7 F1800
G1 X85.8 Y15.3 F1800
G1 X79.2 Y15.3 F1800
G1 X79.2 Y8.7 F1800
M5
G0 X79.3 Y8.8
M3 S370
G1 X85.7 Y8.8 F1800
G1 X85.7 Y15.2 F1800
G1 X79.3 Y15.2 F1800
G1 X79.3 Y8.8 F1800
M5
G0 X79.4 Y8.9
M3 S370
G1 X85.6 Y8.9 F1800
G1 X85.6 Y15.1 F1800
G1 X79.4 Y15.1 F1800
G1 X79.4 Y8.9 F1800
M5
G0 X79.5 Y9
M3 S370
G1 X85.5 Y9 F1800
G1 X85.5 Y15 F1800
G1 X79.5 Y15 F1800
G1 X79.5 Y9 F1800
M5
G0 X79.6 Y9.1
M3 S370
G1 X85.4 Y9.1 F1800
G1 X85.4 Y14.9 F1800
G1 X79.6 Y14.9 F1800
G1 X79.6 Y9.1 F1800
M5
G0 X79.7 Y9.2
M3 S370
G1 X85.3 Y9.2 F1800
G1 X85.3 Y14.8 F1800
G1 X79.7 Y14.8 F1800
G1 X79.7 Y9.2 F1800
M5
G0 X79.8 Y9.3
M3 S370
G1 X85.2 Y9.3 F1800
G1 X85.2 Y14.7 F1800
G1 X79.8 Y14.7 F1800
G1 X79.8 Y9.3 F1800
M5
G0 X79.9 Y9.4
M3 S370
G1 X85.1 Y9.4 F1800
G1 X85.1 Y14.6 F1800
G1 X79.9 Y14.6 F1800
G1 X79.9 Y9.4 F1800
M5
G0 X80 Y9.5
M3 S370
G1 X85 Y9.5 F1800
G1 X85 Y14.5 F1800
G1 X80 Y14.5 F1800
G1 X80 Y9.5 F1800
M5
G0 X80.1 Y9.6
M3 S370
G1 X84.9 Y9.6 F1800
G1 X84.9 Y14.4 F1800
G1 X80.1 Y14.4 F1800
G1 X80.1 Y9.6 F1800
M5
G0 X80.2 Y9.7
M3 S370
G1 X84.8 Y9.7 F1800
G1 X84.8 Y14.3 F1800
G1 X80.2 Y14.3 F1800
G1 X80.2 Y9.7 F1800
M5
G0 X80.3 Y9.8
M3 S370
G1 X84.7 Y9.8 F1800
G1 X84.7 Y14.2 F1800
G1 X80.3 Y14.2 F1800
G1 X80.3 Y9.8 F1800
M5
G0 X80.4 Y9.9
M3 S370
G1 X84.6 Y9.9 F1800
G1 X84.6 Y14.1 F1800
G1 X80.4 Y14.1 F1800
G1 X80.4 Y9.9 F1800
M5
G0 X80.5 Y10
M3 S370
G1 X84.5 Y10 F1800
G1 X84.5 Y14 F1800
G1 X80.5 Y14 F1800
G1 X80.5 Y10 F1800
M5
G0 X80.6 Y10.1
M3 S370
G1 X84.4 Y10.1 F1800
G1 X84.4 Y13.9 F1800
G1 X80.6 Y13.9 F1800
G1 X80.6 Y10.1 F1800
M5
G0 X80.7 Y10.2
M3 S370
G1 X84.3 Y10.2 F1800
G1 X84.3 Y13.8 F1800
G1 X80.7 Y13.8 F1800
G1 X80.7 Y10.2 F1800
M5
G0 X80.8 Y10.3
M3 S370
G1 X84.2 Y10.3 F1800
G1 X84.2 Y13.7 F1800
G1 X80.8 Y13.7 F1800
G1 X80.8 Y10.3 F1800
M5
G0 X80.9 Y10.4
M3 S370
G1 X84.1 Y10.4 F1800
G1 X84.1 Y13.6 F1800
G1 X80.9 Y13.6 F1800
G1 X80.9 Y10.4 F1800
M5
G0 X81 Y10.5
M3 S370
G1 X84 Y10.5 F1800
G1 X84 Y13.5 F1800
G1 X81 Y13.5 F1800
G1 X81 Y10.5 F1800
M5
G0 X81.1 Y10.6
M3 S370
G1 X83.9 Y10.6 F1800
G1 X83.9 Y13.4 F1800
G1 X81.1 Y13.4 F1800
G1 X81.1 Y10.6 F1800
M5
G0 X81.2 Y10.7
M3 S370
G1 X83.8 Y10.7 F1800
G1 X83.8 Y13.3 F1800
G1 X81.2 Y13.3 F1800
G1 X81.2 Y10.7 F1800
M5
G0 X81.3 Y10.8
M3 S370
G1 X83.7 Y10.8 F1800
G1 X83.7 Y13.2 F1800
G1 X81.3 Y13.2 F1800
G1 X81.3 Y10.8 F1800
M5
G0 X81.4 Y10.9
M3 S370
G1 X83.6 Y10.9 F1800
G1 X83.6 Y13.1 F1800
G1 X81.4 Y13.1 F1800
G1 X81.4 Y10.9 F1800
M5
G0 X81.5 Y11
M3 S370
G1 X83.5 Y11 F1800
G1 X83.5 Y13 F1800
G1 X81.5 Y13 F1800
G1 X81.5 Y11 F1800
M5
G0 X81.6 Y11.1
M3 S370
G1 X83.4 Y11.1 F1800
G1 X83.4 Y12.9 F1800
G1 X81.6 Y12.9 F1800
G1 X81.6 Y11.1 F1800
M5
G0 X81.7 Y11.2
M3 S370
G1 X83.3 Y11.2 F1800
G1 X83.3 Y12.8 F1800
G1 X81.7 Y12.8 F1800
G1 X81.7 Y11.2 F1800
M5
G0 X81.8 Y11.3
M3 S370
G1 X83.2 Y11.3 F1800
G1 X83.2 Y12.7 F1800
G1 X81.8 Y12.7 F1800
G1 X81.8 Y11.3 F1800
M5
G0 X81.9 Y11.4
M3 S370
G1 X83.1 Y11.4 F1800
G1 X83.1 Y12.6 F1800
G1 X81.9 Y12.6 F1800
G1 X81.9 Y11.4 F1800
M5
G0 X82 Y11.5
M3 S370
G1 X83 Y11.5 F1800
G1 X83 Y12.5 F1800
G1 X82 Y12.5 F1800
G1 X82 Y11.5 F1800
M5
G0 X82.1 Y11.6
M3 S370
G1 X82.9 Y11.6 F1800
G1 X82.9 Y12.4 F1800
G1 X82.1 Y12.4 F1800
G1 X82.1 Y11.6 F1800
M5
G0 X82.2 Y11.7
M3 S370
G1 X82.8 Y11.7 F1800
G1 X82.8 Y12.3 F1800
G1 X82.2 Y12.3 F1800
G1 X82.2 Y11.7 F1800
M5
G0 X82.3 Y11.8
M3 S370
G1 X82.7 Y11.8 F1800
G1 X82.7 Y12.2 F1800
G1 X82.3 Y12.2 F1800
G1 X82.3 Y11.8 F1800
M5
G0 X82.4 Y11.9
M3 S370
G1 X82.6 Y11.9 F1800
G1 X82.6 Y12.1 F1800
G1 X82.4 Y12.1 F1800
G1 X82.4 Y11.9 F1800
M5
; Tile row=1 col=8 speed=1800 power=40
G0 X88.5 Y8
M3 S400
G1 X96.5 Y8 F1800
G1 X96.5 Y16 F1800
G1 X88.5 Y16 F1800
G1 X88.5 Y8 F1800
M5
G0 X88.6 Y8.1
M3 S400
G1 X96.4 Y8.1 F1800
G1 X96.4 Y15.9 F1800
G1 X88.6 Y15.9 F1800
G1 X88.6 Y8.1 F1800
M5
G0 X88.7 Y8.2
M3 S400
G1 X96.3 Y8.2 F1800
G1 X96.3 Y15.8 F1800
G1 X88.7 Y15.8 F1800
G1 X88.7 Y8.2 F1800
M5
G0 X88.8 Y8.3
M3 S400
G1 X96.2 Y8.3 F1800
G1 X96.2 Y15.7 F1800
G1 X88.8 Y15.7 F1800
G1 X88.8 Y8.3 F1800
M5
G0 X88.9 Y8.4
M3 S400
G1 X96.1 Y8.4 F1800
G1 X96.1 Y15.6 F1800
G1 X88.9 Y15.6 F1800
G1 X88.9 Y8.4 F1800
M5
G0 X89 Y8.5
M3 S400
G1 X96 Y8.5 F1800
G1 X96 Y15.5 F1800
G1 X89 Y15.5 F1800
G1 X89 Y8.5 F1800
M5
G0 X89.1 Y8.6
M3 S400
G1 X95.9 Y8.6 F1800
G1 X95.9 Y15.4 F1800
G1 X89.1 Y15.4 F1800
G1 X89.1 Y8.6 F1800
M5
G0 X89.2 Y8.7
M3 S400
G1 X95.8 Y8.7 F1800
G1 X95.8 Y15.3 F1800
G1 X89.2 Y15.3 F1800
G1 X89.2 Y8.7 F1800
M5
G0 X89.3 Y8.8
M3 S400
G1 X95.7 Y8.8 F1800
G1 X95.7 Y15.2 F1800
G1 X89.3 Y15.2 F1800
G1 X89.3 Y8.8 F1800
M5
G0 X89.4 Y8.9
M3 S400
G1 X95.6 Y8.9 F1800
G1 X95.6 Y15.1 F1800
G1 X89.4 Y15.1 F1800
G1 X89.4 Y8.9 F1800
M5
G0 X89.5 Y9
M3 S400
G1 X95.5 Y9 F1800
G1 X95.5 Y15 F1800
G1 X89.5 Y15 F1800
G1 X89.5 Y9 F1800
M5
G0 X89.6 Y9.1
M3 S400
G1 X95.4 Y9.1 F1800
G1 X95.4 Y14.9 F1800
G1 X89.6 Y14.9 F1800
G1 X89.6 Y9.1 F1800
M5
G0 X89.7 Y9.2
M3 S400
G1 X95.3 Y9.2 F1800
G1 X95.3 Y14.8 F1800
G1 X89.7 Y14.8 F1800
G1 X89.7 Y9.2 F1800
M5
G0 X89.8 Y9.3
M3 S400
G1 X95.2 Y9.3 F1800
G1 X95.2 Y14.7 F1800
G1 X89.8 Y14.7 F1800
G1 X89.8 Y9.3 F1800
M5
G0 X89.9 Y9.4
M3 S400
G1 X95.1 Y9.4 F1800
G1 X95.1 Y14.6 F1800
G1 X89.9 Y14.6 F1800
G1 X89.9 Y9.4 F1800
M5
G0 X90 Y9.5
M3 S400
G1 X95 Y9.5 F1800
G1 X95 Y14.5 F1800
G1 X90 Y14.5 F1800
G1 X90 Y9.5 F1800
M5
G0 X90.1 Y9.6
M3 S400
G1 X94.9 Y9.6 F1800
G1 X94.9 Y14.4 F1800
G1 X90.1 Y14.4 F1800
G1 X90.1 Y9.6 F1800
M5
G0 X90.2 Y9.7
M3 S400
G1 X94.8 Y9.7 F1800
G1 X94.8 Y14.3 F1800
G1 X90.2 Y14.3 F1800
G1 X90.2 Y9.7 F1800
M5
G0 X90.3 Y9.8
M3 S400
G1 X94.7 Y9.8 F1800
G1 X94.7 Y14.2 F1800
G1 X90.3 Y14.2 F1800
G1 X90.3 Y9.8 F1800
M5
G0 X90.4 Y9.9
M3 S400
G1 X94.6 Y9.9 F1800
G1 X94.6 Y14.1 F1800
G1 X90.4 Y14.1 F1800
G1 X90.4 Y9.9 F1800
M5
G0 X90.5 Y10
M3 S400
G1 X94.5 Y10 F1800
G1 X94.5 Y14 F1800
G1 X90.5 Y14 F1800
G1 X90.5 Y10 F1800
M5
G0 X90.6 Y10.1
M3 S400
G1 X94.4 Y10.1 F1800
G1 X94.4 Y13.9 F1800
G1 X90.6 Y13.9 F1800
G1 X90.6 Y10.1 F1800
M5
G0 X90.7 Y10.2
M3 S400
G1 X94.3 Y10.2 F1800
G1 X94.3 Y13.8 F1800
G1 X90.7 Y13.8 F1800
G1 X90.7 Y10.2 F1800
M5
G0 X90.8 Y10.3
M3 S400
G1 X94.2 Y10.3 F1800
G1 X94.2 Y13.7 F1800
G1 X90.8 Y13.7 F1800
G1 X90.8 Y10.3 F1800
M5
G0 X90.9 Y10.4
M3 S400
G1 X94.1 Y10.4 F1800
G1 X94.1 Y13.6 F1800
G1 X90.9 Y13.6 F1800
G1 X90.9 Y10.4 F1800
M5
G0 X91 Y10.5
M3 S400
G1 X94 Y10.5 F1800
G1 X94 Y13.5 F1800
G1 X91 Y13.5 F1800
G1 X91 Y10.5 F1800
M5
G0 X91.1 Y10.6
M3 S400
G1 X93.9 Y10.6 F1800
G1 X93.9 Y13.4 F1800
G1 X91.1 Y13.4 F1800
G1 X91.1 Y10.6 F1800
M5
G0 X91.2 Y10.7
M3 S400
G1 X93.8 Y10.7 F1800
G1 X93.8 Y13.3 F1800
G1 X91.2 Y13.3 F1800
G1 X91.2 Y10.7 F1800
M5
G0 X91.3 Y10.8
M3 S400
G1 X93.7 Y10.8 F1800
G1 X93.7 Y13.2 F1800
G1 X91.3 Y13.2 F1800
G1 X91.3 Y10.8 F1800
M5
G0 X91.4 Y10.9
M3 S400
G1 X93.6 Y10.9 F1800
G1 X93.6 Y13.1 F1800
G1 X91.4 Y13.1 F1800
G1 X91.4 Y10.9 F1800
M5
G0 X91.5 Y11
M3 S400
G1 X93.5 Y11 F1800
G1 X93.5 Y13 F1800
G1 X91.5 Y13 F1800
G1 X91.5 Y11 F1800
M5
G0 X91.6 Y11.1
M3 S400
G1 X93.4 Y11.1 F1800
G1 X93.4 Y12.9 F1800
G1 X91.6 Y12.9 F1800
G1 X91.6 Y11.1 F1800
M5
G0 X91.7 Y11.2
M3 S400
G1 X93.3 Y11.2 F1800
G1 X93.3 Y12.8 F1800
G1 X91.7 Y12.8 F1800
G1 X91.7 Y11.2 F1800
M5
G0 X91.8 Y11.3
M3 S400
G1 X93.2 Y11.3 F1800
G1 X93.2 Y12.7 F1800
G1 X91.8 Y12.7 F1800
G1 X91.8 Y11.3 F1800
M5
G0 X91.9 Y11.4
M3 S400
G1 X93.1 Y11.4 F1800
G1 X93.1 Y12.6 F1800
G1 X91.9 Y12.6 F1800
G1 X91.9 Y11.4 F1800
M5
G0 X92 Y11.5
M3 S400
G1 X93 Y11.5 F1800
G1 X93 Y12.5 F1800
G1 X92 Y12.5 F1800
G1 X92 Y11.5 F1800
M5
G0 X92.1 Y11.6
M3 S400
G1 X92.9 Y11.6 F1800
G1 X92.9 Y12.4 F1800
G1 X92.1 Y12.4 F1800
G1 X92.1 Y11.6 F1800
M5
G0 X92.2 Y11.7
M3 S400
G1 X92.8 Y11.7 F1800
G1 X92.8 Y12.3 F1800
G1 X92.2 Y12.3 F1800
G1 X92.2 Y11.7 F1800
M5
G0 X92.3 Y11.8
M3 S400
G1 X92.7 Y11.8 F1800
G1 X92.7 Y12.2 F1800
G1 X92.3 Y12.2 F1800
G1 X92.3 Y11.8 F1800
M5
G0 X92.4 Y11.9
M3 S400
G1 X92.6 Y11.9 F1800
G1 X92.6 Y12.1 F1800
G1 X92.4 Y12.1 F1800
G1 X92.4 Y11.9 F1800
M5
; Tile row=2 col=1 speed=1943 power=20
G0 X18.5 Y18
M3 S200
G1 X26.5 Y18 F1943
G1 X26.5 Y26 F1943
G1 X18.5 Y26 F1943
G1 X18.5 Y18 F1943
M5
G0 X18.6 Y18.1
M3 S200
G1 X26.4 Y18.1 F1943
G1 X26.4 Y25.9 F1943
G1 X18.6 Y25.9 F1943
G1 X18.6 Y18.1 F1943
M5
G0 X18.7 Y18.2
M3 S200
G1 X26.3 Y18.2 F1943
G1 X26.3 Y25.8 F1943
G1 X18.7 Y25.8 F1943
G1 X18.7 Y18.2 F1943
M5
G0 X18.8 Y18.3
M3 S200
G1 X26.2 Y18.3 F1943
G1 X26.2 Y25.7 F1943
G1 X18.8 Y25.7 F1943
G1 X18.8 Y18.3 F1943
M5
G0 X18.9 Y18.4
M3 S200
G1 X26.1 Y18.4 F1943
G1 X26.1 Y25.6 F1943
G1 X18.9 Y25.6 F1943
G1 X18.9 Y18.4 F1943
M5
G0 X19 Y18.5
M3 S200
G1 X26 Y18.5 F1943
G1 X26 Y25.5 F1943
G1 X19 Y25.5 F1943
G1 X19 Y18.5 F1943
M5
G0 X19.1 Y18.6
M3 S200
G1 X25.9 Y18.6 F1943
G1 X25.9 Y25.4 F1943
G1 X19.1 Y25.4 F1943
G1 X19.1 Y18.6 F1943
M5
G0 X19.2 Y18.7
M3 S200
G1 X25.8 Y18.7 F1943
G1 X25.8 Y25.3 F1943
G1 X19.2 Y25.3 F1943
G1 X19.2 Y18.7 F1943
M5
G0 X19.3 Y18.8
M3 S200
G1 X25.7 Y18.8 F1943
G1 X25.7 Y25.2 F1943
G1 X19.3 Y25.2 F1943
G1 X19.3 Y18.8 F1943
M5
G0 X19.4 Y18.9
M3 S200
G1 X25.6 Y18.9 F1943
G1 X25.6 Y25.1 F1943
G1 X19.4 Y25.1 F1943
G1 X19.4 Y18.9 F1943
M5
G0 X19.5 Y19
M3 S200
G1 X25.5 Y19 F1943
G1 X25.5 Y25 F1943
G1 X19.5 Y25 F1943
G1 X19.5 Y19 F1943
M5
G0 X19.6 Y19.1
M3 S200
G1 X25.4 Y19.1 F1943
G1 X25.4 Y24.9 F1943
G1 X19.6 Y24.9 F1943
G1 X19.6 Y19.1 F1943
M5
G0 X19.7 Y19.2
M3 S200
G1 X25.3 Y19.2 F1943
G1 X25.3 Y24.8 F1943
G1 X19.7 Y24.8 F1943
G1 X19.7 Y19.2 F1943
M5
G0 X19.8 Y19.3
M3 S200
G1 X25.2 Y19.3 F1943
G1 X25.2 Y24.7 F1943
G1 X19.8 Y24.7 F1943
G1 X19.8 Y19.3 F1943
M5
G0 X19.9 Y19.4
M3 S200
G1 X25.1 Y19.4 F1943
G1 X25.1 Y24.6 F1943
G1 X19.9 Y24.6 F1943
G1 X19.9 Y19.4 F1943
M5
G0 X20 Y19.5
M3 S200
G1 X25 Y19.5 F1943
G1 X25 Y24.5 F1943
G1 X20 Y24.5 F1943
G1 X20 Y19.5 F1943
M5
G0 X20.1 Y19.6
M3 S200
G1 X24.9 Y19.6 F1943
G1 X24.9 Y24.4 F1943
G1 X20.1 Y24.4 F1943
G1 X20.1 Y19.6 F1943
M5
G0 X20.2 Y19.7
M3 S200
G1 X24.8 Y19.7 F1943
G1 X24.8 Y24.3 F1943
G1 X20.2 Y24.3 F1943
G1 X20.2 Y19.7 F1943
M5
G0 X20.3 Y19.8
M3 S200
G1 X24.7 Y19.8 F1943
G1 X24.7 Y24.2 F1943
G1 X20.3 Y24.2 F1943
G1 X20.3 Y19.8 F1943
M5
G0 X20.4 Y19.9
M3 S200
G1 X24.6 Y19.9 F1943
G1 X24.6 Y24.1 F1943
G1 X20.4 Y24.1 F1943
G1 X20.4 Y19.9 F1943
M5
G0 X20.5 Y20
M3 S200
G1 X24.5 Y20 F1943
G1 X24.5 Y24 F1943
G1 X20.5 Y24 F1943
G1 X20.5 Y20 F1943
M5
G0 X20.6 Y20.1
M3 S200
G1 X24.4 Y20.1 F1943
G1 X24.4 Y23.9 F1943
G1 X20.6 Y23.9 F1943
G1 X20.6 Y20.1 F1943
M5
G0 X20.7 Y20.2
M3 S200
G1 X24.3 Y20.2 F1943
G1 X24.3 Y23.8 F1943
G1 X20.7 Y23.8 F1943
G1 X20.7 Y20.2 F1943
M5
G0 X20.8 Y20.3
M3 S200
G1 X24.2 Y20.3 F1943
G1 X24.2 Y23.7 F1943
G1 X20.8 Y23.7 F1943
G1 X20.8 Y20.3 F1943
M5
G0 X20.9 Y20.4
M3 S200
G1 X24.1 Y20.4 F1943
G1 X24.1 Y23.6 F1943
G1 X20.9 Y23.6 F1943
G1 X20.9 Y20.4 F1943
M5
G0 X21 Y20.5
M3 S200
G1 X24 Y20.5 F1943
G1 X24 Y23.5 F1943
G1 X21 Y23.5 F1943
G1 X21 Y20.5 F1943
M5
G0 X21.1 Y20.6
M3 S200
G1 X23.9 Y20.6 F1943
G1 X23.9 Y23.4 F1943
G1 X21.1 Y23.4 F1943
G1 X21.1 Y20.6 F1943
M5
G0 X21.2 Y20.7
M3 S200
G1 X23.8 Y20.7 F1943
G1 X23.8 Y23.3 F1943
G1 X21.2 Y23.3 F1943
G1 X21.2 Y20.7 F1943
M5
G0 X21.3 Y20.8
M3 S200
G1 X23.7 Y20.8 F1943
G1 X23.7 Y23.2 F1943
G1 X21.3 Y23.2 F1943
G1 X21.3 Y20.8 F1943
M5
G0 X21.4 Y20.9
M3 S200
G1 X23.6 Y20.9 F1943
G1 X23.6 Y23.1 F1943
G1 X21.4 Y23.1 F1943
G1 X21.4 Y20.9 F1943
M5
G0 X21.5 Y21
M3 S200
G1 X23.5 Y21 F1943
G1 X23.5 Y23 F1943
G1 X21.5 Y23 F1943
G1 X21.5 Y21 F1943
M5
G0 X21.6 Y21.1
M3 S200
G1 X23.4 Y21.1 F1943
G1 X23.4 Y22.9 F1943
G1 X21.6 Y22.9 F1943
G1 X21.6 Y21.1 F1943
M5
G0 X21.7 Y21.2
M3 S200
G1 X23.3 Y21.2 F1943
G1 X23.3 Y22.8 F1943
G1 X21.7 Y22.8 F1943
G1 X21.7 Y21.2 F1943
M5
G0 X21.8 Y21.3
M3 S200
G1 X23.2 Y21.3 F1943
G1 X23.2 Y22.7 F1943
G1 X21.8 Y22.7 F1943
G1 X21.8 Y21.3 F1943
M5
G0 X21.9 Y21.4
M3 S200
G1 X23.1 Y21.4 F1943
G1 X23.1 Y22.6 F1943
G1 X21.9 Y22.6 F1943
G1 X21.9 Y21.4 F1943
M5
G0 X22 Y21.5
M3 S200
G1 X23 Y21.5 F1943
G1 X23 Y22.5 F1943
G1 X22 Y22.5 F1943
G1 X22 Y21.5 F1943
M5
G0 X22.1 Y21.6
M3 S200
G1 X22.9 Y21.6 F1943
G1 X22.9 Y22.4 F1943
G1 X22.1 Y22.4 F1943
G1 X22.1 Y21.6 F1943
M5
G0 X22.2 Y21.7
M3 S200
G1 X22.8 Y21.7 F1943
G1 X22.8 Y22.3 F1943
G1 X22.2 Y22.3 F1943
G1 X22.2 Y21.7 F1943
M5
G0 X22.3 Y21.8
M3 S200
G1 X22.7 Y21.8 F1943
G1 X22.7 Y22.2 F1943
G1 X22.3 Y22.2 F1943
G1 X22.3 Y21.8 F1943
M5
G0 X22.4 Y21.9
M3 S200
G1 X22.6 Y21.9 F1943
G1 X22.6 Y22.1 F1943
G1 X22.4 Y22.1 F1943
G1 X22.4 Y21.9 F1943
M5
; Tile row=2 col=2 speed=1943 power=23
G0 X28.5 Y18
M3 S230
G1 X36.5 Y18 F1943
G1 X36.5 Y26 F1943
G1 X28.5 Y26 F1943
G1 X28.5 Y18 F1943
M5
G0 X28.6 Y18.1
M3 S230
G1 X36.4 Y18.1 F1943
G1 X36.4 Y25.9 F1943
G1 X28.6 Y25.9 F1943
G1 X28.6 Y18.1 F1943
M5
G0 X28.7 Y18.2
M3 S230
G1 X36.3 Y18.2 F1943
G1 X36.3 Y25.8 F1943
G1 X28.7 Y25.8 F1943
G1 X28.7 Y18.2 F1943
M5
G0 X28.8 Y18.3
M3 S230
G1 X36.2 Y18.3 F1943
G1 X36.2 Y25.7 F1943
G1 X28.8 Y25.7 F1943
G1 X28.8 Y18.3 F1943
M5
G0 X28.9 Y18.4
M3 S230
G1 X36.1 Y18.4 F1943
G1 X36.1 Y25.6 F1943
G1 X28.9 Y25.6 F1943
G1 X28.9 Y18.4 F1943
M5
G0 X29 Y18.5
M3 S230
G1 X36 Y18.5 F1943
G1 X36 Y25.5 F1943
G1 X29 Y25.5 F1943
G1 X29 Y18.5 F1943
M5
G0 X29.1 Y18.6
M3 S230
G1 X35.9 Y18.6 F1943
G1 X35.9 Y25.4 F1943
G1 X29.1 Y25.4 F1943
G1 X29.1 Y18.6 F1943
M5
G0 X29.2 Y18.7
M3 S230
G1 X35.8 Y18.7 F1943
G1 X35.8 Y25.3 F1943
G1 X29.2 Y25.3 F1943
G1 X29.2 Y18.7 F1943
M5
G0 X29.3 Y18.8
M3 S230
G1 X35.7 Y18.8 F1943
G1 X35.7 Y25.2 F1943
G1 X29.3 Y25.2 F1943
G1 X29.3 Y18.8 F1943
M5
G0 X29.4 Y18.9
M3 S230
G1 X35.6 Y18.9 F1943
G1 X35.6 Y25.1 F1943
G1 X29.4 Y25.1 F1943
G1 X29.4 Y18.9 F1943
M5
G0 X29.5 Y19
M3 S230
G1 X35.5 Y19 F1943
G1 X35.5 Y25 F1943
G1 X29.5 Y25 F1943
G1 X29.5 Y19 F1943
M5
G0 X29.6 Y19.1
M3 S230
G1 X35.4 Y19.1 F1943
G1 X35.4 Y24.9 F1943
G1 X29.6 Y24.9 F1943
G1 X29.6 Y19.1 F1943
M5
G0 X29.7 Y19.2
M3 S230
G1 X35.3 Y19.2 F1943
G1 X35.3 Y24.8 F1943
G1 X29.7 Y24.8 F1943
G1 X29.7 Y19.2 F1943
M5
G0 X29.8 Y19.3
M3 S230
G1 X35.2 Y19.3 F1943
G1 X35.2 Y24.7 F1943
G1 X29.8 Y24.7 F1943
G1 X29.8 Y19.3 F1943
M5
G0 X29.9 Y19.4
M3 S230
G1 X35.1 Y19.4 F1943
G1 X35.1 Y24.6 F1943
G1 X29.9 Y24.6 F1943
G1 X29.9 Y19.4 F1943
M5
G0 X30 Y19.5
M3 S230
G1 X35 Y19.5 F1943
G1 X35 Y24.5 F1943
G1 X30 Y24.5 F1943
G1 X30 Y19.5 F1943
M5
G0 X30.1 Y19.6
M3 S230
G1 X34.9 Y19.6 F1943
G1 X34.9 Y24.4 F1943
G1 X30.1 Y24.4 F1943
G1 X30.1 Y19.6 F1943
M5
G0 X30.2 Y19.7
M3 S230
G1 X34.8 Y19.7 F1943
G1 X34.8 Y24.3 F1943
G1 X30.2 Y24.3 F1943
G1 X30.2 Y19.7 F1943
M5
G0 X30.3 Y19.8
M3 S230
G1 X34.7 Y19.8 F1943
G1 X34.7 Y24.2 F1943
G1 X30.3 Y24.2 F1943
G1 X30.3 Y19.8 F1943
M5
G0 X30.4 Y19.9
M3 S230
G1 X34.6 Y19.9 F1943
G1 X34.6 Y24.1 F1943
G1 X30.4 Y24.1 F1943
G1 X30.4 Y19.9 F1943
M5
G0 X30.5 Y20
M3 S230
G1 X34.5 Y20 F1943
G1 X34.5 Y24 F1943
G1 X30.5 Y24 F1943
G1 X30.5 Y20 F1943
M5
G0 X30.6 Y20.1
M3 S230
G1 X34.4 Y20.1 F1943
G1 X34.4 Y23.9 F1943
G1 X30.6 Y23.9 F1943
G1 X30.6 Y20.1 F1943
M5
G0 X30.7 Y20.2
M3 S230
G1 X34.3 Y20.2 F1943
G1 X34.3 Y23.8 F1943
G1 X30.7 Y23.8 F1943
G1 X30.7 Y20.2 F1943
M5
G0 X30.8 Y20.3
M3 S230
G1 X34.2 Y20.3 F1943
G1 X34.2 Y23.7 F1943
G1 X30.8 Y23.7 F1943
G1 X30.8 Y20.3 F1943
M5
G0 X30.9 Y20.4
M3 S230
G1 X34.1 Y20.4 F1943
G1 X34.1 Y23.6 F1943
G1 X30.9 Y23.6 F1943
G1 X30.9 Y20.4 F1943
M5
G0 X31 Y20.5
M3 S230
G1 X34 Y20.5 F1943
G1 X34 Y23.5 F1943
G1 X31 Y23.5 F1943
G1 X31 Y20.5 F1943
M5
G0 X31.1 Y20.6
M3 S230
G1 X33.9 Y20.6 F1943
G1 X33.9 Y23.4 F1943
G1 X31.1 Y23.4 F1943
G1 X31.1 Y20.6 F1943
M5
G0 X31.2 Y20.7
M3 S230
G1 X33.8 Y20.7 F1943
G1 X33.8 Y23.3 F1943
G1 X31.2 Y23.3 F1943
G1 X31.2 Y20.7 F1943
M5
G0 X31.3 Y20.8
M3 S230
G1 X33.7 Y20.8 F1943
G1 X33.7 Y23.2 F1943
G1 X31.3 Y23.2 F1943
G1 X31.3 Y20.8 F1943
M5
G0 X31.4 Y20.9
M3 S230
G1 X33.6 Y20.9 F1943
G1 X33.6 Y23.1 F1943
G1 X31.4 Y23.1 F1943
G1 X31.4 Y20.9 F1943
M5
G0 X31.5 Y21
M3 S230
G1 X33.5 Y21 F1943
G1 X33.5 Y23 F1943
G1 X31.5 Y23 F1943
G1 X31.5 Y21 F1943
M5
G0 X31.6 Y21.1
M3 S230
G1 X33.4 Y21.1 F1943
G1 X33.4 Y22.9 F1943
G1 X31.6 Y22.9 F1943
G1 X31.6 Y21.1 F1943
M5
G0 X31.7 Y21.2
M3 S230
G1 X33.3 Y21.2 F1943
G1 X33.3 Y22.8 F1943
G1 X31.7 Y22.8 F1943
G1 X31.7 Y21.2 F1943
M5
G0 X31.8 Y21.3
M3 S230
G1 X33.2 Y21.3 F1943
G1 X33.2 Y22.7 F1943
G1 X31.8 Y22.7 F1943
G1 X31.8 Y21.3 F1943
M5
G0 X31.9 Y21.4
M3 S230
G1 X33.1 Y21.4 F1943
G1 X33.1 Y22.6 F1943
G1 X31.9 Y22.6 F1943
G1 X31.9 Y21.4 F1943
M5
G0 X32 Y21.5
M3 S230
G1 X33 Y21.5 F1943
G1 X33 Y22.5 F1943
G1 X32 Y22.5 F1943
G1 X32 Y21.5 F1943
M5
G0 X32.1 Y21.6
M3 S230
G1 X32.9 Y21.6 F1943
G1 X32.9 Y22.4 F1943
G1 X32.1 Y22.4 F1943
G1 X32.1 Y21.6 F1943
M5
G0 X32.2 Y21.7
M3 S230
G1 X32.8 Y21.7 F1943
G1 X32.8 Y22.3 F1943
G1 X32.2 Y22.3 F1943
G1 X32.2 Y21.7 F1943
M5
G0 X32.3 Y21.8
M3 S230
G1 X32.7 Y21.8 F1943
G1 X32.7 Y22.2 F1943
G1 X32.3 Y22.2 F1943
G1 X32.3 Y21.8 F1943
M5
G0 X32.4 Y21.9
M3 S230
G1 X32.6 Y21.9 F1943
G1 X32.6 Y22.1 F1943
G1 X32.4 Y22.1 F1943
G1 X32.4 Y21.9 F1943
M5
; Tile row=2 col=3 speed=1943 power=26
G0 X38.5 Y18
M3 S260
G1 X46.5 Y18 F1943
G1 X46.5 Y26 F1943
G1 X38.5 Y26 F1943
G1 X38.5 Y18 F1943
M5
G0 X38.6 Y18.1
M3 S260
G1 X46.4 Y18.1 F1943
G1 X46.4 Y25.9 F1943
G1 X38.6 Y25.9 F1943
G1 X38.6 Y18.1 F1943
M5
G0 X38.7 Y18.2
M3 S260
G1 X46.3 Y18.2 F1943
G1 X46.3 Y25.8 F1943
G1 X38.7 Y25.8 F1943
G1 X38.7 Y18.2 F1943
M5
G0 X38.8 Y18.3
M3 S260
G1 X46.2 Y18.3 F1943
G1 X46.2 Y25.7 F1943
G1 X38.8 Y25.7 F1943
G1 X38.8 Y18.3 F1943
M5
G0 X38.9 Y18.4
M3 S260
G1 X46.1 Y18.4 F1943
G1 X46.1 Y25.6 F1943
G1 X38.9 Y25.6 F1943
G1 X38.9 Y18.4 F1943
M5
G0 X39 Y18.5
M3 S260
G1 X46 Y18.5 F1943
G1 X46 Y25.5 F1943
G1 X39 Y25.5 F1943
G1 X39 Y18.5 F1943
M5
G0 X39.1 Y18.6
M3 S260
G1 X45.9 Y18.6 F1943
G1 X45.9 Y25.4 F1943
G1 X39.1 Y25.4 F1943
G1 X39.1 Y18.6 F1943
M5
G0 X39.2 Y18.7
M3 S260
G1 X45.8 Y18.7 F1943
G1 X45.8 Y25.3 F1943
G1 X39.2 Y25.3 F1943
G1 X39.2 Y18.7 F1943
M5
G0 X39.3 Y18.8
M3 S260
G1 X45.7 Y18.8 F1943
G1 X45.7 Y25.2 F1943
G1 X39.3 Y25.2 F1943
G1 X39.3 Y18.8 F1943
M5
G0 X39.4 Y18.9
M3 S260
G1 X45.6 Y18.9 F1943
G1 X45.6 Y25.1 F1943
G1 X39.4 Y25.1 F1943
G1 X39.4 Y18.9 F1943
M5
G0 X39.5 Y19
M3 S260
G1 X45.5 Y19 F1943
G1 X45.5 Y25 F1943
G1 X39.5 Y25 F1943
G1 X39.5 Y19 F1943
M5
G0 X39.6 Y19.1
M3 S260
G1 X45.4 Y19.1 F1943
G1 X45.4 Y24.9 F1943
G1 X39.6 Y24.9 F1943
G1 X39.6 Y19.1 F1943
M5
G0 X39.7 Y19.2
M3 S260
G1 X45.3 Y19.2 F1943
G1 X45.3 Y24.8 F1943
G1 X39.7 Y24.8 F1943
G1 X39.7 Y19.2 F1943
M5
G0 X39.8 Y19.3
M3 S260
G1 X45.2 Y19.3 F1943
G1 X45.2 Y24.7 F1943
G1 X39.8 Y24.7 F1943
G1 X39.8 Y19.3 F1943
M5
G0 X39.9 Y19.4
M3 S260
G1 X45.1 Y19.4 F1943
G1 X45.1 Y24.6 F1943
G1 X39.9 Y24.6 F1943
G1 X39.9 Y19.4 F1943
M5
G0 X40 Y19.5
M3 S260
G1 X45 Y19.5 F1943
G1 X45 Y24.5 F1943
G1 X40 Y24.5 F1943
G1 X40 Y19.5 F1943
M5
G0 X40.1 Y19.6
M3 S260
G1 X44.9 Y19.6 F1943
G1 X44.9 Y24.4 F1943
G1 X40.1 Y24.4 F1943
G1 X40.1 Y19.6 F1943
M5
G0 X40.2 Y19.7
M3 S260
G1 X44.8 Y19.7 F1943
G1 X44.8 Y24.3 F1943
G1 X40.2 Y24.3 F1943
G1 X40.2 Y19.7 F1943
M5
G0 X40.3 Y19.8
M3 S260
G1 X44.7 Y19.8 F1943
G1 X44.7 Y24.2 F1943
G1 X40.3 Y24.2 F1943
G1 X40.3 Y19.8 F1943
M5
G0 X40.4 Y19.9
M3 S260
G1 X44.6 Y19.9 F1943
G1 X44.6 Y24.1 F1943
G1 X40.4 Y24.1 F1943
G1 X40.4 Y19.9 F1943
M5
G0 X40.5 Y20
M3 S260
G1 X44.5 Y20 F1943
G1 X44.5 Y24 F1943
G1 X40.5 Y24 F1943
G1 X40.5 Y20 F1943
M5
G0 X40.6 Y20.1
M3 S260
G1 X44.4 Y20.1 F1943
G1 X44.4 Y23.9 F1943
G1 X40.6 Y23.9 F1943
G1 X40.6 Y20.1 F1943
M5
G0 X40.7 Y20.2
M3 S260
G1 X44.3 Y20.2 F1943
G1 X44.3 Y23.8 F1943
G1 X40.7 Y23.8 F1943
G1 X40.7 Y20.2 F1943
M5
G0 X40.8 Y20.3
M3 S260
G1 X44.2 Y20.3 F1943
G1 X44.2 Y23.7 F1943
G1 X40.8 Y23.7 F1943
G1 X40.8 Y20.3 F1943
M5
G0 X40.9 Y20.4
M3 S260
G1 X44.1 Y20.4 F1943
G1 X44.1 Y23.6 F1943
G1 X40.9 Y23.6 F1943
G1 X40.9 Y20.4 F1943
M5
G0 X41 Y20.5
M3 S260
G1 X44 Y20.5 F1943
G1 X44 Y23.5 F1943
G1 X41 Y23.5 F1943
G1 X41 Y20.5 F1943
M5
G0 X41.1 Y20.6
M3 S260
G1 X43.9 Y20.6 F1943
G1 X43.9 Y23.4 F1943
G1 X41.1 Y23.4 F1943
G1 X41.1 Y20.6 F1943
M5
G0 X41.2 Y20.7
M3 S260
G1 X43.8 Y20.7 F1943
G1 X43.8 Y23.3 F1943
G1 X41.2 Y23.3 F1943
G1 X41.2 Y20.7 F1943
M5
G0 X41.3 Y20.8
M3 S260
G1 X43.7 Y20.8 F1943
G1 X43.7 Y23.2 F1943
G1 X41.3 Y23.2 F1943
G1 X41.3 Y20.8 F1943
M5
G0 X41.4 Y20.9
M3 S260
G1 X43.6 Y20.9 F1943
G1 X43.6 Y23.1 F1943
G1 X41.4 Y23.1 F1943
G1 X41.4 Y20.9 F1943
M5
G0 X41.5 Y21
M3 S260
G1 X43.5 Y21 F1943
G1 X43.5 Y23 F1943
G1 X41.5 Y23 F1943
G1 X41.5 Y21 F1943
M5
G0 X41.6 Y21.1
M3 S260
G1 X43.4 Y21.1 F1943
G1 X43.4 Y22.9 F1943
G1 X41.6 Y22.9 F1943
G1 X41.6 Y21.1 F1943
M5
G0 X41.7 Y21.2
M3 S260
G1 X43.3 Y21.2 F1943
G1 X43.3 Y22.8 F1943
G1 X41.7 Y22.8 F1943
G1 X41.7 Y21.2 F1943
M5
G0 X41.8 Y21.3
M3 S260
G1 X43.2 Y21.3 F1943
G1 X43.2 Y22.7 F1943
G1 X41.8 Y22.7 F1943
G1 X41.8 Y21.3 F1943
M5
G0 X41.9 Y21.4
M3 S260
G1 X43.1 Y21.4 F1943
G1 X43.1 Y22.6 F1943
G1 X41.9 Y22.6 F1943
G1 X41.9 Y21.4 F1943
M5
G0 X42 Y21.5
M3 S260
G1 X43 Y21.5 F1943
G1 X43 Y22.5 F1943
G1 X42 Y22.5 F1943
G1 X42 Y21.5 F1943
M5
G0 X42.1 Y21.6
M3 S260
G1 X42.9 Y21.6 F1943
G1 X42.9 Y22.4 F1943
G1 X42.1 Y22.4 F1943
G1 X42.1 Y21.6 F1943
M5
G0 X42.2 Y21.7
M3 S260
G1 X42.8 Y21.7 F1943
G1 X42.8 Y22.3 F1943
G1 X42.2 Y22.3 F1943
G1 X42.2 Y21.7 F1943
M5
G0 X42.3 Y21.8
M3 S260
G1 X42.7 Y21.8 F1943
G1 X42.7 Y22.2 F1943
G1 X42.3 Y22.2 F1943
G1 X42.3 Y21.8 F1943
M5
G0 X42.4 Y21.9
M3 S260
G1 X42.6 Y21.9 F1943
G1 X42.6 Y22.1 F1943
G1 X42.4 Y22.1 F1943
G1 X42.4 Y21.9 F1943
M5
; Tile row=2 col=4 speed=1943 power=29
G0 X48.5 Y18
M3 S290
G1 X56.5 Y18 F1943
G1 X56.5 Y26 F1943
G1 X48.5 Y26 F1943
G1 X48.5 Y18 F1943
M5
G0 X48.6 Y18.1
M3 S290
G1 X56.4 Y18.1 F1943
G1 X56.4 Y25.9 F1943
G1 X48.6 Y25.9 F1943
G1 X48.6 Y18.1 F1943
M5
G0 X48.7 Y18.2
M3 S290
G1 X56.3 Y18.2 F1943
G1 X56.3 Y25.8 F1943
G1 X48.7 Y25.8 F1943
G1 X48.7 Y18.2 F1943
M5
G0 X48.8 Y18.3
M3 S290
G1 X56.2 Y18.3 F1943
G1 X56.2 Y25.7 F1943
G1 X48.8 Y25.7 F1943
G1 X48.8 Y18.3 F1943
M5
G0 X48.9 Y18.4
M3 S290
G1 X56.1 Y18.4 F1943
G1 X56.1 Y25.6 F1943
G1 X48.9 Y25.6 F1943
G1 X48.9 Y18.4 F1943
M5
G0 X49 Y18.5
M3 S290
G1 X56 Y18.5 F1943
G1 X56 Y25.5 F1943
G1 X49 Y25.5 F1943
G1 X49 Y18.5 F1943
M5
G0 X49.1 Y18.6
M3 S290
G1 X55.9 Y18.6 F1943
G1 X55.9 Y25.4 F1943
G1 X49.1 Y25.4 F1943
G1 X49.1 Y18.6 F1943
M5
G0 X49.2 Y18.7
M3 S290
G1 X55.8 Y18.7 F1943
G1 X55.8 Y25.3 F1943
G1 X49.2 Y25.3 F1943
G1 X49.2 Y18.7 F1943
M5
G0 X49.3 Y18.8
M3 S290
G1 X55.7 Y18.8 F1943
G1 X55.7 Y25.2 F1943
G1 X49.3 Y25.2 F1943
G1 X49.3 Y18.8 F1943
M5
G0 X49.4 Y18.9
M3 S290
G1 X55.6 Y18.9 F1943
G1 X55.6 Y25.1 F1943
G1 X49.4 Y25.1 F1943
G1 X49.4 Y18.9 F1943
M5
G0 X49.5 Y19
M3 S290
G1 X55.5 Y19 F1943
G1 X55.5 Y25 F1943
G1 X49.5 Y25 F1943
G1 X49.5 Y19 F1943
M5
G0 X49.6 Y19.1
M3 S290
G1 X55.4 Y19.1 F1943
G1 X55.4 Y24.9 F1943
G1 X49.6 Y24.9 F1943
G1 X49.6 Y19.1 F1943
M5
G0 X49.7 Y19.2
M3 S290
G1 X55.3 Y19.2 F1943
G1 X55.3 Y24.8 F1943
G1 X49.7 Y24.8 F1943
G1 X49.7 Y19.2 F1943
M5
G0 X49.8 Y19.3
M3 S290
G1 X55.2 Y19.3 F1943
G1 X55.2 Y24.7 F1943
G1 X49.8 Y24.7 F1943
G1 X49.8 Y19.3 F1943
M5
G0 X49.9 Y19.4
M3 S290
G1 X55.1 Y19.4 F1943
G1 X55.1 Y24.6 F1943
G1 X49.9 Y24.6 F1943
G1 X49.9 Y19.4 F1943
M5
G0 X50 Y19.5
M3 S290
G1 X55 Y19.5 F1943
G1 X55 Y24.5 F1943
G1 X50 Y24.5 F1943
G1 X50 Y19.5 F1943
M5
G0 X50.1 Y19.6
M3 S290
G1 X54.9 Y19.6 F1943
G1 X54.9 Y24.4 F1943
G1 X50.1 Y24.4 F1943
G1 X50.1 Y19.6 F1943
M5
G0 X50.2 Y19.7
M3 S290
G1 X54.8 Y19.7 F1943
G1 X54.8 Y24.3 F1943
G1 X50.2 Y24.3 F1943
G1 X50.2 Y19.7 F1943
M5
G0 X50.3 Y19.8
M3 S290
G1 X54.7 Y19.8 F1943
G1 X54.7 Y24.2 F1943
G1 X50.3 Y24.2 F1943
G1 X50.3 Y19.8 F1943
M5
G0 X50.4 Y19.9
M3 S290
G1 X54.6 Y19.9 F1943
G1 X54.6 Y24.1 F1943
G1 X50.4 Y24.1 F1943
G1 X50.4 Y19.9 F1943
M5
G0 X50.5 Y20
M3 S290
G1 X54.5 Y20 F1943
G1 X54.5 Y24 F1943
G1 X50.5 Y24 F1943
G1 X50.5 Y20 F1943
M5
G0 X50.6 Y20.1
M3 S290
G1 X54.4 Y20.1 F1943
G1 X54.4 Y23.9 F1943
G1 X50.6 Y23.9 F1943
G1 X50.6 Y20.1 F1943
M5
G0 X50.7 Y20.2
M3 S290
G1 X54.3 Y20.2 F1943
G1 X54.3 Y23.8 F1943
G1 X50.7 Y23.8 F1943
G1 X50.7 Y20.2 F1943
M5
G0 X50.8 Y20.3
M3 S290
G1 X54.2 Y20.3 F1943
G1 X54.2 Y23.7 F1943
G1 X50.8 Y23.7 F1943
G1 X50.8 Y20.3 F1943
M5
G0 X50.9 Y20.4
M3 S290
G1 X54.1 Y20.4 F1943
G1 X54.1 Y23.6 F1943
G1 X50.9 Y23.6 F1943
G1 X50.9 Y20.4 F1943
M5
G0 X51 Y20.5
M3 S290
G1 X54 Y20.5 F1943
G1 X54 Y23.5 F1943
G1 X51 Y23.5 F1943
G1 X51 Y20.5 F1943
M5
G0 X51.1 Y20.6
M3 S290
G1 X53.9 Y20.6 F1943
G1 X53.9 Y23.4 F1943
G1 X51.1 Y23.4 F1943
G1 X51.1 Y20.6 F1943
M5
G0 X51.2 Y20.7
M3 S290
G1 X53.8 Y20.7 F1943
G1 X53.8 Y23.3 F1943
G1 X51.2 Y23.3 F1943
G1 X51.2 Y20.7 F1943
M5
G0 X51.3 Y20.8
M3 S290
G1 X53.7 Y20.8 F1943
G1 X53.7 Y23.2 F1943
G1 X51.3 Y23.2 F1943
G1 X51.3 Y20.8 F1943
M5
G0 X51.4 Y20.9
M3 S290
G1 X53.6 Y20.9 F1943
G1 X53.6 Y23.1 F1943
G1 X51.4 Y23.1 F1943
G1 X51.4 Y20.9 F1943
M5
G0 X51.5 Y21
M3 S290
G1 X53.5 Y21 F1943
G1 X53.5 Y23 F1943
G1 X51.5 Y23 F1943
G1 X51.5 Y21 F1943
M5
G0 X51.6 Y21.1
M3 S290
G1 X53.4 Y21.1 F1943
G1 X53.4 Y22.9 F1943
G1 X51.6 Y22.9 F1943
G1 X51.6 Y21.1 F1943
M5
G0 X51.7 Y21.2
M3 S290
G1 X53.3 Y21.2 F1943
G1 X53.3 Y22.8 F1943
G1 X51.7 Y22.8 F1943
G1 X51.7 Y21.2 F1943
M5
G0 X51.8 Y21.3
M3 S290
G1 X53.2 Y21.3 F1943
G1 X53.2 Y22.7 F1943
G1 X51.8 Y22.7 F1943
G1 X51.8 Y21.3 F1943
M5
G0 X51.9 Y21.4
M3 S290
G1 X53.1 Y21.4 F1943
G1 X53.1 Y22.6 F1943
G1 X51.9 Y22.6 F1943
G1 X51.9 Y21.4 F1943
M5
G0 X52 Y21.5
M3 S290
G1 X53 Y21.5 F1943
G1 X53 Y22.5 F1943
G1 X52 Y22.5 F1943
G1 X52 Y21.5 F1943
M5
G0 X52.1 Y21.6
M3 S290
G1 X52.9 Y21.6 F1943
G1 X52.9 Y22.4 F1943
G1 X52.1 Y22.4 F1943
G1 X52.1 Y21.6 F1943
M5
G0 X52.2 Y21.7
M3 S290
G1 X52.8 Y21.7 F1943
G1 X52.8 Y22.3 F1943
G1 X52.2 Y22.3 F1943
G1 X52.2 Y21.7 F1943
M5
G0 X52.3 Y21.8
M3 S290
G1 X52.7 Y21.8 F1943
G1 X52.7 Y22.2 F1943
G1 X52.3 Y22.2 F1943
G1 X52.3 Y21.8 F1943
M5
G0 X52.4 Y21.9
M3 S290
G1 X52.6 Y21.9 F1943
G1 X52.6 Y22.1 F1943
G1 X52.4 Y22.1 F1943
G1 X52.4 Y21.9 F1943
M5
; Tile row=2 col=5 speed=1943 power=31
G0 X58.5 Y18
M3 S310
G1 X66.5 Y18 F1943
G1 X66.5 Y26 F1943
G1 X58.5 Y26 F1943
G1 X58.5 Y18 F1943
M5
G0 X58.6 Y18.1
M3 S310
G1 X66.4 Y18.1 F1943
G1 X66.4 Y25.9 F1943
G1 X58.6 Y25.9 F1943
G1 X58.6 Y18.1 F1943
M5
G0 X58.7 Y18.2
M3 S310
G1 X66.3 Y18.2 F1943
G1 X66.3 Y25.8 F1943
G1 X58.7 Y25.8 F1943
G1 X58.7 Y18.2 F1943
M5
G0 X58.8 Y18.3
M3 S310
G1 X66.2 Y18.3 F1943
G1 X66.2 Y25.7 F1943
G1 X58.8 Y25.7 F1943
G1 X58.8 Y18.3 F1943
M5
G0 X58.9 Y18.4
M3 S310
G1 X66.1 Y18.4 F1943
G1 X66.1 Y25.6 F1943
G1 X58.9 Y25.6 F1943
G1 X58.9 Y18.4 F1943
M5
G0 X59 Y18.5
M3 S310
G1 X66 Y18.5 F1943
G1 X66 Y25.5 F1943
G1 X59 Y25.5 F1943
G1 X59 Y18.5 F1943
M5
G0 X59.1 Y18.6
M3 S310
G1 X65.9 Y18.6 F1943
G1 X65.9 Y25.4 F1943
G1 X59.1 Y25.4 F1943
G1 X59.1 Y18.6 F1943
M5
G0 X59.2 Y18.7
M3 S310
G1 X65.8 Y18.7 F1943
G1 X65.8 Y25.3 F1943
G1 X59.2 Y25.3 F1943
G1 X59.2 Y18.7 F1943
M5
G0 X59.3 Y18.8
M3 S310
G1 X65.7 Y18.8 F1943
G1 X65.7 Y25.2 F1943
G1 X59.3 Y25.2 F1943
G1 X59.3 Y18.8 F1943
M5
G0 X59.4 Y18.9
M3 S310
G1 X65.6 Y18.9 F1943
G1 X65.6 Y25.1 F1943
G1 X59.4 Y25.1 F1943
G1 X59.4 Y18.9 F1943
M5
G0 X59.5 Y19
M3 S310
G1 X65.5 Y19 F1943
G1 X65.5 Y25 F1943
G1 X59.5 Y25 F1943
G1 X59.5 Y19 F1943
M5
G0 X59.6 Y19.1
M3 S310
G1 X65.4 Y19.1 F1943
G1 X65.4 Y24.9 F1943
G1 X59.6 Y24.9 F1943
G1 X59.6 Y19.1 F1943
M5
G0 X59.7 Y19.2
M3 S310
G1 X65.3 Y19.2 F1943
G1 X65.3 Y24.8 F1943
G1 X59.7 Y24.8 F1943
G1 X59.7 Y19.2 F1943
M5
G0 X59.8 Y19.3
M3 S310
G1 X65.2 Y19.3 F1943
G1 X65.2 Y24.7 F1943
G1 X59.8 Y24.7 F1943
G1 X59.8 Y19.3 F1943
M5
G0 X59.9 Y19.4
M3 S310
G1 X65.1 Y19.4 F1943
G1 X65.1 Y24.6 F1943
G1 X59.9 Y24.6 F1943
G1 X59.9 Y19.4 F1943
M5
G0 X60 Y19.5
M3 S310
G1 X65 Y19.5 F1943
G1 X65 Y24.5 F1943
G1 X60 Y24.5 F1943
G1 X60 Y19.5 F1943
M5
G0 X60.1 Y19.6
M3 S310
G1 X64.9 Y19.6 F1943
G1 X64.9 Y24.4 F1943
G1 X60.1 Y24.4 F1943
G1 X60.1 Y19.6 F1943
M5
G0 X60.2 Y19.7
M3 S310
G1 X64.8 Y19.7 F1943
G1 X64.8 Y24.3 F1943
G1 X60.2 Y24.3 F1943
G1 X60.2 Y19.7 F1943
M5
G0 X60.3 Y19.8
M3 S310
G1 X64.7 Y19.8 F1943
G1 X64.7 Y24.2 F1943
G1 X60.3 Y24.2 F1943
G1 X60.3 Y19.8 F1943
M5
G0 X60.4 Y19.9
M3 S310
G1 X64.6 Y19.9 F1943
G1 X64.6 Y24.1 F1943
G1 X60.4 Y24.1 F1943
G1 X60.4 Y19.9 F1943
M5
G0 X60.5 Y20
M3 S310
G1 X64.5 Y20 F1943
G1 X64.5 Y24 F1943
G1 X60.5 Y24 F1943
G1 X60.5 Y20 F1943
M5
G0 X60.6 Y20.1
M3 S310
G1 X64.4 Y20.1 F1943
G1 X64.4 Y23.9 F1943
G1 X60.6 Y23.9 F1943
G1 X60.6 Y20.1 F1943
M5
G0 X60.7 Y20.2
M3 S310
G1 X64.3 Y20.2 F1943
G1 X64.3 Y23.8 F1943
G1 X60.7 Y23.8 F1943
G1 X60.7 Y20.2 F1943
M5
G0 X60.8 Y20.3
M3 S310
G1 X64.2 Y20.3 F1943
G1 X64.2 Y23.7 F1943
G1 X60.8 Y23.7 F1943
G1 X60.8 Y20.3 F1943
M5
G0 X60.9 Y20.4
M3 S310
G1 X64.1 Y20.4 F1943
G1 X64.1 Y23.6 F1943
G1 X60.9 Y23.6 F1943
G1 X60.9 Y20.4 F1943
M5
G0 X61 Y20.5
M3 S310
G1 X64 Y20.5 F1943
G1 X64 Y23.5 F1943
G1 X61 Y23.5 F1943
G1 X61 Y20.5 F1943
M5
G0 X61.1 Y20.6
M3 S310
G1 X63.9 Y20.6 F1943
G1 X63.9 Y23.4 F1943
G1 X61.1 Y23.4 F1943
G1 X61.1 Y20.6 F1943
M5
G0 X61.2 Y20.7
M3 S310
G1 X63.8 Y20.7 F1943
G1 X63.8 Y23.3 F1943
G1 X61.2 Y23.3 F1943
G1 X61.2 Y20.7 F1943
M5
G0 X61.3 Y20.8
M3 S310
G1 X63.7 Y20.8 F1943
G1 X63.7 Y23.2 F1943
G1 X61.3 Y23.2 F1943
G1 X61.3 Y20.8 F1943
M5
G0 X61.4 Y20.9
M3 S310
G1 X63.6 Y20.9 F1943
G1 X63.6 Y23.1 F1943
G1 X61.4 Y23.1 F1943
G1 X61.4 Y20.9 F1943
M5
G0 X61.5 Y21
M3 S310
G1 X63.5 Y21 F1943
G1 X63.5 Y23 F1943
G1 X61.5 Y23 F1943
G1 X61.5 Y21 F1943
M5
G0 X61.6 Y21.1
M3 S310
G1 X63.4 Y21.1 F1943
G1 X63.4 Y22.9 F1943
G1 X61.6 Y22.9 F1943
G1 X61.6 Y21.1 F1943
M5
G0 X61.7 Y21.2
M3 S310
G1 X63.3 Y21.2 F1943
G1 X63.3 Y22.8 F1943
G1 X61.7 Y22.8 F1943
G1 X61.7 Y21.2 F1943
M5
G0 X61.8 Y21.3
M3 S310
G1 X63.2 Y21.3 F1943
G1 X63.2 Y22.7 F1943
G1 X61.8 Y22.7 F1943
G1 X61.8 Y21.3 F1943
M5
G0 X61.9 Y21.4
M3 S310
G1 X63.1 Y21.4 F1943
G1 X63.1 Y22.6 F1943
G1 X61.9 Y22.6 F1943
G1 X61.9 Y21.4 F1943
M5
G0 X62 Y21.5
M3 S310
G1 X63 Y21.5 F1943
G1 X63 Y22.5 F1943
G1 X62 Y22.5 F1943
G1 X62 Y21.5 F1943
M5
G0 X62.1 Y21.6
M3 S310
G1 X62.9 Y21.6 F1943
G1 X62.9 Y22.4 F1943
G1 X62.1 Y22.4 F1943
G1 X62.1 Y21.6 F1943
M5
G0 X62.2 Y21.7
M3 S310
G1 X62.8 Y21.7 F1943
G1 X62.8 Y22.3 F1943
G1 X62.2 Y22.3 F1943
G1 X62.2 Y21.7 F1943
M5
G0 X62.3 Y21.8
M3 S310
G1 X62.7 Y21.8 F1943
G1 X62.7 Y22.2 F1943
G1 X62.3 Y22.2 F1943
G1 X62.3 Y21.8 F1943
M5
G0 X62.4 Y21.9
M3 S310
G1 X62.6 Y21.9 F1943
G1 X62.6 Y22.1 F1943
G1 X62.4 Y22.1 F1943
G1 X62.4 Y21.9 F1943
M5
; Tile row=2 col=6 speed=1943 power=34
G0 X68.5 Y18
M3 S340
G1 X76.5 Y18 F1943
G1 X76.5 Y26 F1943
G1 X68.5 Y26 F1943
G1 X68.5 Y18 F1943
M5
G0 X68.6 Y18.1
M3 S340
G1 X76.4 Y18.1 F1943
G1 X76.4 Y25.9 F1943
G1 X68.6 Y25.9 F1943
G1 X68.6 Y18.1 F1943
M5
G0 X68.7 Y18.2
M3 S340
G1 X76.3 Y18.2 F1943
G1 X76.3 Y25.8 F1943
G1 X68.7 Y25.8 F1943
G1 X68.7 Y18.2 F1943
M5
G0 X68.8 Y18.3
M3 S340
G1 X76.2 Y18.3 F1943
G1 X76.2 Y25.7 F1943
G1 X68.8 Y25.7 F1943
G1 X68.8 Y18.3 F1943
M5
G0 X68.9 Y18.4
M3 S340
G1 X76.1 Y18.4 F1943
G1 X76.1 Y25.6 F1943
G1 X68.9 Y25.6 F1943
G1 X68.9 Y18.4 F1943
M5
G0 X69 Y18.5
M3 S340
G1 X76 Y18.5 F1943
G1 X76 Y25.5 F1943
G1 X69 Y25.5 F1943
G1 X69 Y18.5 F1943
M5
G0 X69.1 Y18.6
M3 S340
G1 X75.9 Y18.6 F1943
G1 X75.9 Y25.4 F1943
G1 X69.1 Y25.4 F1943
G1 X69.1 Y18.6 F1943
M5
G0 X69.2 Y18.7
M3 S340
G1 X75.8 Y18.7 F1943
G1 X75.8 Y25.3 F1943
G1 X69.2 Y25.3 F1943
G1 X69.2 Y18.7 F1943
M5
G0 X69.3 Y18.8
M3 S340
G1 X75.7 Y18.8 F1943
G1 X75.7 Y25.2 F1943
G1 X69.3 Y25.2 F1943
G1 X69.3 Y18.8 F1943
M5
G0 X69.4 Y18.9
M3 S340
G1 X75.6 Y18.9 F1943
G1 X75.6 Y25.1 F1943
G1 X69.4 Y25.1 F1943
G1 X69.4 Y18.9 F1943
M5
G0 X69.5 Y19
M3 S340
G1 X75.5 Y19 F1943
G1 X75.5 Y25 F1943
G1 X69.5 Y25 F1943
G1 X69.5 Y19 F1943
M5
G0 X69.6 Y19.1
M3 S340
G1 X75.4 Y19.1 F1943
G1 X75.4 Y24.9 F1943
G1 X69.6 Y24.9 F1943
G1 X69.6 Y19.1 F1943
M5
G0 X69.7 Y19.2
M3 S340
G1 X75.3 Y19.2 F1943
G1 X75.3 Y24.8 F1943
G1 X69.7 Y24.8 F1943
G1 X69.7 Y19.2 F1943
M5
G0 X69.8 Y19.3
M3 S340
G1 X75.2 Y19.3 F1943
G1 X75.2 Y24.7 F1943
G1 X69.8 Y24.7 F1943
G1 X69.8 Y19.3 F1943
M5
G0 X69.9 Y19.4
M3 S340
G1 X75.1 Y19.4 F1943
G1 X75.1 Y24.6 F1943
G1 X69.9 Y24.6 F1943
G1 X69.9 Y19.4 F1943
M5
G0 X70 Y19.5
M3 S340
G1 X75 Y19.5 F1943
G1 X75 Y24.5 F1943
G1 X70 Y24.5 F1943
G1 X70 Y19.5 F1943
M5
G0 X70.1 Y19.6
M3 S340
G1 X74.9 Y19.6 F1943
G1 X74.9 Y24.4 F1943
G1 X70.1 Y24.4 F1943
G1 X70.1 Y19.6 F1943
M5
G0 X70.2 Y19.7
M3 S340
G1 X74.8 Y19.7 F1943
G1 X74.8 Y24.3 F1943
G1 X70.2 Y24.3 F1943
G1 X70.2 Y19.7 F1943
M5
G0 X70.3 Y19.8
M3 S340
G1 X74.7 Y19.8 F1943
G1 X74.7 Y24.2 F1943
G1 X70.3 Y24.2 F1943
G1 X70.3 Y19.8 F1943
M5
G0 X70.4 Y19.9
M3 S340
G1 X74.6 Y19.9 F1943
G1 X74.6 Y24.1 F1943
G1 X70.4 Y24.1 F1943
G1 X70.4 Y19.9 F1943
M5
G0 X70.5 Y20
M3 S340
G1 X74.5 Y20 F1943
G1 X74.5 Y24 F1943
G1 X70.5 Y24 F1943
G1 X70.5 Y20 F1943
M5
G0 X70.6 Y20.1
M3 S340
G1 X74.4 Y20.1 F1943
G1 X74.4 Y23.9 F1943
G1 X70.6 Y23.9 F1943
G1 X70.6 Y20.1 F1943
M5
G0 X70.7 Y20.2
M3 S340
G1 X74.3 Y20.2 F1943
G1 X74.3 Y23.8 F1943
G1 X70.7 Y23.8 F1943
G1 X70.7 Y20.2 F1943
M5
G0 X70.8 Y20.3
M3 S340
G1 X74.2 Y20.3 F1943
G1 X74.2 Y23.7 F1943
G1 X70.8 Y23.7 F1943
G1 X70.8 Y20.3 F1943
M5
G0 X70.9 Y20.4
M3 S340
G1 X74.1 Y20.4 F1943
G1 X74.1 Y23.6 F1943
G1 X70.9 Y23.6 F1943
G1 X70.9 Y20.4 F1943
M5
G0 X71 Y20.5
M3 S340
G1 X74 Y20.5 F1943
G1 X74 Y23.5 F1943
G1 X71 Y23.5 F1943
G1 X71 Y20.5 F1943
M5
G0 X71.1 Y20.6
M3 S340
G1 X73.9 Y20.6 F1943
G1 X73.9 Y23.4 F1943
G1 X71.1 Y23.4 F1943
G1 X71.1 Y20.6 F1943
M5
G0 X71.2 Y20.7
M3 S340
G1 X73.8 Y20.7 F1943
G1 X73.8 Y23.3 F1943
G1 X71.2 Y23.3 F1943
G1 X71.2 Y20.7 F1943
M5
G0 X71.3 Y20.8
M3 S340
G1 X73.7 Y20.8 F1943
G1 X73.7 Y23.2 F1943
G1 X71.3 Y23.2 F1943
G1 X71.3 Y20.8 F1943
M5
G0 X71.4 Y20.9
M3 S340
G1 X73.6 Y20.9 F1943
G1 X73.6 Y23.1 F1943
G1 X71.4 Y23.1 F1943
G1 X71.4 Y20.9 F1943
M5
G0 X71.5 Y21
M3 S340
G1 X73.5 Y21 F1943
G1 X73.5 Y23 F1943
G1 X71.5 Y23 F1943
G1 X71.5 Y21 F1943
M5
G0 X71.6 Y21.1
M3 S340
G1 X73.4 Y21.1 F1943
G1 X73.4 Y22.9 F1943
G1 X71.6 Y22.9 F1943
G1 X71.6 Y21.1 F1943
M5
G0 X71.7 Y21.2
M3 S340
G1 X73.3 Y21.2 F1943
G1 X73.3 Y22.8 F1943
G1 X71.7 Y22.8 F1943
G1 X71.7 Y21.2 F1943
M5
G0 X71.8 Y21.3
M3 S340
G1 X73.2 Y21.3 F1943
G1 X73.2 Y22.7 F1943
G1 X71.8 Y22.7 F1943
G1 X71.8 Y21.3 F1943
M5
G0 X71.9 Y21.4
M3 S340
G1 X73.1 Y21.4 F1943
G1 X73.1 Y22.6 F1943
G1 X71.9 Y22.6 F1943
G1 X71.9 Y21.4 F1943
M5
G0 X72 Y21.5
M3 S340
G1 X73 Y21.5 F1943
G1 X73 Y22.5 F1943
G1 X72 Y22.5 F1943
G1 X72 Y21.5 F1943
M5
G0 X72.1 Y21.6
M3 S340
G1 X72.9 Y21.6 F1943
G1 X72.9 Y22.4 F1943
G1 X72.1 Y22.4 F1943
G1 X72.1 Y21.6 F1943
M5
G0 X72.2 Y21.7
M3 S340
G1 X72.8 Y21.7 F1943
G1 X72.8 Y22.3 F1943
G1 X72.2 Y22.3 F1943
G1 X72.2 Y21.7 F1943
M5
G0 X72.3 Y21.8
M3 S340
G1 X72.7 Y21.8 F1943
G1 X72.7 Y22.2 F1943
G1 X72.3 Y22.2 F1943
G1 X72.3 Y21.8 F1943
M5
G0 X72.4 Y21.9
M3 S340
G1 X72.6 Y21.9 F1943
G1 X72.6 Y22.1 F1943
G1 X72.4 Y22.1 F1943
G1 X72.4 Y21.9 F1943
M5
; Tile row=2 col=7 speed=1943 power=37
G0 X78.5 Y18
M3 S370
G1 X86.5 Y18 F1943
G1 X86.5 Y26 F1943
G1 X78.5 Y26 F1943
G1 X78.5 Y18 F1943
M5
G0 X78.6 Y18.1
M3 S370
G1 X86.4 Y18.1 F1943
G1 X86.4 Y25.9 F1943
G1 X78.6 Y25.9 F1943
G1 X78.6 Y18.1 F1943
M5
G0 X78.7 Y18.2
M3 S370
G1 X86.3 Y18.2 F1943
G1 X86.3 Y25.8 F1943
G1 X78.7 Y25.8 F1943
G1 X78.7 Y18.2 F1943
M5
G0 X78.8 Y18.3
M3 S370
G1 X86.2 Y18.3 F1943
G1 X86.2 Y25.7 F1943
G1 X78.8 Y25.7 F1943
G1 X78.8 Y18.3 F1943
M5
G0 X78.9 Y18.4
M3 S370
G1 X86.1 Y18.4 F1943
G1 X86.1 Y25.6 F1943
G1 X78.9 Y25.6 F1943
G1 X78.9 Y18.4 F1943
M5
G0 X79 Y18.5
M3 S370
G1 X86 Y18.5 F1943
G1 X86 Y25.5 F1943
G1 X79 Y25.5 F1943
G1 X79 Y18.5 F1943
M5
G0 X79.1 Y18.6
M3 S370
G1 X85.9 Y18.6 F1943
G1 X85.9 Y25.4 F1943
G1 X79.1 Y25.4 F1943
G1 X79.1 Y18.6 F1943
M5
G0 X79.2 Y18.7
M3 S370
G1 X85.8 Y18.7 F1943
G1 X85.8 Y25.3 F1943
G1 X79.2 Y25.3 F1943
G1 X79.2 Y18.7 F1943
M5
G0 X79.3 Y18.8
M3 S370
G1 X85.7 Y18.8 F1943
G1 X85.7 Y25.2 F1943
G1 X79.3 Y25.2 F1943
G1 X79.3 Y18.8 F1943
M5
G0 X79.4 Y18.9
M3 S370
G1 X85.6 Y18.9 F1943
G1 X85.6 Y25.1 F1943
G1 X79.4 Y25.1 F1943
G1 X79.4 Y18.9 F1943
M5
G0 X79.5 Y19
M3 S370
G1 X85.5 Y19 F1943
G1 X85.5 Y25 F1943
G1 X79.5 Y25 F1943
G1 X79.5 Y19 F1943
M5
G0 X79.6 Y19.1
M3 S370
G1 X85.4 Y19.1 F1943
G1 X85.4 Y24.9 F1943
G1 X79.6 Y24.9 F1943
G1 X79.6 Y19.1 F1943
M5
G0 X79.7 Y19.2
M3 S370
G1 X85.3 Y19.2 F1943
G1 X85.3 Y24.8 F1943
G1 X79.7 Y24.8 F1943
G1 X79.7 Y19.2 F1943
M5
G0 X79.8 Y19.3
M3 S370
G1 X85.2 Y19.3 F1943
G1 X85.2 Y24.7 F1943
G1 X79.8 Y24.7 F1943
G1 X79.8 Y19.3 F1943
M5
G0 X79.9 Y19.4
M3 S370
G1 X85.1 Y19.4 F1943
G1 X85.1 Y24.6 F1943
G1 X79.9 Y24.6 F1943
G1 X79.9 Y19.4 F1943
M5
G0 X80 Y19.5
M3 S370
G1 X85 Y19.5 F1943
G1 X85 Y24.5 F1943
G1 X80 Y24.5 F1943
G1 X80 Y19.5 F1943
M5
G0 X80.1 Y19.6
M3 S370
G1 X84.9 Y19.6 F1943
G1 X84.9 Y24.4 F1943
G1 X80.1 Y24.4 F1943
G1 X80.1 Y19.6 F1943
M5
G0 X80.2 Y19.7
M3 S370
G1 X84.8 Y19.7 F1943
G1 X84.8 Y24.3 F1943
G1 X80.2 Y24.3 F1943
G1 X80.2 Y19.7 F1943
M5
G0 X80.3 Y19.8
M3 S370
G1 X84.7 Y19.8 F1943
G1 X84.7 Y24.2 F1943
G1 X80.3 Y24.2 F1943
G1 X80.3 Y19.8 F1943
M5
G0 X80.4 Y19.9
M3 S370
G1 X84.6 Y19.9 F1943
G1 X84.6 Y24.1 F1943
G1 X80.4 Y24.1 F1943
G1 X80.4 Y19.9 F1943
M5
G0 X80.5 Y20
M3 S370
G1 X84.5 Y20 F1943
G1 X84.5 Y24 F1943
G1 X80.5 Y24 F1943
G1 X80.5 Y20 F1943
M5
G0 X80.6 Y20.1
M3 S370
G1 X84.4 Y20.1 F1943
G1 X84.4 Y23.9 F1943
G1 X80.6 Y23.9 F1943
G1 X80.6 Y20.1 F1943
M5
G0 X80.7 Y20.2
M3 S370
G1 X84.3 Y20.2 F1943
G1 X84.3 Y23.8 F1943
G1 X80.7 Y23.8 F1943
G1 X80.7 Y20.2 F1943
M5
G0 X80.8 Y20.3
M3 S370
G1 X84.2 Y20.3 F1943
G1 X84.2 Y23.7 F1943
G1 X80.8 Y23.7 F1943
G1 X80.8 Y20.3 F1943
M5
G0 X80.9 Y20.4
M3 S370
G1 X84.1 Y20.4 F1943
G1 X84.1 Y23.6 F1943
G1 X80.9 Y23.6 F1943
G1 X80.9 Y20.4 F1943
M5
G0 X81 Y20.5
M3 S370
G1 X84 Y20.5 F1943
G1 X84 Y23.5 F1943
G1 X81 Y23.5 F1943
G1 X81 Y20.5 F1943
M5
G0 X81.1 Y20.6
M3 S370
G1 X83.9 Y20.6 F1943
G1 X83.9 Y23.4 F1943
G1 X81.1 Y23.4 F1943
G1 X81.1 Y20.6 F1943
M5
G0 X81.2 Y20.7
M3 S370
G1 X83.8 Y20.7 F1943
G1 X83.8 Y23.3 F1943
G1 X81.2 Y23.3 F1943
G1 X81.2 Y20.7 F1943
M5
G0 X81.3 Y20.8
M3 S370
G1 X83.7 Y20.8 F1943
G1 X83.7 Y23.2 F1943
G1 X81.3 Y23.2 F1943
G1 X81.3 Y20.8 F1943
M5
G0 X81.4 Y20.9
M3 S370
G1 X83.6 Y20.9 F1943
G1 X83.6 Y23.1 F1943
G1 X81.4 Y23.1 F1943
G1 X81.4 Y20.9 F1943
M5
G0 X81.5 Y21
M3 S370
G1 X83.5 Y21 F1943
G1 X83.5 Y23 F1943
G1 X81.5 Y23 F1943
G1 X81.5 Y21 F1943
M5
G0 X81.6 Y21.1
M3 S370
G1 X83.4 Y21.1 F1943
G1 X83.4 Y22.9 F1943
G1 X81.6 Y22.9 F1943
G1 X81.6 Y21.1 F1943
M5
G0 X81.7 Y21.2
M3 S370
G1 X83.3 Y21.2 F1943
G1 X83.3 Y22.8 F1943
G1 X81.7 Y22.8 F1943
G1 X81.7 Y21.2 F1943
M5
G0 X81.8 Y21.3
M3 S370
G1 X83.2 Y21.3 F1943
G1 X83.2 Y22.7 F1943
G1 X81.8 Y22.7 F1943
G1 X81.8 Y21.3 F1943
M5
G0 X81.9 Y21.4
M3 S370
G1 X83.1 Y21.4 F1943
G1 X83.1 Y22.6 F1943
G1 X81.9 Y22.6 F1943
G1 X81.9 Y21.4 F1943
M5
G0 X82 Y21.5
M3 S370
G1 X83 Y21.5 F1943
G1 X83 Y22.5 F1943
G1 X82 Y22.5 F1943
G1 X82 Y21.5 F1943
M5
G0 X82.1 Y21.6
M3 S370
G1 X82.9 Y21.6 F1943
G1 X82.9 Y22.4 F1943
G1 X82.1 Y22.4 F1943
G1 X82.1 Y21.6 F1943
M5
G0 X82.2 Y21.7
M3 S370
G1 X82.8 Y21.7 F1943
G1 X82.8 Y22.3 F1943
G1 X82.2 Y22.3 F1943
G1 X82.2 Y21.7 F1943
M5
G0 X82.3 Y21.8
M3 S370
G1 X82.7 Y21.8 F1943
G1 X82.7 Y22.2 F1943
G1 X82.3 Y22.2 F1943
G1 X82.3 Y21.8 F1943
M5
G0 X82.4 Y21.9
M3 S370
G1 X82.6 Y21.9 F1943
G1 X82.6 Y22.1 F1943
G1 X82.4 Y22.1 F1943
G1 X82.4 Y21.9 F1943
M5
; Tile row=2 col=8 speed=1943 power=40
G0 X88.5 Y18
M3 S400
G1 X96.5 Y18 F1943
G1 X96.5 Y26 F1943
G1 X88.5 Y26 F1943
G1 X88.5 Y18 F1943
M5
G0 X88.6 Y18.1
M3 S400
G1 X96.4 Y18.1 F1943
G1 X96.4 Y25.9 F1943
G1 X88.6 Y25.9 F1943
G1 X88.6 Y18.1 F1943
M5
G0 X88.7 Y18.2
M3 S400
G1 X96.3 Y18.2 F1943
G1 X96.3 Y25.8 F1943
G1 X88.7 Y25.8 F1943
G1 X88.7 Y18.2 F1943
M5
G0 X88.8 Y18.3
M3 S400
G1 X96.2 Y18.3 F1943
G1 X96.2 Y25.7 F1943
G1 X88.8 Y25.7 F1943
G1 X88.8 Y18.3 F1943
M5
G0 X88.9 Y18.4
M3 S400
G1 X96.1 Y18.4 F1943
G1 X96.1 Y25.6 F1943
G1 X88.9 Y25.6 F1943
G1 X88.9 Y18.4 F1943
M5
G0 X89 Y18.5
M3 S400
G1 X96 Y18.5 F1943
G1 X96 Y25.5 F1943
G1 X89 Y25.5 F1943
G1 X89 Y18.5 F1943
M5
G0 X89.1 Y18.6
M3 S400
G1 X95.9 Y18.6 F1943
G1 X95.9 Y25.4 F1943
G1 X89.1 Y25.4 F1943
G1 X89.1 Y18.6 F1943
M5
G0 X89.2 Y18.7
M3 S400
G1 X95.8 Y18.7 F1943
G1 X95.8 Y25.3 F1943
G1 X89.2 Y25.3 F1943
G1 X89.2 Y18.7 F1943
M5
G0 X89.3 Y18.8
M3 S400
G1 X95.7 Y18.8 F1943
G1 X95.7 Y25.2 F1943
G1 X89.3 Y25.2 F1943
G1 X89.3 Y18.8 F1943
M5
G0 X89.4 Y18.9
M3 S400
G1 X95.6 Y18.9 F1943
G1 X95.6 Y25.1 F1943
G1 X89.4 Y25.1 F1943
G1 X89.4 Y18.9 F1943
M5
G0 X89.5 Y19
M3 S400
G1 X95.5 Y19 F1943
G1 X95.5 Y25 F1943
G1 X89.5 Y25 F1943
G1 X89.5 Y19 F1943
M5
G0 X89.6 Y19.1
M3 S400
G1 X95.4 Y19.1 F1943
G1 X95.4 Y24.9 F1943
G1 X89.6 Y24.9 F1943
G1 X89.6 Y19.1 F1943
M5
G0 X89.7 Y19.2
M3 S400
G1 X95.3 Y19.2 F1943
G1 X95.3 Y24.8 F1943
G1 X89.7 Y24.8 F1943
G1 X89.7 Y19.2 F1943
M5
G0 X89.8 Y19.3
M3 S400
G1 X95.2 Y19.3 F1943
G1 X95.2 Y24.7 F1943
G1 X89.8 Y24.7 F1943
G1 X89.8 Y19.3 F1943
M5
G0 X89.9 Y19.4
M3 S400
G1 X95.1 Y19.4 F1943
G1 X95.1 Y24.6 F1943
G1 X89.9 Y24.6 F1943
G1 X89.9 Y19.4 F1943
M5
G0 X90 Y19.5
M3 S400
G1 X95 Y19.5 F1943
G1 X95 Y24.5 F1943
G1 X90 Y24.5 F1943
G1 X90 Y19.5 F1943
M5
G0 X90.1 Y19.6
M3 S400
G1 X94.9 Y19.6 F1943
G1 X94.9 Y24.4 F1943
G1 X90.1 Y24.4 F1943
G1 X90.1 Y19.6 F1943
M5
G0 X90.2 Y19.7
M3 S400
G1 X94.8 Y19.7 F1943
G1 X94.8 Y24.3 F1943
G1 X90.2 Y24.3 F1943
G1 X90.2 Y19.7 F1943
M5
G0 X90.3 Y19.8
M3 S400
G1 X94.7 Y19.8 F1943
G1 X94.7 Y24.2 F1943
G1 X90.3 Y24.2 F1943
G1 X90.3 Y19.8 F1943
M5
G0 X90.4 Y19.9
M3 S400
G1 X94.6 Y19.9 F1943
G1 X94.6 Y24.1 F1943
G1 X90.4 Y24.1 F1943
G1 X90.4 Y19.9 F1943
M5
G0 X90.5 Y20
M3 S400
G1 X94.5 Y20 F1943
G1 X94.5 Y24 F1943
G1 X90.5 Y24 F1943
G1 X90.5 Y20 F1943
M5
G0 X90.6 Y20.1
M3 S400
G1 X94.4 Y20.1 F1943
G1 X94.4 Y23.9 F1943
G1 X90.6 Y23.9 F1943
G1 X90.6 Y20.1 F1943
M5
G0 X90.7 Y20.2
M3 S400
G1 X94.3 Y20.2 F1943
G1 X94.3 Y23.8 F1943
G1 X90.7 Y23.8 F1943
G1 X90.7 Y20.2 F1943
M5
G0 X90.8 Y20.3
M3 S400
G1 X94.2 Y20.3 F1943
G1 X94.2 Y23.7 F1943
G1 X90.8 Y23.7 F1943
G1 X90.8 Y20.3 F1943
M5
G0 X90.9 Y20.4
M3 S400
G1 X94.1 Y20.4 F1943
G1 X94.1 Y23.6 F1943
G1 X90.9 Y23.6 F1943
G1 X90.9 Y20.4 F1943
M5
G0 X91 Y20.5
M3 S400
G1 X94 Y20.5 F1943
G1 X94 Y23.5 F1943
G1 X91 Y23.5 F1943
G1 X91 Y20.5 F1943
M5
G0 X91.1 Y20.6
M3 S400
G1 X93.9 Y20.6 F1943
G1 X93.9 Y23.4 F1943
G1 X91.1 Y23.4 F1943
G1 X91.1 Y20.6 F1943
M5
G0 X91.2 Y20.7
M3 S400
G1 X93.8 Y20.7 F1943
G1 X93.8 Y23.3 F1943
G1 X91.2 Y23.3 F1943
G1 X91.2 Y20.7 F1943
M5
G0 X91.3 Y20.8
M3 S400
G1 X93.7 Y20.8 F1943
G1 X93.7 Y23.2 F1943
G1 X91.3 Y23.2 F1943
G1 X91.3 Y20.8 F1943
M5
G0 X91.4 Y20.9
M3 S400
G1 X93.6 Y20.9 F1943
G1 X93.6 Y23.1 F1943
G1 X91.4 Y23.1 F1943
G1 X91.4 Y20.9 F1943
M5
G0 X91.5 Y21
M3 S400
G1 X93.5 Y21 F1943
G1 X93.5 Y23 F1943
G1 X91.5 Y23 F1943
G1 X91.5 Y21 F1943
M5
G0 X91.6 Y21.1
M3 S400
G1 X93.4 Y21.1 F1943
G1 X93.4 Y22.9 F1943
G1 X91.6 Y22.9 F1943
G1 X91.6 Y21.1 F1943
M5
G0 X91.7 Y21.2
M3 S400
G1 X93.3 Y21.2 F1943
G1 X93.3 Y22.8 F1943
G1 X91.7 Y22.8 F1943
G1 X91.7 Y21.2 F1943
M5
G0 X91.8 Y21.3
M3 S400
G1 X93.2 Y21.3 F1943
G1 X93.2 Y22.7 F1943
G1 X91.8 Y22.7 F1943
G1 X91.8 Y21.3 F1943
M5
G0 X91.9 Y21.4
M3 S400
G1 X93.1 Y21.4 F1943
G1 X93.1 Y22.6 F1943
G1 X91.9 Y22.6 F1943
G1 X91.9 Y21.4 F1943
M5
G0 X92 Y21.5
M3 S400
G1 X93 Y21.5 F1943
G1 X93 Y22.5 F1943
G1 X92 Y22.5 F1943
G1 X92 Y21.5 F1943
M5
G0 X92.1 Y21.6
M3 S400
G1 X92.9 Y21.6 F1943
G1 X92.9 Y22.4 F1943
G1 X92.1 Y22.4 F1943
G1 X92.1 Y21.6 F1943
M5
G0 X92.2 Y21.7
M3 S400
G1 X92.8 Y21.7 F1943
G1 X92.8 Y22.3 F1943
G1 X92.2 Y22.3 F1943
G1 X92.2 Y21.7 F1943
M5
G0 X92.3 Y21.8
M3 S400
G1 X92.7 Y21.8 F1943
G1 X92.7 Y22.2 F1943
G1 X92.3 Y22.2 F1943
G1 X92.3 Y21.8 F1943
M5
G0 X92.4 Y21.9
M3 S400
G1 X92.6 Y21.9 F1943
G1 X92.6 Y22.1 F1943
G1 X92.4 Y22.1 F1943
G1 X92.4 Y21.9 F1943
M5
; Tile row=3 col=1 speed=2086 power=20
G0 X18.5 Y28
M3 S200
G1 X26.5 Y28 F2086
G1 X26.5 Y36 F2086
G1 X18.5 Y36 F2086
G1 X18.5 Y28 F2086
M5
G0 X18.6 Y28.1
M3 S200
G1 X26.4 Y28.1 F2086
G1 X26.4 Y35.9 F2086
G1 X18.6 Y35.9 F2086
G1 X18.6 Y28.1 F2086
M5
G0 X18.7 Y28.2
M3 S200
G1 X26.3 Y28.2 F2086
G1 X26.3 Y35.8 F2086
G1 X18.7 Y35.8 F2086
G1 X18.7 Y28.2 F2086
M5
G0 X18.8 Y28.3
M3 S200
G1 X26.2 Y28.3 F2086
G1 X26.2 Y35.7 F2086
G1 X18.8 Y35.7 F2086
G1 X18.8 Y28.3 F2086
M5
G0 X18.9 Y28.4
M3 S200
G1 X26.1 Y28.4 F2086
G1 X26.1 Y35.6 F2086
G1 X18.9 Y35.6 F2086
G1 X18.9 Y28.4 F2086
M5
G0 X19 Y28.5
M3 S200
G1 X26 Y28.5 F2086
G1 X26 Y35.5 F2086
G1 X19 Y35.5 F2086
G1 X19 Y28.5 F2086
M5
G0 X19.1 Y28.6
M3 S200
G1 X25.9 Y28.6 F2086
G1 X25.9 Y35.4 F2086
G1 X19.1 Y35.4 F2086
G1 X19.1 Y28.6 F2086
M5
G0 X19.2 Y28.7
M3 S200
G1 X25.8 Y28.7 F2086
G1 X25.8 Y35.3 F2086
G1 X19.2 Y35.3 F2086
G1 X19.2 Y28.7 F2086
M5
G0 X19.3 Y28.8
M3 S200
G1 X25.7 Y28.8 F2086
G1 X25.7 Y35.2 F2086
G1 X19.3 Y35.2 F2086
G1 X19.3 Y28.8 F2086
M5
G0 X19.4 Y28.9
M3 S200
G1 X25.6 Y28.9 F2086
G1 X25.6 Y35.1 F2086
G1 X19.4 Y35.1 F2086
G1 X19.4 Y28.9 F2086
M5
G0 X19.5 Y29
M3 S200
G1 X25.5 Y29 F2086
G1 X25.5 Y35 F2086
G1 X19.5 Y35 F2086
G1 X19.5 Y29 F2086
M5
G0 X19.6 Y29.1
M3 S200
G1 X25.4 Y29.1 F2086
G1 X25.4 Y34.9 F2086
G1 X19.6 Y34.9 F2086
G1 X19.6 Y29.1 F2086
M5
G0 X19.7 Y29.2
M3 S200
G1 X25.3 Y29.2 F2086
G1 X25.3 Y34.8 F2086
G1 X19.7 Y34.8 F2086
G1 X19.7 Y29.2 F2086
M5
G0 X19.8 Y29.3
M3 S200
G1 X25.2 Y29.3 F2086
G1 X25.2 Y34.7 F2086
G1 X19.8 Y34.7 F2086
G1 X19.8 Y29.3 F2086
M5
G0 X19.9 Y29.4
M3 S200
G1 X25.1 Y29.4 F2086
G1 X25.1 Y34.6 F2086
G1 X19.9 Y34.6 F2086
G1 X19.9 Y29.4 F2086
M5
G0 X20 Y29.5
M3 S200
G1 X25 Y29.5 F2086
G1 X25 Y34.5 F2086
G1 X20 Y34.5 F2086
G1 X20 Y29.5 F2086
M5
G0 X20.1 Y29.6
M3 S200
G1 X24.9 Y29.6 F2086
G1 X24.9 Y34.4 F2086
G1 X20.1 Y34.4 F2086
G1 X20.1 Y29.6 F2086
M5
G0 X20.2 Y29.7
M3 S200
G1 X24.8 Y29.7 F2086
G1 X24.8 Y34.3 F2086
G1 X20.2 Y34.3 F2086
G1 X20.2 Y29.7 F2086
M5
G0 X20.3 Y29.8
M3 S200
G1 X24.7 Y29.8 F2086
G1 X24.7 Y34.2 F2086
G1 X20.3 Y34.2 F2086
G1 X20.3 Y29.8 F2086
M5
G0 X20.4 Y29.9
M3 S200
G1 X24.6 Y29.9 F2086
G1 X24.6 Y34.1 F2086
G1 X20.4 Y34.1 F2086
G1 X20.4 Y29.9 F2086
M5
G0 X20.5 Y30
M3 S200
G1 X24.5 Y30 F2086
G1 X24.5 Y34 F2086
G1 X20.5 Y34 F2086
G1 X20.5 Y30 F2086
M5
G0 X20.6 Y30.1
M3 S200
G1 X24.4 Y30.1 F2086
G1 X24.4 Y33.9 F2086
G1 X20.6 Y33.9 F2086
G1 X20.6 Y30.1 F2086
M5
G0 X20.7 Y30.2
M3 S200
G1 X24.3 Y30.2 F2086
G1 X24.3 Y33.8 F2086
G1 X20.7 Y33.8 F2086
G1 X20.7 Y30.2 F2086
M5
G0 X20.8 Y30.3
M3 S200
G1 X24.2 Y30.3 F2086
G1 X24.2 Y33.7 F2086
G1 X20.8 Y33.7 F2086
G1 X20.8 Y30.3 F2086
M5
G0 X20.9 Y30.4
M3 S200
G1 X24.1 Y30.4 F2086
G1 X24.1 Y33.6 F2086
G1 X20.9 Y33.6 F2086
G1 X20.9 Y30.4 F2086
M5
G0 X21 Y30.5
M3 S200
G1 X24 Y30.5 F2086
G1 X24 Y33.5 F2086
G1 X21 Y33.5 F2086
G1 X21 Y30.5 F2086
M5
G0 X21.1 Y30.6
M3 S200
G1 X23.9 Y30.6 F2086
G1 X23.9 Y33.4 F2086
G1 X21.1 Y33.4 F2086
G1 X21.1 Y30.6 F2086
M5
G0 X21.2 Y30.7
M3 S200
G1 X23.8 Y30.7 F2086
G1 X23.8 Y33.3 F2086
G1 X21.2 Y33.3 F2086
G1 X21.2 Y30.7 F2086
M5
G0 X21.3 Y30.8
M3 S200
G1 X23.7 Y30.8 F2086
G1 X23.7 Y33.2 F2086
G1 X21.3 Y33.2 F2086
G1 X21.3 Y30.8 F2086
M5
G0 X21.4 Y30.9
M3 S200
G1 X23.6 Y30.9 F2086
G1 X23.6 Y33.1 F2086
G1 X21.4 Y33.1 F2086
G1 X21.4 Y30.9 F2086
M5
G0 X21.5 Y31
M3 S200
G1 X23.5 Y31 F2086
G1 X23.5 Y33 F2086
G1 X21.5 Y33 F2086
G1 X21.5 Y31 F2086
M5
G0 X21.6 Y31.1
M3 S200
G1 X23.4 Y31.1 F2086
G1 X23.4 Y32.9 F2086
G1 X21.6 Y32.9 F2086
G1 X21.6 Y31.1 F2086
M5
G0 X21.7 Y31.2
M3 S200
G1 X23.3 Y31.2 F2086
G1 X23.3 Y32.8 F2086
G1 X21.7 Y32.8 F2086
G1 X21.7 Y31.2 F2086
M5
G0 X21.8 Y31.3
M3 S200
G1 X23.2 Y31.3 F2086
G1 X23.2 Y32.7 F2086
G1 X21.8 Y32.7 F2086
G1 X21.8 Y31.3 F2086
M5
G0 X21.9 Y31.4
M3 S200
G1 X23.1 Y31.4 F2086
G1 X23.1 Y32.6 F2086
G1 X21.9 Y32.6 F2086
G1 X21.9 Y31.4 F2086
M5
G0 X22 Y31.5
M3 S200
G1 X23 Y31.5 F2086
G1 X23 Y32.5 F2086
G1 X22 Y32.5 F2086
G1 X22 Y31.5 F2086
M5
G0 X22.1 Y31.6
M3 S200
G1 X22.9 Y31.6 F2086
G1 X22.9 Y32.4 F2086
G1 X22.1 Y32.4 F2086
G1 X22.1 Y31.6 F2086
M5
G0 X22.2 Y31.7
M3 S200
G1 X22.8 Y31.7 F2086
G1 X22.8 Y32.3 F2086
G1 X22.2 Y32.3 F2086
G1 X22.2 Y31.7 F2086
M5
G0 X22.3 Y31.8
M3 S200
G1 X22.7 Y31.8 F2086
G1 X22.7 Y32.2 F2086
G1 X22.3 Y32.2 F2086
G1 X22.3 Y31.8 F2086
M5
G0 X22.4 Y31.9
M3 S200
G1 X22.6 Y31.9 F2086
G1 X22.6 Y32.1 F2086
G1 X22.4 Y32.1 F2086
G1 X22.4 Y31.9 F2086
M5
; Tile row=3 col=2 speed=2086 power=23
G0 X28.5 Y28
M3 S230
G1 X36.5 Y28 F2086
G1 X36.5 Y36 F2086
G1 X28.5 Y36 F2086
G1 X28.5 Y28 F2086
M5
G0 X28.6 Y28.1
M3 S230
G1 X36.4 Y28.1 F2086
G1 X36.4 Y35.9 F2086
G1 X28.6 Y35.9 F2086
G1 X28.6 Y28.1 F2086
M5
G0 X28.7 Y28.2
M3 S230
G1 X36.3 Y28.2 F2086
G1 X36.3 Y35.8 F2086
G1 X28.7 Y35.8 F2086
G1 X28.7 Y28.2 F2086
M5
G0 X28.8 Y28.3
M3 S230
G1 X36.2 Y28.3 F2086
G1 X36.2 Y35.7 F2086
G1 X28.8 Y35.7 F2086
G1 X28.8 Y28.3 F2086
M5
G0 X28.9 Y28.4
M3 S230
G1 X36.1 Y28.4 F2086
G1 X36.1 Y35.6 F2086
G1 X28.9 Y35.6 F2086
G1 X28.9 Y28.4 F2086
M5
G0 X29 Y28.5
M3 S230
G1 X36 Y28.5 F2086
G1 X36 Y35.5 F2086
G1 X29 Y35.5 F2086
G1 X29 Y28.5 F2086
M5
G0 X29.1 Y28.6
M3 S230
G1 X35.9 Y28.6 F2086
G1 X35.9 Y35.4 F2086
G1 X29.1 Y35.4 F2086
G1 X29.1 Y28.6 F2086
M5
G0 X29.2 Y28.7
M3 S230
G1 X35.8 Y28.7 F2086
G1 X35.8 Y35.3 F2086
G1 X29.2 Y35.3 F2086
G1 X29.2 Y28.7 F2086
M5
G0 X29.3 Y28.8
M3 S230
G1 X35.7 Y28.8 F2086
G1 X35.7 Y35.2 F2086
G1 X29.3 Y35.2 F2086
G1 X29.3 Y28.8 F2086
M5
G0 X29.4 Y28.9
M3 S230
G1 X35.6 Y28.9 F2086
G1 X35.6 Y35.1 F2086
G1 X29.4 Y35.1 F2086
G1 X29.4 Y28.9 F2086
M5
G0 X29.5 Y29
M3 S230
G1 X35.5 Y29 F2086
G1 X35.5 Y35 F2086
G1 X29.5 Y35 F2086
G1 X29.5 Y29 F2086
M5
G0 X29.6 Y29.1
M3 S230
G1 X35.4 Y29.1 F2086
G1 X35.4 Y34.9 F2086
G1 X29.6 Y34.9 F2086
G1 X29.6 Y29.1 F2086
M5
G0 X29.7 Y29.2
M3 S230
G1 X35.3 Y29.2 F2086
G1 X35.3 Y34.8 F2086
G1 X29.7 Y34.8 F2086
G1 X29.7 Y29.2 F2086
M5
G0 X29.8 Y29.3
M3 S230
G1 X35.2 Y29.3 F2086
G1 X35.2 Y34.7 F2086
G1 X29.8 Y34.7 F2086
G1 X29.8 Y29.3 F2086
M5
G0 X29.9 Y29.4
M3 S230
G1 X35.1 Y29.4 F2086
G1 X35.1 Y34.6 F2086
G1 X29.9 Y34.6 F2086
G1 X29.9 Y29.4 F2086
M5
G0 X30 Y29.5
M3 S230
G1 X35 Y29.5 F2086
G1 X35 Y34.5 F2086
G1 X30 Y34.5 F2086
G1 X30 Y29.5 F2086
M5
G0 X30.1 Y29.6
M3 S230
G1 X34.9 Y29.6 F2086
G1 X34.9 Y34.4 F2086
G1 X30.1 Y34.4 F2086
G1 X30.1 Y29.6 F2086
M5
G0 X30.2 Y29.7
M3 S230
G1 X34.8 Y29.7 F2086
G1 X34.8 Y34.3 F2086
G1 X30.2 Y34.3 F2086
G1 X30.2 Y29.7 F2086
M5
G0 X30.3 Y29.8
M3 S230
G1 X34.7 Y29.8 F2086
G1 X34.7 Y34.2 F2086
G1 X30.3 Y34.2 F2086
G1 X30.3 Y29.8 F2086
M5
G0 X30.4 Y29.9
M3 S230
G1 X34.6 Y29.9 F2086
G1 X34.6 Y34.1 F2086
G1 X30.4 Y34.1 F2086
G1 X30.4 Y29.9 F2086
M5
G0 X30.5 Y30
M3 S230
G1 X34.5 Y30 F2086
G1 X34.5 Y34 F2086
G1 X30.5 Y34 F2086
G1 X30.5 Y30 F2086
M5
G0 X30.6 Y30.1
M3 S230
G1 X34.4 Y30.1 F2086
G1 X34.4 Y33.9 F2086
G1 X30.6 Y33.9 F2086
G1 X30.6 Y30.1 F2086
M5
G0 X30.7 Y30.2
M3 S230
G1 X34.3 Y30.2 F2086
G1 X34.3 Y33.8 F2086
G1 X30.7 Y33.8 F2086
G1 X30.7 Y30.2 F2086
M5
G0 X30.8 Y30.3
M3 S230
G1 X34.2 Y30.3 F2086
G1 X34.2 Y33.7 F2086
G1 X30.8 Y33.7 F2086
G1 X30.8 Y30.3 F2086
M5
G0 X30.9 Y30.4
M3 S230
G1 X34.1 Y30.4 F2086
G1 X34.1 Y33.6 F2086
G1 X30.9 Y33.6 F2086
G1 X30.9 Y30.4 F2086
M5
G0 X31 Y30.5
M3 S230
G1 X34 Y30.5 F2086
G1 X34 Y33.5 F2086
G1 X31 Y33.5 F2086
G1 X31 Y30.5 F2086
M5
G0 X31.1 Y30.6
M3 S230
G1 X33.9 Y30.6 F2086
G1 X33.9 Y33.4 F2086
G1 X31.1 Y33.4 F2086
G1 X31.1 Y30.6 F2086
M5
G0 X31.2 Y30.7
M3 S230
G1 X33.8 Y30.7 F2086
G1 X33.8 Y33.3 F2086
G1 X31.2 Y33.3 F2086
G1 X31.2 Y30.7 F2086
M5
G0 X31.3 Y30.8
M3 S230
G1 X33.7 Y30.8 F2086
G1 X33.7 Y33.2 F2086
G1 X31.3 Y33.2 F2086
G1 X31.3 Y30.8 F2086
M5
G0 X31.4 Y30.9
M3 S230
G1 X33.6 Y30.9 F2086
G1 X33.6 Y33.1 F2086
G1 X31.4 Y33.1 F2086
G1 X31.4 Y30.9 F2086
M5
G0 X31.5 Y31
M3 S230
G1 X33.5 Y31 F2086
G1 X33.5 Y33 F2086
G1 X31.5 Y33 F2086
G1 X31.5 Y31 F2086
M5
G0 X31.6 Y31.1
M3 S230
G1 X33.4 Y31.1 F2086
G1 X33.4 Y32.9 F2086
G1 X31.6 Y32.9 F2086
G1 X31.6 Y31.1 F2086
M5
G0 X31.7 Y31.2
M3 S230
G1 X33.3 Y31.2 F2086
G1 X33.3 Y32.8 F2086
G1 X31.7 Y32.8 F2086
G1 X31.7 Y31.2 F2086
M5
G0 X31.8 Y31.3
M3 S230
G1 X33.2 Y31.3 F2086
G1 X33.2 Y32.7 F2086
G1 X31.8 Y32.7 F2086
G1 X31.8 Y31.3 F2086
M5
G0 X31.9 Y31.4
M3 S230
G1 X33.1 Y31.4 F2086
G1 X33.1 Y32.6 F2086
G1 X31.9 Y32.6 F2086
G1 X31.9 Y31.4 F2086
M5
G0 X32 Y31.5
M3 S230
G1 X33 Y31.5 F2086
G1 X33 Y32.5 F2086
G1 X32 Y32.5 F2086
G1 X32 Y31.5 F2086
M5
G0 X32.1 Y31.6
M3 S230
G1 X32.9 Y31.6 F2086
G1 X32.9 Y32.4 F2086
G1 X32.1 Y32.4 F2086
G1 X32.1 Y31.6 F2086
M5
G0 X32.2 Y31.7
M3 S230
G1 X32.8 Y31.7 F2086
G1 X32.8 Y32.3 F2086
G1 X32.2 Y32.3 F2086
G1 X32.2 Y31.7 F2086
M5
G0 X32.3 Y31.8
M3 S230
G1 X32.7 Y31.8 F2086
G1 X32.7 Y32.2 F2086
G1 X32.3 Y32.2 F2086
G1 X32.3 Y31.8 F2086
M5
G0 X32.4 Y31.9
M3 S230
G1 X32.6 Y31.9 F2086
G1 X32.6 Y32.1 F2086
G1 X32.4 Y32.1 F2086
G1 X32.4 Y31.9 F2086
M5
; Tile row=3 col=3 speed=2086 power=26
G0 X38.5 Y28
M3 S260
G1 X46.5 Y28 F2086
G1 X46.5 Y36 F2086
G1 X38.5 Y36 F2086
G1 X38.5 Y28 F2086
M5
G0 X38.6 Y28.1
M3 S260
G1 X46.4 Y28.1 F2086
G1 X46.4 Y35.9 F2086
G1 X38.6 Y35.9 F2086
G1 X38.6 Y28.1 F2086
M5
G0 X38.7 Y28.2
M3 S260
G1 X46.3 Y28.2 F2086
G1 X46.3 Y35.8 F2086
G1 X38.7 Y35.8 F2086
G1 X38.7 Y28.2 F2086
M5
G0 X38.8 Y28.3
M3 S260
G1 X46.2 Y28.3 F2086
G1 X46.2 Y35.7 F2086
G1 X38.8 Y35.7 F2086
G1 X38.8 Y28.3 F2086
M5
G0 X38.9 Y28.4
M3 S260
G1 X46.1 Y28.4 F2086
G1 X46.1 Y35.6 F2086
G1 X38.9 Y35.6 F2086
G1 X38.9 Y28.4 F2086
M5
G0 X39 Y28.5
M3 S260
G1 X46 Y28.5 F2086
G1 X46 Y35.5 F2086
G1 X39 Y35.5 F2086
G1 X39 Y28.5 F2086
M5
G0 X39.1 Y28.6
M3 S260
G1 X45.9 Y28.6 F2086
G1 X45.9 Y35.4 F2086
G1 X39.1 Y35.4 F2086
G1 X39.1 Y28.6 F2086
M5
G0 X39.2 Y28.7
M3 S260
G1 X45.8 Y28.7 F2086
G1 X45.8 Y35.3 F2086
G1 X39.2 Y35.3 F2086
G1 X39.2 Y28.7 F2086
M5
G0 X39.3 Y28.8
M3 S260
G1 X45.7 Y28.8 F2086
G1 X45.7 Y35.2 F2086
G1 X39.3 Y35.2 F2086
G1 X39.3 Y28.8 F2086
M5
G0 X39.4 Y28.9
M3 S260
G1 X45.6 Y28.9 F2086
G1 X45.6 Y35.1 F2086
G1 X39.4 Y35.1 F2086
G1 X39.4 Y28.9 F2086
M5
G0 X39.5 Y29
M3 S260
G1 X45.5 Y29 F2086
G1 X45.5 Y35 F2086
G1 X39.5 Y35 F2086
G1 X39.5 Y29 F2086
M5
G0 X39.6 Y29.1
M3 S260
G1 X45.4 Y29.1 F2086
G1 X45.4 Y34.9 F2086
G1 X39.6 Y34.9 F2086
G1 X39.6 Y29.1 F2086
M5
G0 X39.7 Y29.2
M3 S260
G1 X45.3 Y29.2 F2086
G1 X45.3 Y34.8 F2086
G1 X39.7 Y34.8 F2086
G1 X39.7 Y29.2 F2086
M5
G0 X39.8 Y29.3
M3 S260
G1 X45.2 Y29.3 F2086
G1 X45.2 Y34.7 F2086
G1 X39.8 Y34.7 F2086
G1 X39.8 Y29.3 F2086
M5
G0 X39.9 Y29.4
M3 S260
G1 X45.1 Y29.4 F2086
G1 X45.1 Y34.6 F2086
G1 X39.9 Y34.6 F2086
G1 X39.9 Y29.4 F2086
M5
G0 X40 Y29.5
M3 S260
G1 X45 Y29.5 F2086
G1 X45 Y34.5 F2086
G1 X40 Y34.5 F2086
G1 X40 Y29.5 F2086
M5
G0 X40.1 Y29.6
M3 S260
G1 X44.9 Y29.6 F2086
G1 X44.9 Y34.4 F2086
G1 X40.1 Y34.4 F2086
G1 X40.1 Y29.6 F2086
M5
G0 X40.2 Y29.7
M3 S260
G1 X44.8 Y29.7 F2086
G1 X44.8 Y34.3 F2086
G1 X40.2 Y34.3 F2086
G1 X40.2 Y29.7 F2086
M5
G0 X40.3 Y29.8
M3 S260
G1 X44.7 Y29.8 F2086
G1 X44.7 Y34.2 F2086
G1 X40.3 Y34.2 F2086
G1 X40.3 Y29.8 F2086
M5
G0 X40.4 Y29.9
M3 S260
G1 X44.6 Y29.9 F2086
G1 X44.6 Y34.1 F2086
G1 X40.4 Y34.1 F2086
G1 X40.4 Y29.9 F2086
M5
